(.../pcbgcode/pcbgcode-master/pcb-gcode.ulp)
(Copyright 2005 - 2012 by John Johnson)
(See readme.txt for licensing terms.)
(This file generated from the board:)
(.../LM7805_voltage_regulator/Voltage_regulator.brd)
(Current profile is .../pcb-gcode-3.6.2.4/profiles/generic.pp  )
(This file generated 3/7/2023 12:24 PM)
(Settings from pcb-machine.h)
(spindle on time = 3.0000)
(spindle speed = 20000.0000)
(tool change at 0.0000 0.0000 1.0000 )
(feed rate xy = F0.00  )
(feed rate z  = F20.00 )
(Z Axis Settings)
(  High     Up        Down     Drill)
(0.5000 	0.1000 	-0.0070 	-0.0320 )
(Settings from pcb-defaults.h)
(isolate min = 0.0010)
(isolate max = 0.0200)
(isolate step = 0.0050)
(Generated top outlines, top drill, bottom outlines, bottom drill, )
(Unit of measure: inch)
(Beginning of every file)
(Beginning of every bottom file)
(Beginning of All Drill files)
(Bottom Drill Begin)
( Tool|       Size       |  Min Sub |  Max Sub |   Count )
( T01  0.813mm 0.0320in 0.0000in 0.0000in )
( T02  1.016mm 0.0400in 0.0000in 0.0000in )
(Inch Mode)
G20
(Absolute Coordinates)
G90
S20000
G00 Z0.5000 
G00 X0.0000 Y0.0000 
M03
G04 P3.000000
(Tool Change Begin)
(Bottom Tool Change Begin)
M05
G00 Z1.0000 
M06 T01  ; 0.0320 
(Bottom Tool changed)
(Tool changed)
(Tool zero begin)
(Bottom Tool zero begin)
G01 Z0.0000 F20.00 
M06 
(Bottom Tool zero end)
(Tool zero end)
G00 Z0.1000 
M03
G04 P3.000000
(Bottom Tool Change End)
(Tool Change End)
G00 Z0.100000
G00 X-1.3000 Y0.8500 
G01 Z-0.0320 F20.00 
G01 Z0.100000
(R0.1000  P1.000000)
G00 X-1.4000 Y0.8500 
G01 Z-0.0320 
G01 Z0.100000
G00 X-1.6500 Y0.8500 
G01 Z-0.0320 
G01 Z0.100000
G00 X-1.7500 Y0.8500 
G01 Z-0.0320 
G01 Z0.100000
(Tool Change Begin)
(Bottom Tool Change Begin)
M05
G00 Z1.0000 
G00 X0.0000 Y0.0000 
M06 T02  ; 0.0400 
(Bottom Tool changed)
(Tool changed)
(Tool zero begin)
(Bottom Tool zero begin)
G01 Z0.0000 F20.00 
M06 
(Bottom Tool zero end)
(Tool zero end)
G00 Z0.1000 
M03
G04 P3.000000
(Bottom Tool Change End)
(Tool Change End)
G00 Z0.100000
G00 X-0.8500 Y1.1000 
G01 Z-0.0320 F20.00 
G01 Z0.100000
(R0.1000  P1.000000)
G00 X-0.9500 Y1.1000 
G01 Z-0.0320 
G01 Z0.100000
G00 X-1.2000 Y1.0500 
G01 Z-0.0320 
G01 Z0.100000
G00 X-1.3000 Y1.0500 
G01 Z-0.0320 
G01 Z0.100000
G00 X-1.4000 Y1.0500 
G01 Z-0.0320 
G01 Z0.100000
G00 X-1.7000 Y1.0500 
G01 Z-0.0320 
G01 Z0.100000
G00 X-1.8000 Y1.0500 
G01 Z-0.0320 
G01 Z0.100000
G00 X-1.8000 Y1.2500 
G01 Z-0.0320 
G01 Z0.100000
G00 X-1.7000 Y1.2500 
G01 Z-0.0320 
G01 Z0.100000
G00 X-1.7000 Y1.4500 
G01 Z-0.0320 
G01 Z0.100000
G00 X-1.8000 Y1.4500 
G01 Z-0.0320 
G01 Z0.100000
G00 X-0.9500 Y1.4000 
G01 Z-0.0320 
G01 Z0.100000
G00 X-0.8500 Y1.4000 
G01 Z-0.0320 
G01 Z0.100000
(Bottom Drill End)
(End of all Drill Files)
(End of every bottom file)
(End of every file)
T01 
G00 Z0.5000 
M05
M02
