(.../pcbgcode/pcbgcode-master/pcb-gcode.ulp)
(Copyright 2005 - 2012 by John Johnson)
(See readme.txt for licensing terms.)
(This file generated from the board:)
(.../LM7805_voltage_regulator/Voltage_regulator.brd)
(Current profile is .../pcb-gcode-3.6.2.4/profiles/generic.pp  )
(This file generated 3/7/2023 12:18 PM)
(Settings from pcb-machine.h)
(spindle on time = 3.0000)
(  Tool Size)
(0.0070 )
(spindle speed = 30000.0000)
(tool change at 0.0000 0.0000 1.0000 )
(feed rate xy = F20.00 )
(feed rate z  = F10.00 )
(Z Axis Settings)
(  High     Up        Down     Drill)
(0.5000 	0.1000 	-0.0070 	-0.0320 )
(Settings from pcb-defaults.h)
(isolate min = 0.0010)
(isolate max = 0.0200)
(isolate step = 0.0050)
(Generated top outlines, top drill, bottom outlines, bottom drill, )
(Unit of measure: inch)
(Beginning of every file)
(Beginning of every top file)
(Outline Begin)
(Top outline Begin)
(Inch Mode)
G20
(Absolute Coordinates)
G90
S30000
G00 Z0.5000 
G00 X0.0000 Y0.0000 
M03
G04 P3.000000
G00 Z0.1000 
G00 X0.7533 Y0.7100 
G01 Z-0.0070 F10.00 
G01 X0.7526 Y0.7117 F20.00 
G01 X0.7526 Y0.7883 
G01 X0.7533 Y0.7900 
G01 X0.7545 Y0.7912 
G01 X0.7562 Y0.7919 
G01 X0.8288 Y0.7919 
G01 X0.8305 Y0.7912 
G01 X0.8318 Y0.7900 
G01 X0.8325 Y0.7883 
G01 X0.8325 Y0.7117 
G01 X0.8318 Y0.7100 
G01 X0.8305 Y0.7088 
G01 X0.8288 Y0.7081 
G01 X0.7562 Y0.7081 
G01 X0.7545 Y0.7088 
G01 X0.7533 Y0.7100 
G00 Z0.1000 
G00 X0.8588 Y0.7100 
G01 Z-0.0070 F10.00 
G01 X0.8581 Y0.7117 F20.00 
G01 X0.8581 Y0.7883 
G01 X0.8588 Y0.7900 
G01 X0.8600 Y0.7912 
G01 X0.8617 Y0.7919 
G01 X0.9383 Y0.7919 
G01 X0.9400 Y0.7912 
G01 X0.9412 Y0.7900 
G01 X0.9419 Y0.7883 
G01 X0.9419 Y0.7117 
G01 X0.9412 Y0.7100 
G01 X0.9400 Y0.7088 
G01 X0.9383 Y0.7081 
G01 X0.8617 Y0.7081 
G01 X0.8600 Y0.7088 
G01 X0.8588 Y0.7100 
G00 Z0.1000 
G00 X0.9588 Y0.7100 
G01 Z-0.0070 F10.00 
G01 X0.9581 Y0.7117 F20.00 
G01 X0.9581 Y0.7883 
G01 X0.9588 Y0.7900 
G01 X0.9600 Y0.7912 
G01 X0.9617 Y0.7919 
G01 X1.0383 Y0.7919 
G01 X1.0400 Y0.7912 
G01 X1.0412 Y0.7900 
G01 X1.0419 Y0.7883 
G01 X1.0419 Y0.7117 
G01 X1.0412 Y0.7100 
G01 X1.0400 Y0.7088 
G01 X1.0383 Y0.7081 
G01 X0.9617 Y0.7081 
G01 X0.9600 Y0.7088 
G01 X0.9588 Y0.7100 
G00 Z0.1000 
G00 X1.0682 Y0.7100 
G01 Z-0.0070 F10.00 
G01 X1.0675 Y0.7117 F20.00 
G01 X1.0675 Y0.7883 
G01 X1.0682 Y0.7900 
G01 X1.0695 Y0.7912 
G01 X1.0712 Y0.7919 
G01 X1.1438 Y0.7919 
G01 X1.1455 Y0.7912 
G01 X1.1467 Y0.7900 
G01 X1.1474 Y0.7883 
G01 X1.1474 Y0.7117 
G01 X1.1467 Y0.7100 
G01 X1.1455 Y0.7088 
G01 X1.1438 Y0.7081 
G01 X1.0712 Y0.7081 
G01 X1.0695 Y0.7088 
G01 X1.0682 Y0.7100 
G00 Z0.1000 
G00 X1.0106 Y0.8230 
G01 Z-0.0070 F10.00 
G01 X1.0090 Y0.8223 F20.00 
G01 X0.9934 Y0.8223 
G01 X0.9917 Y0.8230 
G01 X0.9905 Y0.8242 
G01 X0.9898 Y0.8259 
G01 X0.9898 Y0.8828 
G01 X0.9905 Y0.8844 
G01 X0.9917 Y0.8857 
G01 X0.9934 Y0.8864 
G01 X1.0090 Y0.8864 
G01 X1.0106 Y0.8857 
G01 X1.0119 Y0.8844 
G01 X1.0126 Y0.8828 
G01 X1.0126 Y0.8595 
G01 X1.2640 Y0.8595 
G01 X1.2640 Y0.8649 
G01 X1.2851 Y0.8860 
G01 X1.2905 Y0.8860 
G01 X1.2905 Y0.9867 
G01 X1.2899 Y0.9868 
G01 X1.2837 Y0.9894 
G01 X1.2780 Y0.9932 
G01 X1.2732 Y0.9980 
G01 X1.2694 Y1.0037 
G01 X1.2668 Y1.0099 
G01 X1.2655 Y1.0166 
G01 X1.2655 Y1.0711 
G01 X1.1900 Y1.1466 
G01 X1.1354 Y1.0919 
G01 X1.1319 Y1.0905 
G01 X0.9845 Y1.0905 
G01 X0.9845 Y1.0666 
G01 X0.9832 Y1.0599 
G01 X0.9806 Y1.0537 
G01 X0.9768 Y1.0480 
G01 X0.9720 Y1.0432 
G01 X0.9663 Y1.0394 
G01 X0.9601 Y1.0368 
G01 X0.9534 Y1.0355 
G01 X0.9466 Y1.0355 
G01 X0.9399 Y1.0368 
G01 X0.9337 Y1.0394 
G01 X0.9280 Y1.0432 
G01 X0.9232 Y1.0480 
G01 X0.9194 Y1.0537 
G01 X0.9168 Y1.0599 
G01 X0.9155 Y1.0666 
G01 X0.9155 Y1.1334 
G01 X0.9168 Y1.1401 
G01 X0.9194 Y1.1463 
G01 X0.9232 Y1.1520 
G01 X0.9280 Y1.1568 
G01 X0.9337 Y1.1606 
G01 X0.9399 Y1.1632 
G01 X0.9405 Y1.1633 
G01 X0.9405 Y1.3367 
G01 X0.9399 Y1.3368 
G01 X0.9337 Y1.3394 
G01 X0.9280 Y1.3432 
G01 X0.9232 Y1.3480 
G01 X0.9194 Y1.3537 
G01 X0.9168 Y1.3599 
G01 X0.9155 Y1.3666 
G01 X0.9155 Y1.4334 
G01 X0.9168 Y1.4401 
G01 X0.9194 Y1.4463 
G01 X0.9232 Y1.4520 
G01 X0.9280 Y1.4568 
G01 X0.9337 Y1.4606 
G01 X0.9399 Y1.4632 
G01 X0.9466 Y1.4645 
G01 X0.9534 Y1.4645 
G01 X0.9601 Y1.4632 
G01 X0.9663 Y1.4606 
G01 X0.9720 Y1.4568 
G01 X0.9768 Y1.4520 
G01 X0.9806 Y1.4463 
G01 X0.9832 Y1.4401 
G01 X0.9845 Y1.4334 
G01 X0.9845 Y1.3666 
G01 X0.9832 Y1.3599 
G01 X0.9806 Y1.3537 
G01 X0.9768 Y1.3480 
G01 X0.9720 Y1.3432 
G01 X0.9663 Y1.3394 
G01 X0.9601 Y1.3368 
G01 X0.9595 Y1.3367 
G01 X0.9595 Y1.1633 
G01 X0.9601 Y1.1632 
G01 X0.9663 Y1.1606 
G01 X0.9720 Y1.1568 
G01 X0.9768 Y1.1520 
G01 X0.9806 Y1.1463 
G01 X0.9832 Y1.1401 
G01 X0.9845 Y1.1334 
G01 X0.9845 Y1.1095 
G01 X1.1261 Y1.1095 
G01 X1.1805 Y1.1639 
G01 X1.1805 Y1.2219 
G01 X1.1688 Y1.2219 
G01 X1.1671 Y1.2226 
G01 X1.1659 Y1.2238 
G01 X1.1652 Y1.2255 
G01 X1.1652 Y1.2745 
G01 X1.1659 Y1.2762 
G01 X1.1671 Y1.2774 
G01 X1.1688 Y1.2781 
G01 X1.2021 Y1.2781 
G01 X1.2037 Y1.2774 
G01 X1.2050 Y1.2762 
G01 X1.2057 Y1.2745 
G01 X1.2057 Y1.2255 
G01 X1.2050 Y1.2238 
G01 X1.2037 Y1.2226 
G01 X1.2021 Y1.2219 
G01 X1.1995 Y1.2219 
G01 X1.1995 Y1.1639 
G01 X1.2687 Y1.0947 
G01 X1.2694 Y1.0963 
G01 X1.2732 Y1.1020 
G01 X1.2780 Y1.1068 
G01 X1.2837 Y1.1106 
G01 X1.2899 Y1.1132 
G01 X1.2966 Y1.1145 
G01 X1.3034 Y1.1145 
G01 X1.3101 Y1.1132 
G01 X1.3163 Y1.1106 
G01 X1.3220 Y1.1068 
G01 X1.3268 Y1.1020 
G01 X1.3306 Y1.0963 
G01 X1.3332 Y1.0901 
G01 X1.3345 Y1.0834 
G01 X1.3345 Y1.0166 
G01 X1.3332 Y1.0099 
G01 X1.3306 Y1.0037 
G01 X1.3268 Y0.9980 
G01 X1.3220 Y0.9932 
G01 X1.3163 Y0.9894 
G01 X1.3101 Y0.9868 
G01 X1.3095 Y0.9867 
G01 X1.3095 Y0.8860 
G01 X1.3149 Y0.8860 
G01 X1.3360 Y0.8649 
G01 X1.3360 Y0.8351 
G01 X1.3322 Y0.8313 
G01 X1.3539 Y0.8095 
G01 X1.4161 Y0.8095 
G01 X1.4646 Y0.8581 
G01 X1.4681 Y0.8595 
G01 X1.6140 Y0.8595 
G01 X1.6140 Y0.8649 
G01 X1.6351 Y0.8860 
G01 X1.6649 Y0.8860 
G01 X1.6860 Y0.8649 
G01 X1.6860 Y0.8351 
G01 X1.6822 Y0.8313 
G01 X1.7039 Y0.8095 
G01 X1.7661 Y0.8095 
G01 X1.7905 Y0.8339 
G01 X1.7905 Y0.9867 
G01 X1.7899 Y0.9868 
G01 X1.7837 Y0.9894 
G01 X1.7780 Y0.9932 
G01 X1.7732 Y0.9980 
G01 X1.7694 Y1.0037 
G01 X1.7668 Y1.0099 
G01 X1.7655 Y1.0166 
G01 X1.7655 Y1.0834 
G01 X1.7668 Y1.0901 
G01 X1.7694 Y1.0963 
G01 X1.7732 Y1.1020 
G01 X1.7780 Y1.1068 
G01 X1.7837 Y1.1106 
G01 X1.7899 Y1.1132 
G01 X1.7905 Y1.1133 
G01 X1.7905 Y1.1867 
G01 X1.7899 Y1.1868 
G01 X1.7837 Y1.1894 
G01 X1.7780 Y1.1932 
G01 X1.7732 Y1.1980 
G01 X1.7694 Y1.2037 
G01 X1.7668 Y1.2099 
G01 X1.7655 Y1.2166 
G01 X1.7655 Y1.2834 
G01 X1.7668 Y1.2901 
G01 X1.7694 Y1.2963 
G01 X1.7732 Y1.3020 
G01 X1.7780 Y1.3068 
G01 X1.7837 Y1.3106 
G01 X1.7899 Y1.3132 
G01 X1.7905 Y1.3133 
G01 X1.7905 Y1.3867 
G01 X1.7899 Y1.3868 
G01 X1.7837 Y1.3894 
G01 X1.7780 Y1.3932 
G01 X1.7732 Y1.3980 
G01 X1.7694 Y1.4037 
G01 X1.7668 Y1.4099 
G01 X1.7655 Y1.4166 
G01 X1.7655 Y1.4711 
G01 X1.7161 Y1.5205 
G01 X1.6839 Y1.5205 
G01 X1.5554 Y1.3919 
G01 X1.5519 Y1.3905 
G01 X1.5372 Y1.3905 
G01 X1.5372 Y1.3715 
G01 X1.5365 Y1.3699 
G01 X1.5352 Y1.3686 
G01 X1.5336 Y1.3679 
G01 X1.4845 Y1.3679 
G01 X1.4829 Y1.3686 
G01 X1.4816 Y1.3699 
G01 X1.4809 Y1.3715 
G01 X1.4809 Y1.4285 
G01 X1.4816 Y1.4301 
G01 X1.4829 Y1.4314 
G01 X1.4845 Y1.4321 
G01 X1.5336 Y1.4321 
G01 X1.5352 Y1.4314 
G01 X1.5365 Y1.4301 
G01 X1.5372 Y1.4285 
G01 X1.5372 Y1.4095 
G01 X1.5461 Y1.4095 
G01 X1.6719 Y1.5354 
G01 X1.6746 Y1.5381 
G01 X1.6781 Y1.5395 
G01 X1.7219 Y1.5395 
G01 X1.7254 Y1.5381 
G01 X1.7687 Y1.4947 
G01 X1.7694 Y1.4963 
G01 X1.7732 Y1.5020 
G01 X1.7780 Y1.5068 
G01 X1.7837 Y1.5106 
G01 X1.7899 Y1.5132 
G01 X1.7966 Y1.5145 
G01 X1.8034 Y1.5145 
G01 X1.8101 Y1.5132 
G01 X1.8163 Y1.5106 
G01 X1.8220 Y1.5068 
G01 X1.8268 Y1.5020 
G01 X1.8306 Y1.4963 
G01 X1.8332 Y1.4901 
G01 X1.8345 Y1.4834 
G01 X1.8345 Y1.4166 
G01 X1.8332 Y1.4099 
G01 X1.8306 Y1.4037 
G01 X1.8268 Y1.3980 
G01 X1.8220 Y1.3932 
G01 X1.8163 Y1.3894 
G01 X1.8101 Y1.3868 
G01 X1.8095 Y1.3867 
G01 X1.8095 Y1.3133 
G01 X1.8101 Y1.3132 
G01 X1.8163 Y1.3106 
G01 X1.8220 Y1.3068 
G01 X1.8268 Y1.3020 
G01 X1.8306 Y1.2963 
G01 X1.8332 Y1.2901 
G01 X1.8345 Y1.2834 
G01 X1.8345 Y1.2166 
G01 X1.8332 Y1.2099 
G01 X1.8306 Y1.2037 
G01 X1.8268 Y1.1980 
G01 X1.8220 Y1.1932 
G01 X1.8163 Y1.1894 
G01 X1.8101 Y1.1868 
G01 X1.8095 Y1.1867 
G01 X1.8095 Y1.1133 
G01 X1.8101 Y1.1132 
G01 X1.8163 Y1.1106 
G01 X1.8220 Y1.1068 
G01 X1.8268 Y1.1020 
G01 X1.8306 Y1.0963 
G01 X1.8332 Y1.0901 
G01 X1.8345 Y1.0834 
G01 X1.8345 Y1.0166 
G01 X1.8332 Y1.0099 
G01 X1.8306 Y1.0037 
G01 X1.8268 Y0.9980 
G01 X1.8220 Y0.9932 
G01 X1.8163 Y0.9894 
G01 X1.8101 Y0.9868 
G01 X1.8095 Y0.9867 
G01 X1.8095 Y0.8281 
G01 X1.8081 Y0.8246 
G01 X1.7781 Y0.7946 
G01 X1.7754 Y0.7919 
G01 X1.7719 Y0.7905 
G01 X1.6981 Y0.7905 
G01 X1.6946 Y0.7919 
G01 X1.6687 Y0.8178 
G01 X1.6649 Y0.8140 
G01 X1.6351 Y0.8140 
G01 X1.6140 Y0.8351 
G01 X1.6140 Y0.8405 
G01 X1.4739 Y0.8405 
G01 X1.4281 Y0.7946 
G01 X1.4254 Y0.7919 
G01 X1.4219 Y0.7905 
G01 X1.3481 Y0.7905 
G01 X1.3446 Y0.7919 
G01 X1.3187 Y0.8178 
G01 X1.3149 Y0.8140 
G01 X1.2851 Y0.8140 
G01 X1.2640 Y0.8351 
G01 X1.2640 Y0.8405 
G01 X1.0126 Y0.8405 
G01 X1.0126 Y0.8259 
G01 X1.0119 Y0.8242 
G01 X1.0106 Y0.8230 
G00 Z0.1000 
G00 X0.9850 Y0.8230 
G01 Z-0.0070 F10.00 
G01 X0.9834 Y0.8223 F20.00 
G01 X0.9678 Y0.8223 
G01 X0.9662 Y0.8230 
G01 X0.9649 Y0.8242 
G01 X0.9642 Y0.8259 
G01 X0.9642 Y0.8828 
G01 X0.9649 Y0.8844 
G01 X0.9662 Y0.8857 
G01 X0.9678 Y0.8864 
G01 X0.9834 Y0.8864 
G01 X0.9850 Y0.8857 
G01 X0.9863 Y0.8844 
G01 X0.9870 Y0.8828 
G01 X0.9870 Y0.8259 
G01 X0.9863 Y0.8242 
G01 X0.9850 Y0.8230 
G00 Z0.1000 
G00 X0.9594 Y0.8230 
G01 Z-0.0070 F10.00 
G01 X0.9578 Y0.8223 F20.00 
G01 X0.9422 Y0.8223 
G01 X0.9406 Y0.8230 
G01 X0.9393 Y0.8242 
G01 X0.9386 Y0.8259 
G01 X0.9386 Y0.8828 
G01 X0.9393 Y0.8844 
G01 X0.9406 Y0.8857 
G01 X0.9422 Y0.8864 
G01 X0.9578 Y0.8864 
G01 X0.9594 Y0.8857 
G01 X0.9607 Y0.8844 
G01 X0.9614 Y0.8828 
G01 X0.9614 Y0.8259 
G01 X0.9607 Y0.8242 
G01 X0.9594 Y0.8230 
G00 Z0.1000 
G00 X0.9338 Y0.8230 
G01 Z-0.0070 F10.00 
G01 X0.9322 Y0.8223 F20.00 
G01 X0.9166 Y0.8223 
G01 X0.9150 Y0.8230 
G01 X0.9137 Y0.8242 
G01 X0.9130 Y0.8259 
G01 X0.9130 Y0.8828 
G01 X0.9137 Y0.8844 
G01 X0.9150 Y0.8857 
G01 X0.9166 Y0.8864 
G01 X0.9322 Y0.8864 
G01 X0.9338 Y0.8857 
G01 X0.9351 Y0.8844 
G01 X0.9358 Y0.8828 
G01 X0.9358 Y0.8259 
G01 X0.9351 Y0.8242 
G01 X0.9338 Y0.8230 
G00 Z0.1000 
G00 X0.9083 Y0.8230 
G01 Z-0.0070 F10.00 
G01 X0.9066 Y0.8223 F20.00 
G01 X0.8910 Y0.8223 
G01 X0.8894 Y0.8230 
G01 X0.8881 Y0.8242 
G01 X0.8874 Y0.8259 
G01 X0.8874 Y0.8828 
G01 X0.8881 Y0.8844 
G01 X0.8894 Y0.8857 
G01 X0.8905 Y0.8862 
G01 X0.8905 Y1.0461 
G01 X0.8813 Y1.0553 
G01 X0.8806 Y1.0537 
G01 X0.8768 Y1.0480 
G01 X0.8720 Y1.0432 
G01 X0.8663 Y1.0394 
G01 X0.8601 Y1.0368 
G01 X0.8534 Y1.0355 
G01 X0.8466 Y1.0355 
G01 X0.8399 Y1.0368 
G01 X0.8337 Y1.0394 
G01 X0.8280 Y1.0432 
G01 X0.8232 Y1.0480 
G01 X0.8194 Y1.0537 
G01 X0.8168 Y1.0599 
G01 X0.8155 Y1.0666 
G01 X0.8155 Y1.1334 
G01 X0.8168 Y1.1401 
G01 X0.8194 Y1.1463 
G01 X0.8232 Y1.1520 
G01 X0.8280 Y1.1568 
G01 X0.8337 Y1.1606 
G01 X0.8399 Y1.1632 
G01 X0.8405 Y1.1633 
G01 X0.8405 Y1.3367 
G01 X0.8399 Y1.3368 
G01 X0.8337 Y1.3394 
G01 X0.8280 Y1.3432 
G01 X0.8232 Y1.3480 
G01 X0.8194 Y1.3537 
G01 X0.8168 Y1.3599 
G01 X0.8155 Y1.3666 
G01 X0.8155 Y1.4334 
G01 X0.8168 Y1.4401 
G01 X0.8194 Y1.4463 
G01 X0.8232 Y1.4520 
G01 X0.8280 Y1.4568 
G01 X0.8337 Y1.4606 
G01 X0.8399 Y1.4632 
G01 X0.8466 Y1.4645 
G01 X0.8534 Y1.4645 
G01 X0.8601 Y1.4632 
G01 X0.8663 Y1.4606 
G01 X0.8720 Y1.4568 
G01 X0.8768 Y1.4520 
G01 X0.8806 Y1.4463 
G01 X0.8813 Y1.4447 
G01 X0.9246 Y1.4881 
G01 X0.9281 Y1.4895 
G01 X1.1019 Y1.4895 
G01 X1.1054 Y1.4881 
G01 X1.1081 Y1.4854 
G01 X1.1666 Y1.4269 
G01 X1.1671 Y1.4274 
G01 X1.1688 Y1.4281 
G01 X1.2021 Y1.4281 
G01 X1.2037 Y1.4274 
G01 X1.2050 Y1.4262 
G01 X1.2057 Y1.4245 
G01 X1.2057 Y1.3755 
G01 X1.2050 Y1.3738 
G01 X1.2037 Y1.3726 
G01 X1.2021 Y1.3719 
G01 X1.1688 Y1.3719 
G01 X1.1671 Y1.3726 
G01 X1.1659 Y1.3738 
G01 X1.1652 Y1.3755 
G01 X1.1652 Y1.4014 
G01 X1.0961 Y1.4705 
G01 X0.9339 Y1.4705 
G01 X0.8845 Y1.4211 
G01 X0.8845 Y1.3666 
G01 X0.8832 Y1.3599 
G01 X0.8806 Y1.3537 
G01 X0.8768 Y1.3480 
G01 X0.8720 Y1.3432 
G01 X0.8663 Y1.3394 
G01 X0.8601 Y1.3368 
G01 X0.8595 Y1.3367 
G01 X0.8595 Y1.1633 
G01 X0.8601 Y1.1632 
G01 X0.8663 Y1.1606 
G01 X0.8720 Y1.1568 
G01 X0.8768 Y1.1520 
G01 X0.8806 Y1.1463 
G01 X0.8832 Y1.1401 
G01 X0.8845 Y1.1334 
G01 X0.8845 Y1.0789 
G01 X0.9081 Y1.0554 
G01 X0.9095 Y1.0519 
G01 X0.9095 Y1.0295 
G01 X0.9661 Y1.0295 
G01 X0.9946 Y1.0581 
G01 X0.9981 Y1.0595 
G01 X1.1655 Y1.0595 
G01 X1.1655 Y1.0834 
G01 X1.1668 Y1.0901 
G01 X1.1694 Y1.0963 
G01 X1.1732 Y1.1020 
G01 X1.1780 Y1.1068 
G01 X1.1837 Y1.1106 
G01 X1.1899 Y1.1132 
G01 X1.1966 Y1.1145 
G01 X1.2034 Y1.1145 
G01 X1.2101 Y1.1132 
G01 X1.2163 Y1.1106 
G01 X1.2220 Y1.1068 
G01 X1.2268 Y1.1020 
G01 X1.2306 Y1.0963 
G01 X1.2332 Y1.0901 
G01 X1.2345 Y1.0834 
G01 X1.2345 Y1.0166 
G01 X1.2332 Y1.0099 
G01 X1.2306 Y1.0037 
G01 X1.2268 Y0.9980 
G01 X1.2220 Y0.9932 
G01 X1.2163 Y0.9894 
G01 X1.2101 Y0.9868 
G01 X1.2034 Y0.9855 
G01 X1.1966 Y0.9855 
G01 X1.1899 Y0.9868 
G01 X1.1837 Y0.9894 
G01 X1.1780 Y0.9932 
G01 X1.1732 Y0.9980 
G01 X1.1694 Y1.0037 
G01 X1.1668 Y1.0099 
G01 X1.1655 Y1.0166 
G01 X1.1655 Y1.0405 
G01 X1.0039 Y1.0405 
G01 X0.9781 Y1.0146 
G01 X0.9754 Y1.0119 
G01 X0.9719 Y1.0105 
G01 X0.9095 Y1.0105 
G01 X0.9095 Y0.8845 
G01 X0.9102 Y0.8828 
G01 X0.9102 Y0.8259 
G01 X0.9095 Y0.8242 
G01 X0.9083 Y0.8230 
G00 Z0.1000 
G00 X1.3640 Y0.8351 
G01 Z-0.0070 F10.00 
G01 X1.3640 Y0.8649 F20.00 
G01 X1.3851 Y0.8860 
G01 X1.3905 Y0.8860 
G01 X1.3905 Y0.9867 
G01 X1.3899 Y0.9868 
G01 X1.3837 Y0.9894 
G01 X1.3780 Y0.9932 
G01 X1.3732 Y0.9980 
G01 X1.3694 Y1.0037 
G01 X1.3668 Y1.0099 
G01 X1.3655 Y1.0166 
G01 X1.3655 Y1.0834 
G01 X1.3668 Y1.0901 
G01 X1.3694 Y1.0963 
G01 X1.3732 Y1.1020 
G01 X1.3780 Y1.1068 
G01 X1.3837 Y1.1106 
G01 X1.3899 Y1.1132 
G01 X1.3905 Y1.1133 
G01 X1.3905 Y1.1619 
G01 X1.3919 Y1.1654 
G01 X1.4632 Y1.2367 
G01 X1.4632 Y1.2681 
G01 X1.4640 Y1.2710 
G01 X1.4655 Y1.2736 
G01 X1.4677 Y1.2758 
G01 X1.4703 Y1.2773 
G01 X1.4733 Y1.2781 
G01 X1.5094 Y1.2781 
G01 X1.5123 Y1.2773 
G01 X1.5150 Y1.2758 
G01 X1.5171 Y1.2736 
G01 X1.5187 Y1.2710 
G01 X1.5195 Y1.2681 
G01 X1.5195 Y1.2595 
G01 X1.6655 Y1.2595 
G01 X1.6655 Y1.2834 
G01 X1.6668 Y1.2901 
G01 X1.6694 Y1.2963 
G01 X1.6732 Y1.3020 
G01 X1.6780 Y1.3068 
G01 X1.6837 Y1.3106 
G01 X1.6899 Y1.3132 
G01 X1.6905 Y1.3133 
G01 X1.6905 Y1.3867 
G01 X1.6899 Y1.3868 
G01 X1.6837 Y1.3894 
G01 X1.6780 Y1.3932 
G01 X1.6732 Y1.3980 
G01 X1.6694 Y1.4037 
G01 X1.6668 Y1.4099 
G01 X1.6655 Y1.4166 
G01 X1.6655 Y1.4834 
G01 X1.6668 Y1.4901 
G01 X1.6694 Y1.4963 
G01 X1.6732 Y1.5020 
G01 X1.6780 Y1.5068 
G01 X1.6837 Y1.5106 
G01 X1.6899 Y1.5132 
G01 X1.6966 Y1.5145 
G01 X1.7034 Y1.5145 
G01 X1.7101 Y1.5132 
G01 X1.7163 Y1.5106 
G01 X1.7220 Y1.5068 
G01 X1.7268 Y1.5020 
G01 X1.7306 Y1.4963 
G01 X1.7332 Y1.4901 
G01 X1.7345 Y1.4834 
G01 X1.7345 Y1.4166 
G01 X1.7332 Y1.4099 
G01 X1.7306 Y1.4037 
G01 X1.7268 Y1.3980 
G01 X1.7220 Y1.3932 
G01 X1.7163 Y1.3894 
G01 X1.7101 Y1.3868 
G01 X1.7095 Y1.3867 
G01 X1.7095 Y1.3133 
G01 X1.7101 Y1.3132 
G01 X1.7163 Y1.3106 
G01 X1.7220 Y1.3068 
G01 X1.7268 Y1.3020 
G01 X1.7306 Y1.2963 
G01 X1.7332 Y1.2901 
G01 X1.7345 Y1.2834 
G01 X1.7345 Y1.2166 
G01 X1.7332 Y1.2099 
G01 X1.7306 Y1.2037 
G01 X1.7268 Y1.1980 
G01 X1.7220 Y1.1932 
G01 X1.7163 Y1.1894 
G01 X1.7101 Y1.1868 
G01 X1.7095 Y1.1867 
G01 X1.7095 Y1.1133 
G01 X1.7101 Y1.1132 
G01 X1.7163 Y1.1106 
G01 X1.7220 Y1.1068 
G01 X1.7268 Y1.1020 
G01 X1.7306 Y1.0963 
G01 X1.7332 Y1.0901 
G01 X1.7345 Y1.0834 
G01 X1.7345 Y1.0289 
G01 X1.7581 Y1.0054 
G01 X1.7595 Y1.0019 
G01 X1.7595 Y0.8860 
G01 X1.7649 Y0.8860 
G01 X1.7860 Y0.8649 
G01 X1.7860 Y0.8351 
G01 X1.7649 Y0.8140 
G01 X1.7351 Y0.8140 
G01 X1.7140 Y0.8351 
G01 X1.7140 Y0.8649 
G01 X1.7351 Y0.8860 
G01 X1.7405 Y0.8860 
G01 X1.7405 Y0.9961 
G01 X1.7313 Y1.0053 
G01 X1.7306 Y1.0037 
G01 X1.7268 Y0.9980 
G01 X1.7220 Y0.9932 
G01 X1.7163 Y0.9894 
G01 X1.7101 Y0.9868 
G01 X1.7034 Y0.9855 
G01 X1.6966 Y0.9855 
G01 X1.6899 Y0.9868 
G01 X1.6837 Y0.9894 
G01 X1.6780 Y0.9932 
G01 X1.6732 Y0.9980 
G01 X1.6694 Y1.0037 
G01 X1.6668 Y1.0099 
G01 X1.6655 Y1.0166 
G01 X1.6655 Y1.0834 
G01 X1.6668 Y1.0901 
G01 X1.6694 Y1.0963 
G01 X1.6732 Y1.1020 
G01 X1.6780 Y1.1068 
G01 X1.6837 Y1.1106 
G01 X1.6899 Y1.1132 
G01 X1.6905 Y1.1133 
G01 X1.6905 Y1.1867 
G01 X1.6899 Y1.1868 
G01 X1.6837 Y1.1894 
G01 X1.6780 Y1.1932 
G01 X1.6732 Y1.1980 
G01 X1.6694 Y1.2037 
G01 X1.6668 Y1.2099 
G01 X1.6655 Y1.2166 
G01 X1.6655 Y1.2405 
G01 X1.5195 Y1.2405 
G01 X1.5195 Y1.2319 
G01 X1.5187 Y1.2290 
G01 X1.5171 Y1.2264 
G01 X1.5150 Y1.2242 
G01 X1.5123 Y1.2227 
G01 X1.5094 Y1.2219 
G01 X1.4753 Y1.2219 
G01 X1.4095 Y1.1561 
G01 X1.4095 Y1.1133 
G01 X1.4101 Y1.1132 
G01 X1.4163 Y1.1106 
G01 X1.4220 Y1.1068 
G01 X1.4268 Y1.1020 
G01 X1.4306 Y1.0963 
G01 X1.4332 Y1.0901 
G01 X1.4345 Y1.0834 
G01 X1.4345 Y1.0166 
G01 X1.4332 Y1.0099 
G01 X1.4306 Y1.0037 
G01 X1.4268 Y0.9980 
G01 X1.4220 Y0.9932 
G01 X1.4163 Y0.9894 
G01 X1.4101 Y0.9868 
G01 X1.4095 Y0.9867 
G01 X1.4095 Y0.8860 
G01 X1.4149 Y0.8860 
G01 X1.4360 Y0.8649 
G01 X1.4360 Y0.8351 
G01 X1.4149 Y0.8140 
G01 X1.3851 Y0.8140 
G01 X1.3640 Y0.8351 
G00 Z0.1000 
G00 X1.3829 Y1.2264 
G01 Z-0.0070 F10.00 
G01 X1.3813 Y1.2290 F20.00 
G01 X1.3805 Y1.2319 
G01 X1.3805 Y1.2560 
G01 X1.3561 Y1.2805 
G01 X1.1639 Y1.2805 
G01 X1.1348 Y1.2514 
G01 X1.1348 Y1.2255 
G01 X1.1341 Y1.2238 
G01 X1.1329 Y1.2226 
G01 X1.1312 Y1.2219 
G01 X1.0979 Y1.2219 
G01 X1.0963 Y1.2226 
G01 X1.0950 Y1.2238 
G01 X1.0943 Y1.2255 
G01 X1.0943 Y1.2745 
G01 X1.0950 Y1.2762 
G01 X1.0963 Y1.2774 
G01 X1.0979 Y1.2781 
G01 X1.1312 Y1.2781 
G01 X1.1329 Y1.2774 
G01 X1.1334 Y1.2769 
G01 X1.1519 Y1.2954 
G01 X1.1546 Y1.2981 
G01 X1.1581 Y1.2995 
G01 X1.3619 Y1.2995 
G01 X1.3654 Y1.2981 
G01 X1.3867 Y1.2768 
G01 X1.3877 Y1.2773 
G01 X1.3906 Y1.2781 
G01 X1.4267 Y1.2781 
G01 X1.4297 Y1.2773 
G01 X1.4323 Y1.2758 
G01 X1.4345 Y1.2736 
G01 X1.4360 Y1.2710 
G01 X1.4368 Y1.2681 
G01 X1.4368 Y1.2319 
G01 X1.4360 Y1.2290 
G01 X1.4345 Y1.2264 
G01 X1.4323 Y1.2242 
G01 X1.4297 Y1.2227 
G01 X1.4267 Y1.2219 
G01 X1.3906 Y1.2219 
G01 X1.3877 Y1.2227 
G01 X1.3850 Y1.2242 
G01 X1.3829 Y1.2264 
G00 Z0.1000 
G00 X1.3554 Y1.3519 
G01 Z-0.0070 F10.00 
G01 X1.3519 Y1.3505 F20.00 
G01 X1.1581 Y1.3505 
G01 X1.1546 Y1.3519 
G01 X1.1519 Y1.3546 
G01 X1.1334 Y1.3731 
G01 X1.1329 Y1.3726 
G01 X1.1312 Y1.3719 
G01 X1.0979 Y1.3719 
G01 X1.0963 Y1.3726 
G01 X1.0950 Y1.3738 
G01 X1.0943 Y1.3755 
G01 X1.0943 Y1.4245 
G01 X1.0950 Y1.4262 
G01 X1.0963 Y1.4274 
G01 X1.0979 Y1.4281 
G01 X1.1312 Y1.4281 
G01 X1.1329 Y1.4274 
G01 X1.1341 Y1.4262 
G01 X1.1348 Y1.4245 
G01 X1.1348 Y1.3986 
G01 X1.1639 Y1.3695 
G01 X1.3461 Y1.3695 
G01 X1.3628 Y1.3863 
G01 X1.3628 Y1.4285 
G01 X1.3635 Y1.4301 
G01 X1.3648 Y1.4314 
G01 X1.3664 Y1.4321 
G01 X1.4155 Y1.4321 
G01 X1.4171 Y1.4314 
G01 X1.4184 Y1.4301 
G01 X1.4191 Y1.4285 
G01 X1.4191 Y1.3715 
G01 X1.4184 Y1.3699 
G01 X1.4171 Y1.3686 
G01 X1.4155 Y1.3679 
G01 X1.3714 Y1.3679 
G01 X1.3554 Y1.3519 
(Between Passes)
(Top between passes)
G00 Z0.1000 
G00 X0.7490 Y0.7072 
G01 Z-0.0070 F10.00 
G01 X0.7517 Y0.7045 F20.00 
G01 X0.7552 Y0.7031 
G01 X0.8298 Y0.7031 
G01 X0.8333 Y0.7045 
G01 X0.8360 Y0.7072 
G01 X0.8375 Y0.7107 
G01 X0.8375 Y0.7893 
G01 X0.8360 Y0.7928 
G01 X0.8333 Y0.7955 
G01 X0.8298 Y0.7969 
G01 X0.7552 Y0.7969 
G01 X0.7517 Y0.7955 
G01 X0.7490 Y0.7928 
G01 X0.7476 Y0.7893 
G01 X0.7476 Y0.7107 
G01 X0.7490 Y0.7072 
G00 Z0.1000 
G00 X0.8545 Y0.7072 
G01 Z-0.0070 F10.00 
G01 X0.8572 Y0.7045 F20.00 
G01 X0.8607 Y0.7031 
G01 X0.9393 Y0.7031 
G01 X0.9428 Y0.7045 
G01 X0.9455 Y0.7072 
G01 X0.9469 Y0.7107 
G01 X0.9469 Y0.7893 
G01 X0.9455 Y0.7928 
G01 X0.9428 Y0.7955 
G01 X0.9393 Y0.7969 
G01 X0.8607 Y0.7969 
G01 X0.8572 Y0.7955 
G01 X0.8545 Y0.7928 
G01 X0.8531 Y0.7893 
G01 X0.8531 Y0.7107 
G01 X0.8545 Y0.7072 
G00 Z0.1000 
G00 X0.9545 Y0.7072 
G01 Z-0.0070 F10.00 
G01 X0.9572 Y0.7045 F20.00 
G01 X0.9607 Y0.7031 
G01 X1.0393 Y0.7031 
G01 X1.0428 Y0.7045 
G01 X1.0455 Y0.7072 
G01 X1.0469 Y0.7107 
G01 X1.0469 Y0.7893 
G01 X1.0455 Y0.7928 
G01 X1.0428 Y0.7955 
G01 X1.0393 Y0.7969 
G01 X0.9607 Y0.7969 
G01 X0.9572 Y0.7955 
G01 X0.9545 Y0.7928 
G01 X0.9531 Y0.7893 
G01 X0.9531 Y0.7107 
G01 X0.9545 Y0.7072 
G00 Z0.1000 
G00 X1.0640 Y0.7072 
G01 Z-0.0070 F10.00 
G01 X1.0667 Y0.7045 F20.00 
G01 X1.0702 Y0.7031 
G01 X1.1448 Y0.7031 
G01 X1.1483 Y0.7045 
G01 X1.1510 Y0.7072 
G01 X1.1524 Y0.7107 
G01 X1.1524 Y0.7893 
G01 X1.1510 Y0.7928 
G01 X1.1483 Y0.7955 
G01 X1.1448 Y0.7969 
G01 X1.0702 Y0.7969 
G01 X1.0667 Y0.7955 
G01 X1.0640 Y0.7928 
G01 X1.0625 Y0.7893 
G01 X1.0625 Y0.7107 
G01 X1.0640 Y0.7072 
G00 Z0.1000 
G00 X1.0135 Y0.8187 
G01 Z-0.0070 F10.00 
G01 X1.0161 Y0.8214 F20.00 
G01 X1.0176 Y0.8249 
G01 X1.0176 Y0.8355 
G01 X1.2590 Y0.8355 
G01 X1.2590 Y0.8330 
G01 X1.2830 Y0.8090 
G01 X1.3170 Y0.8090 
G01 X1.3187 Y0.8108 
G01 X1.3411 Y0.7884 
G01 X1.3444 Y0.7865 
G01 X1.3481 Y0.7855 
G01 X1.4219 Y0.7855 
G01 X1.4256 Y0.7865 
G01 X1.4289 Y0.7884 
G01 X1.4316 Y0.7911 
G01 X1.4760 Y0.8355 
G01 X1.6090 Y0.8355 
G01 X1.6090 Y0.8330 
G01 X1.6330 Y0.8090 
G01 X1.6670 Y0.8090 
G01 X1.6687 Y0.8108 
G01 X1.6911 Y0.7884 
G01 X1.6944 Y0.7865 
G01 X1.6981 Y0.7855 
G01 X1.7719 Y0.7855 
G01 X1.7756 Y0.7865 
G01 X1.7789 Y0.7884 
G01 X1.7816 Y0.7911 
G01 X1.8116 Y0.8211 
G01 X1.8135 Y0.8244 
G01 X1.8145 Y0.8281 
G01 X1.8145 Y0.9833 
G01 X1.8187 Y0.9850 
G01 X1.8252 Y0.9893 
G01 X1.8307 Y0.9948 
G01 X1.8350 Y1.0013 
G01 X1.8380 Y1.0085 
G01 X1.8395 Y1.0161 
G01 X1.8395 Y1.0839 
G01 X1.8380 Y1.0915 
G01 X1.8350 Y1.0987 
G01 X1.8307 Y1.1052 
G01 X1.8252 Y1.1107 
G01 X1.8187 Y1.1150 
G01 X1.8145 Y1.1167 
G01 X1.8145 Y1.1833 
G01 X1.8187 Y1.1850 
G01 X1.8252 Y1.1893 
G01 X1.8307 Y1.1948 
G01 X1.8350 Y1.2013 
G01 X1.8380 Y1.2085 
G01 X1.8395 Y1.2161 
G01 X1.8395 Y1.2839 
G01 X1.8380 Y1.2915 
G01 X1.8350 Y1.2987 
G01 X1.8307 Y1.3052 
G01 X1.8252 Y1.3107 
G01 X1.8187 Y1.3150 
G01 X1.8145 Y1.3167 
G01 X1.8145 Y1.3833 
G01 X1.8187 Y1.3850 
G01 X1.8252 Y1.3893 
G01 X1.8307 Y1.3948 
G01 X1.8350 Y1.4013 
G01 X1.8380 Y1.4085 
G01 X1.8395 Y1.4161 
G01 X1.8395 Y1.4839 
G01 X1.8380 Y1.4915 
G01 X1.8350 Y1.4987 
G01 X1.8307 Y1.5052 
G01 X1.8252 Y1.5107 
G01 X1.8187 Y1.5150 
G01 X1.8115 Y1.5180 
G01 X1.8039 Y1.5195 
G01 X1.7961 Y1.5195 
G01 X1.7885 Y1.5180 
G01 X1.7813 Y1.5150 
G01 X1.7748 Y1.5107 
G01 X1.7693 Y1.5052 
G01 X1.7677 Y1.5028 
G01 X1.7289 Y1.5416 
G01 X1.7256 Y1.5435 
G01 X1.7219 Y1.5445 
G01 X1.6781 Y1.5445 
G01 X1.6744 Y1.5435 
G01 X1.6711 Y1.5416 
G01 X1.6684 Y1.5389 
G01 X1.5440 Y1.4145 
G01 X1.5422 Y1.4145 
G01 X1.5422 Y1.4294 
G01 X1.5407 Y1.4329 
G01 X1.5381 Y1.4356 
G01 X1.5346 Y1.4371 
G01 X1.4835 Y1.4371 
G01 X1.4801 Y1.4356 
G01 X1.4774 Y1.4329 
G01 X1.4759 Y1.4294 
G01 X1.4759 Y1.3706 
G01 X1.4774 Y1.3671 
G01 X1.4801 Y1.3644 
G01 X1.4835 Y1.3629 
G01 X1.5346 Y1.3629 
G01 X1.5381 Y1.3644 
G01 X1.5407 Y1.3671 
G01 X1.5422 Y1.3706 
G01 X1.5422 Y1.3855 
G01 X1.5519 Y1.3855 
G01 X1.5556 Y1.3865 
G01 X1.5589 Y1.3884 
G01 X1.6620 Y1.4915 
G01 X1.6605 Y1.4839 
G01 X1.6605 Y1.4161 
G01 X1.6620 Y1.4085 
G01 X1.6650 Y1.4013 
G01 X1.6693 Y1.3948 
G01 X1.6748 Y1.3893 
G01 X1.6813 Y1.3850 
G01 X1.6855 Y1.3833 
G01 X1.6855 Y1.3167 
G01 X1.6813 Y1.3150 
G01 X1.6748 Y1.3107 
G01 X1.6693 Y1.3052 
G01 X1.6650 Y1.2987 
G01 X1.6620 Y1.2915 
G01 X1.6605 Y1.2839 
G01 X1.6605 Y1.2645 
G01 X1.5245 Y1.2645 
G01 X1.5245 Y1.2687 
G01 X1.5233 Y1.2729 
G01 X1.5211 Y1.2767 
G01 X1.5181 Y1.2798 
G01 X1.5143 Y1.2820 
G01 X1.5101 Y1.2831 
G01 X1.4726 Y1.2831 
G01 X1.4684 Y1.2820 
G01 X1.4646 Y1.2798 
G01 X1.4615 Y1.2767 
G01 X1.4593 Y1.2729 
G01 X1.4582 Y1.2687 
G01 X1.4582 Y1.2387 
G01 X1.3884 Y1.1689 
G01 X1.3865 Y1.1656 
G01 X1.3855 Y1.1619 
G01 X1.3855 Y1.1581 
G01 X1.3855 Y1.1167 
G01 X1.3813 Y1.1150 
G01 X1.3748 Y1.1107 
G01 X1.3693 Y1.1052 
G01 X1.3650 Y1.0987 
G01 X1.3620 Y1.0915 
G01 X1.3605 Y1.0839 
G01 X1.3605 Y1.0161 
G01 X1.3620 Y1.0085 
G01 X1.3650 Y1.0013 
G01 X1.3693 Y0.9948 
G01 X1.3748 Y0.9893 
G01 X1.3813 Y0.9850 
G01 X1.3855 Y0.9833 
G01 X1.3855 Y0.8910 
G01 X1.3830 Y0.8910 
G01 X1.3590 Y0.8670 
G01 X1.3590 Y0.8330 
G01 X1.3775 Y0.8145 
G01 X1.3560 Y0.8145 
G01 X1.3392 Y0.8313 
G01 X1.3410 Y0.8330 
G01 X1.3410 Y0.8670 
G01 X1.3170 Y0.8910 
G01 X1.3145 Y0.8910 
G01 X1.3145 Y0.9833 
G01 X1.3187 Y0.9850 
G01 X1.3252 Y0.9893 
G01 X1.3307 Y0.9948 
G01 X1.3350 Y1.0013 
G01 X1.3380 Y1.0085 
G01 X1.3395 Y1.0161 
G01 X1.3395 Y1.0839 
G01 X1.3380 Y1.0915 
G01 X1.3350 Y1.0987 
G01 X1.3307 Y1.1052 
G01 X1.3252 Y1.1107 
G01 X1.3187 Y1.1150 
G01 X1.3115 Y1.1180 
G01 X1.3039 Y1.1195 
G01 X1.2961 Y1.1195 
G01 X1.2885 Y1.1180 
G01 X1.2813 Y1.1150 
G01 X1.2748 Y1.1107 
G01 X1.2693 Y1.1052 
G01 X1.2677 Y1.1028 
G01 X1.2045 Y1.1660 
G01 X1.2045 Y1.2175 
G01 X1.2066 Y1.2183 
G01 X1.2092 Y1.2210 
G01 X1.2107 Y1.2245 
G01 X1.2107 Y1.2755 
G01 X1.3540 Y1.2755 
G01 X1.3755 Y1.2540 
G01 X1.3755 Y1.2313 
G01 X1.3767 Y1.2271 
G01 X1.3789 Y1.2233 
G01 X1.3819 Y1.2202 
G01 X1.3857 Y1.2180 
G01 X1.3899 Y1.2169 
G01 X1.4274 Y1.2169 
G01 X1.4316 Y1.2180 
G01 X1.4354 Y1.2202 
G01 X1.4385 Y1.2233 
G01 X1.4407 Y1.2271 
G01 X1.4418 Y1.2313 
G01 X1.4418 Y1.2687 
G01 X1.4407 Y1.2729 
G01 X1.4385 Y1.2767 
G01 X1.4354 Y1.2798 
G01 X1.4316 Y1.2820 
G01 X1.4274 Y1.2831 
G01 X1.3899 Y1.2831 
G01 X1.3879 Y1.2826 
G01 X1.3689 Y1.3016 
G01 X1.3656 Y1.3035 
G01 X1.3619 Y1.3045 
G01 X1.1581 Y1.3045 
G01 X1.1544 Y1.3035 
G01 X1.1511 Y1.3016 
G01 X1.1484 Y1.2989 
G01 X1.1325 Y1.2830 
G01 X1.1322 Y1.2831 
G01 X1.0969 Y1.2831 
G01 X1.0934 Y1.2817 
G01 X1.0908 Y1.2790 
G01 X1.0893 Y1.2755 
G01 X1.0893 Y1.2245 
G01 X1.0908 Y1.2210 
G01 X1.0934 Y1.2183 
G01 X1.0969 Y1.2169 
G01 X1.1322 Y1.2169 
G01 X1.1357 Y1.2183 
G01 X1.1384 Y1.2210 
G01 X1.1398 Y1.2245 
G01 X1.1398 Y1.2493 
G01 X1.1602 Y1.2697 
G01 X1.1602 Y1.2245 
G01 X1.1616 Y1.2210 
G01 X1.1643 Y1.2183 
G01 X1.1678 Y1.2169 
G01 X1.1755 Y1.2169 
G01 X1.1755 Y1.1660 
G01 X1.1240 Y1.1145 
G01 X0.9895 Y1.1145 
G01 X0.9895 Y1.1339 
G01 X0.9880 Y1.1415 
G01 X0.9850 Y1.1487 
G01 X0.9807 Y1.1552 
G01 X0.9752 Y1.1607 
G01 X0.9687 Y1.1650 
G01 X0.9645 Y1.1667 
G01 X0.9645 Y1.3333 
G01 X0.9687 Y1.3350 
G01 X0.9752 Y1.3393 
G01 X0.9807 Y1.3448 
G01 X0.9850 Y1.3513 
G01 X0.9880 Y1.3585 
G01 X0.9895 Y1.3661 
G01 X0.9895 Y1.4339 
G01 X0.9880 Y1.4415 
G01 X0.9850 Y1.4487 
G01 X0.9807 Y1.4552 
G01 X0.9752 Y1.4607 
G01 X0.9687 Y1.4650 
G01 X0.9675 Y1.4655 
G01 X1.0940 Y1.4655 
G01 X1.1264 Y1.4331 
G01 X1.0969 Y1.4331 
G01 X1.0934 Y1.4317 
G01 X1.0908 Y1.4290 
G01 X1.0893 Y1.4255 
G01 X1.0893 Y1.3745 
G01 X1.0908 Y1.3710 
G01 X1.0934 Y1.3683 
G01 X1.0969 Y1.3669 
G01 X1.1322 Y1.3669 
G01 X1.1325 Y1.3670 
G01 X1.1484 Y1.3511 
G01 X1.1511 Y1.3484 
G01 X1.1544 Y1.3465 
G01 X1.1581 Y1.3455 
G01 X1.3519 Y1.3455 
G01 X1.3556 Y1.3465 
G01 X1.3589 Y1.3484 
G01 X1.3734 Y1.3629 
G01 X1.4165 Y1.3629 
G01 X1.4199 Y1.3644 
G01 X1.4226 Y1.3671 
G01 X1.4241 Y1.3706 
G01 X1.4241 Y1.4294 
G01 X1.4226 Y1.4329 
G01 X1.4199 Y1.4356 
G01 X1.4165 Y1.4371 
G01 X1.3654 Y1.4371 
G01 X1.3619 Y1.4356 
G01 X1.3593 Y1.4329 
G01 X1.3578 Y1.4294 
G01 X1.3578 Y1.3883 
G01 X1.3440 Y1.3745 
G01 X1.2107 Y1.3745 
G01 X1.2107 Y1.4255 
G01 X1.2092 Y1.4290 
G01 X1.2066 Y1.4317 
G01 X1.2031 Y1.4331 
G01 X1.1678 Y1.4331 
G01 X1.1675 Y1.4330 
G01 X1.1116 Y1.4889 
G01 X1.1089 Y1.4916 
G01 X1.1056 Y1.4935 
G01 X1.1019 Y1.4945 
G01 X0.9281 Y1.4945 
G01 X0.9244 Y1.4935 
G01 X0.9211 Y1.4916 
G01 X0.8823 Y1.4528 
G01 X0.8807 Y1.4552 
G01 X0.8752 Y1.4607 
G01 X0.8687 Y1.4650 
G01 X0.8615 Y1.4680 
G01 X0.8539 Y1.4695 
G01 X0.8461 Y1.4695 
G01 X0.8385 Y1.4680 
G01 X0.8313 Y1.4650 
G01 X0.8248 Y1.4607 
G01 X0.8193 Y1.4552 
G01 X0.8150 Y1.4487 
G01 X0.8120 Y1.4415 
G01 X0.8105 Y1.4339 
G01 X0.8105 Y1.3661 
G01 X0.8120 Y1.3585 
G01 X0.8150 Y1.3513 
G01 X0.8193 Y1.3448 
G01 X0.8248 Y1.3393 
G01 X0.8313 Y1.3350 
G01 X0.8355 Y1.3333 
G01 X0.8355 Y1.1667 
G01 X0.8313 Y1.1650 
G01 X0.8248 Y1.1607 
G01 X0.8193 Y1.1552 
G01 X0.8150 Y1.1487 
G01 X0.8120 Y1.1415 
G01 X0.8105 Y1.1339 
G01 X0.8105 Y1.0661 
G01 X0.8120 Y1.0585 
G01 X0.8150 Y1.0513 
G01 X0.8193 Y1.0448 
G01 X0.8248 Y1.0393 
G01 X0.8313 Y1.0350 
G01 X0.8385 Y1.0320 
G01 X0.8461 Y1.0305 
G01 X0.8539 Y1.0305 
G01 X0.8615 Y1.0320 
G01 X0.8687 Y1.0350 
G01 X0.8752 Y1.0393 
G01 X0.8807 Y1.0448 
G01 X0.8823 Y1.0472 
G01 X0.8855 Y1.0440 
G01 X0.8855 Y0.8889 
G01 X0.8839 Y0.8873 
G01 X0.8824 Y0.8838 
G01 X0.8824 Y0.8249 
G01 X0.8839 Y0.8214 
G01 X0.8865 Y0.8187 
G01 X0.8900 Y0.8173 
G01 X0.9076 Y0.8173 
G01 X0.9111 Y0.8187 
G01 X0.9116 Y0.8192 
G01 X0.9121 Y0.8187 
G01 X0.9156 Y0.8173 
G01 X0.9332 Y0.8173 
G01 X0.9367 Y0.8187 
G01 X0.9372 Y0.8192 
G01 X0.9377 Y0.8187 
G01 X0.9412 Y0.8173 
G01 X0.9588 Y0.8173 
G01 X0.9623 Y0.8187 
G01 X0.9628 Y0.8192 
G01 X0.9633 Y0.8187 
G01 X0.9668 Y0.8173 
G01 X0.9844 Y0.8173 
G01 X0.9879 Y0.8187 
G01 X0.9884 Y0.8192 
G01 X0.9889 Y0.8187 
G01 X0.9924 Y0.8173 
G01 X1.0100 Y0.8173 
G01 X1.0135 Y0.8187 
G00 Z0.1000 
G00 X1.0176 Y0.8645 
G01 Z-0.0070 F10.00 
G01 X1.0176 Y0.8838 F20.00 
G01 X1.0161 Y0.8873 
G01 X1.0135 Y0.8899 
G01 X1.0100 Y0.8914 
G01 X0.9924 Y0.8914 
G01 X0.9889 Y0.8899 
G01 X0.9884 Y0.8894 
G01 X0.9879 Y0.8899 
G01 X0.9844 Y0.8914 
G01 X0.9668 Y0.8914 
G01 X0.9633 Y0.8899 
G01 X0.9628 Y0.8894 
G01 X0.9623 Y0.8899 
G01 X0.9588 Y0.8914 
G01 X0.9412 Y0.8914 
G01 X0.9377 Y0.8899 
G01 X0.9372 Y0.8894 
G01 X0.9367 Y0.8899 
G01 X0.9332 Y0.8914 
G01 X0.9156 Y0.8914 
G01 X0.9145 Y0.8909 
G01 X0.9145 Y1.0055 
G01 X0.9719 Y1.0055 
G01 X0.9756 Y1.0065 
G01 X0.9789 Y1.0084 
G01 X0.9816 Y1.0111 
G01 X1.0060 Y1.0355 
G01 X1.1605 Y1.0355 
G01 X1.1605 Y1.0161 
G01 X1.1620 Y1.0085 
G01 X1.1650 Y1.0013 
G01 X1.1693 Y0.9948 
G01 X1.1748 Y0.9893 
G01 X1.1813 Y0.9850 
G01 X1.1885 Y0.9820 
G01 X1.1961 Y0.9805 
G01 X1.2039 Y0.9805 
G01 X1.2115 Y0.9820 
G01 X1.2187 Y0.9850 
G01 X1.2252 Y0.9893 
G01 X1.2307 Y0.9948 
G01 X1.2350 Y1.0013 
G01 X1.2380 Y1.0085 
G01 X1.2395 Y1.0161 
G01 X1.2395 Y1.0839 
G01 X1.2380 Y1.0915 
G01 X1.2605 Y1.0690 
G01 X1.2605 Y1.0161 
G01 X1.2620 Y1.0085 
G01 X1.2650 Y1.0013 
G01 X1.2693 Y0.9948 
G01 X1.2748 Y0.9893 
G01 X1.2813 Y0.9850 
G01 X1.2855 Y0.9833 
G01 X1.2855 Y0.8910 
G01 X1.2830 Y0.8910 
G01 X1.2590 Y0.8670 
G01 X1.2590 Y0.8645 
G01 X1.0176 Y0.8645 
G00 Z0.1000 
G00 X0.9981 Y1.0645 
G01 Z-0.0070 F10.00 
G01 X0.9944 Y1.0635 F20.00 
G01 X0.9911 Y1.0616 
G01 X0.9880 Y1.0585 
G01 X0.9895 Y1.0661 
G01 X0.9895 Y1.0855 
G01 X1.1319 Y1.0855 
G01 X1.1356 Y1.0865 
G01 X1.1389 Y1.0884 
G01 X1.1900 Y1.1395 
G01 X1.2115 Y1.1180 
G01 X1.2039 Y1.1195 
G01 X1.1961 Y1.1195 
G01 X1.1885 Y1.1180 
G01 X1.1813 Y1.1150 
G01 X1.1748 Y1.1107 
G01 X1.1693 Y1.1052 
G01 X1.1650 Y1.0987 
G01 X1.1620 Y1.0915 
G01 X1.1605 Y1.0839 
G01 X1.1605 Y1.0645 
G01 X0.9981 Y1.0645 
G00 Z0.1000 
G00 X0.9105 Y1.0661 
G01 Z-0.0070 F10.00 
G01 X0.9120 Y1.0585 F20.00 
G01 X0.9124 Y1.0574 
G01 X0.9116 Y1.0589 
G01 X0.8895 Y1.0810 
G01 X0.8895 Y1.1339 
G01 X0.8880 Y1.1415 
G01 X0.8850 Y1.1487 
G01 X0.8807 Y1.1552 
G01 X0.8752 Y1.1607 
G01 X0.8687 Y1.1650 
G01 X0.8645 Y1.1667 
G01 X0.8645 Y1.3333 
G01 X0.8687 Y1.3350 
G01 X0.8752 Y1.3393 
G01 X0.8807 Y1.3448 
G01 X0.8850 Y1.3513 
G01 X0.8880 Y1.3585 
G01 X0.8895 Y1.3661 
G01 X0.8895 Y1.4190 
G01 X0.9120 Y1.4415 
G01 X0.9105 Y1.4339 
G01 X0.9105 Y1.3661 
G01 X0.9120 Y1.3585 
G01 X0.9150 Y1.3513 
G01 X0.9193 Y1.3448 
G01 X0.9248 Y1.3393 
G01 X0.9313 Y1.3350 
G01 X0.9355 Y1.3333 
G01 X0.9355 Y1.1667 
G01 X0.9313 Y1.1650 
G01 X0.9248 Y1.1607 
G01 X0.9193 Y1.1552 
G01 X0.9150 Y1.1487 
G01 X0.9120 Y1.1415 
G01 X0.9105 Y1.1339 
G01 X0.9105 Y1.0661 
G00 Z0.1000 
G00 X0.9141 Y1.0535 
G01 Z-0.0070 F10.00 
G01 X0.9150 Y1.0513 F20.00 
G01 X0.9193 Y1.0448 
G01 X0.9248 Y1.0393 
G01 X0.9313 Y1.0350 
G01 X0.9325 Y1.0345 
G01 X0.9145 Y1.0345 
G01 X0.9145 Y1.0481 
G01 X0.9145 Y1.0519 
G01 X0.9141 Y1.0535 
G00 Z0.1000 
G00 X1.4395 Y1.0839 
G01 Z-0.0070 F10.00 
G01 X1.4380 Y1.0915 F20.00 
G01 X1.4350 Y1.0987 
G01 X1.4307 Y1.1052 
G01 X1.4252 Y1.1107 
G01 X1.4187 Y1.1150 
G01 X1.4145 Y1.1167 
G01 X1.4145 Y1.1540 
G01 X1.4774 Y1.2169 
G01 X1.5101 Y1.2169 
G01 X1.5143 Y1.2180 
G01 X1.5181 Y1.2202 
G01 X1.5211 Y1.2233 
G01 X1.5233 Y1.2271 
G01 X1.5245 Y1.2313 
G01 X1.5245 Y1.2355 
G01 X1.6605 Y1.2355 
G01 X1.6605 Y1.2161 
G01 X1.6620 Y1.2085 
G01 X1.6650 Y1.2013 
G01 X1.6693 Y1.1948 
G01 X1.6748 Y1.1893 
G01 X1.6813 Y1.1850 
G01 X1.6855 Y1.1833 
G01 X1.6855 Y1.1167 
G01 X1.6813 Y1.1150 
G01 X1.6748 Y1.1107 
G01 X1.6693 Y1.1052 
G01 X1.6650 Y1.0987 
G01 X1.6620 Y1.0915 
G01 X1.6605 Y1.0839 
G01 X1.6605 Y1.0161 
G01 X1.6620 Y1.0085 
G01 X1.6650 Y1.0013 
G01 X1.6693 Y0.9948 
G01 X1.6748 Y0.9893 
G01 X1.6813 Y0.9850 
G01 X1.6885 Y0.9820 
G01 X1.6961 Y0.9805 
G01 X1.7039 Y0.9805 
G01 X1.7115 Y0.9820 
G01 X1.7187 Y0.9850 
G01 X1.7252 Y0.9893 
G01 X1.7307 Y0.9948 
G01 X1.7323 Y0.9972 
G01 X1.7355 Y0.9940 
G01 X1.7355 Y0.8910 
G01 X1.7330 Y0.8910 
G01 X1.7090 Y0.8670 
G01 X1.7090 Y0.8330 
G01 X1.7275 Y0.8145 
G01 X1.7060 Y0.8145 
G01 X1.6892 Y0.8313 
G01 X1.6910 Y0.8330 
G01 X1.6910 Y0.8670 
G01 X1.6670 Y0.8910 
G01 X1.6330 Y0.8910 
G01 X1.6090 Y0.8670 
G01 X1.6090 Y0.8645 
G01 X1.4681 Y0.8645 
G01 X1.4644 Y0.8635 
G01 X1.4611 Y0.8616 
G01 X1.4410 Y0.8415 
G01 X1.4410 Y0.8670 
G01 X1.4170 Y0.8910 
G01 X1.4145 Y0.8910 
G01 X1.4145 Y0.9833 
G01 X1.4187 Y0.9850 
G01 X1.4252 Y0.9893 
G01 X1.4307 Y0.9948 
G01 X1.4350 Y1.0013 
G01 X1.4380 Y1.0085 
G01 X1.4395 Y1.0161 
G01 X1.4395 Y1.0839 
G00 Z0.1000 
G00 X1.7395 Y1.0839 
G01 Z-0.0070 F10.00 
G01 X1.7380 Y1.0915 F20.00 
G01 X1.7350 Y1.0987 
G01 X1.7307 Y1.1052 
G01 X1.7252 Y1.1107 
G01 X1.7187 Y1.1150 
G01 X1.7145 Y1.1167 
G01 X1.7145 Y1.1833 
G01 X1.7187 Y1.1850 
G01 X1.7252 Y1.1893 
G01 X1.7307 Y1.1948 
G01 X1.7350 Y1.2013 
G01 X1.7380 Y1.2085 
G01 X1.7395 Y1.2161 
G01 X1.7395 Y1.2839 
G01 X1.7380 Y1.2915 
G01 X1.7350 Y1.2987 
G01 X1.7307 Y1.3052 
G01 X1.7252 Y1.3107 
G01 X1.7187 Y1.3150 
G01 X1.7145 Y1.3167 
G01 X1.7145 Y1.3833 
G01 X1.7187 Y1.3850 
G01 X1.7252 Y1.3893 
G01 X1.7307 Y1.3948 
G01 X1.7350 Y1.4013 
G01 X1.7380 Y1.4085 
G01 X1.7395 Y1.4161 
G01 X1.7395 Y1.4839 
G01 X1.7380 Y1.4915 
G01 X1.7605 Y1.4690 
G01 X1.7605 Y1.4161 
G01 X1.7620 Y1.4085 
G01 X1.7650 Y1.4013 
G01 X1.7693 Y1.3948 
G01 X1.7748 Y1.3893 
G01 X1.7813 Y1.3850 
G01 X1.7855 Y1.3833 
G01 X1.7855 Y1.3167 
G01 X1.7813 Y1.3150 
G01 X1.7748 Y1.3107 
G01 X1.7693 Y1.3052 
G01 X1.7650 Y1.2987 
G01 X1.7620 Y1.2915 
G01 X1.7605 Y1.2839 
G01 X1.7605 Y1.2161 
G01 X1.7620 Y1.2085 
G01 X1.7650 Y1.2013 
G01 X1.7693 Y1.1948 
G01 X1.7748 Y1.1893 
G01 X1.7813 Y1.1850 
G01 X1.7855 Y1.1833 
G01 X1.7855 Y1.1167 
G01 X1.7813 Y1.1150 
G01 X1.7748 Y1.1107 
G01 X1.7693 Y1.1052 
G01 X1.7650 Y1.0987 
G01 X1.7620 Y1.0915 
G01 X1.7605 Y1.0839 
G01 X1.7605 Y1.0161 
G01 X1.7620 Y1.0085 
G01 X1.7624 Y1.0074 
G01 X1.7616 Y1.0089 
G01 X1.7395 Y1.0310 
G01 X1.7395 Y1.0839 
G00 Z0.1000 
G00 X1.7641 Y1.0035 
G01 Z-0.0070 F10.00 
G01 X1.7650 Y1.0013 F20.00 
G01 X1.7693 Y0.9948 
G01 X1.7748 Y0.9893 
G01 X1.7813 Y0.9850 
G01 X1.7855 Y0.9833 
G01 X1.7855 Y0.8725 
G01 X1.7670 Y0.8910 
G01 X1.7645 Y0.8910 
G01 X1.7645 Y1.0019 
G01 X1.7641 Y1.0035 
G00 Z0.1000 
G00 X1.1602 Y1.3803 
G01 Z-0.0070 F10.00 
G01 X1.1398 Y1.4007 F20.00 
G01 X1.1398 Y1.4197 
G01 X1.1602 Y1.3993 
G01 X1.1602 Y1.3803 
(Between Passes)
(Top between passes)
G00 Z0.1000 
G00 X0.7455 Y0.7037 
G01 Z-0.0070 F10.00 
G01 X0.7482 Y0.7010 F20.00 
G01 X0.7515 Y0.6991 
G01 X0.7552 Y0.6981 
G01 X0.8299 Y0.6981 
G01 X0.8335 Y0.6991 
G01 X0.8369 Y0.7010 
G01 X0.8396 Y0.7037 
G01 X0.8415 Y0.7070 
G01 X0.8425 Y0.7107 
G01 X0.8425 Y0.7893 
G01 X0.8415 Y0.7930 
G01 X0.8396 Y0.7963 
G01 X0.8369 Y0.7990 
G01 X0.8335 Y0.8009 
G01 X0.8299 Y0.8019 
G01 X0.7552 Y0.8019 
G01 X0.7515 Y0.8009 
G01 X0.7482 Y0.7990 
G01 X0.7455 Y0.7963 
G01 X0.7436 Y0.7930 
G01 X0.7426 Y0.7893 
G01 X0.7426 Y0.7107 
G01 X0.7436 Y0.7070 
G01 X0.7455 Y0.7037 
G00 Z0.1000 
G00 X0.8510 Y0.7037 
G01 Z-0.0070 F10.00 
G01 X0.8537 Y0.7010 F20.00 
G01 X0.8570 Y0.6991 
G01 X0.8607 Y0.6981 
G01 X0.9393 Y0.6981 
G01 X0.9430 Y0.6991 
G01 X0.9463 Y0.7010 
G01 X0.9490 Y0.7037 
G01 X0.9500 Y0.7054 
G01 X0.9510 Y0.7037 
G01 X0.9537 Y0.7010 
G01 X0.9570 Y0.6991 
G01 X0.9607 Y0.6981 
G01 X1.0393 Y0.6981 
G01 X1.0430 Y0.6991 
G01 X1.0463 Y0.7010 
G01 X1.0490 Y0.7037 
G01 X1.0509 Y0.7070 
G01 X1.0519 Y0.7107 
G01 X1.0519 Y0.7893 
G01 X1.0509 Y0.7930 
G01 X1.0490 Y0.7963 
G01 X1.0463 Y0.7990 
G01 X1.0430 Y0.8009 
G01 X1.0393 Y0.8019 
G01 X0.9607 Y0.8019 
G01 X0.9570 Y0.8009 
G01 X0.9537 Y0.7990 
G01 X0.9510 Y0.7963 
G01 X0.9500 Y0.7946 
G01 X0.9490 Y0.7963 
G01 X0.9463 Y0.7990 
G01 X0.9430 Y0.8009 
G01 X0.9393 Y0.8019 
G01 X0.8607 Y0.8019 
G01 X0.8570 Y0.8009 
G01 X0.8537 Y0.7990 
G01 X0.8510 Y0.7963 
G01 X0.8491 Y0.7930 
G01 X0.8481 Y0.7893 
G01 X0.8481 Y0.7107 
G01 X0.8491 Y0.7070 
G01 X0.8510 Y0.7037 
G00 Z0.1000 
G00 X0.8803 Y0.8179 
G01 Z-0.0070 F10.00 
G01 X0.8830 Y0.8152 F20.00 
G01 X0.8863 Y0.8133 
G01 X0.8900 Y0.8123 
G01 X0.9076 Y0.8123 
G01 X0.9113 Y0.8133 
G01 X0.9116 Y0.8134 
G01 X0.9119 Y0.8133 
G01 X0.9156 Y0.8123 
G01 X0.9332 Y0.8123 
G01 X0.9369 Y0.8133 
G01 X0.9372 Y0.8134 
G01 X0.9375 Y0.8133 
G01 X0.9412 Y0.8123 
G01 X0.9588 Y0.8123 
G01 X0.9625 Y0.8133 
G01 X0.9628 Y0.8134 
G01 X0.9631 Y0.8133 
G01 X0.9668 Y0.8123 
G01 X0.9844 Y0.8123 
G01 X0.9881 Y0.8133 
G01 X0.9884 Y0.8134 
G01 X0.9887 Y0.8133 
G01 X0.9924 Y0.8123 
G01 X1.0100 Y0.8123 
G01 X1.0137 Y0.8133 
G01 X1.0170 Y0.8152 
G01 X1.0197 Y0.8179 
G01 X1.0216 Y0.8212 
G01 X1.0226 Y0.8249 
G01 X1.0226 Y0.8305 
G01 X1.2544 Y0.8305 
G01 X1.2809 Y0.8040 
G01 X1.3184 Y0.8040 
G01 X1.3380 Y0.7844 
G01 X1.3425 Y0.7818 
G01 X1.3474 Y0.7805 
G01 X1.4226 Y0.7805 
G01 X1.4275 Y0.7818 
G01 X1.4320 Y0.7844 
G01 X1.4356 Y0.7880 
G01 X1.4781 Y0.8305 
G01 X1.6044 Y0.8305 
G01 X1.6309 Y0.8040 
G01 X1.6684 Y0.8040 
G01 X1.6880 Y0.7844 
G01 X1.6925 Y0.7818 
G01 X1.6974 Y0.7805 
G01 X1.7726 Y0.7805 
G01 X1.7775 Y0.7818 
G01 X1.7820 Y0.7844 
G01 X1.7856 Y0.7880 
G01 X1.8156 Y0.8180 
G01 X1.8182 Y0.8225 
G01 X1.8195 Y0.8274 
G01 X1.8195 Y0.9800 
G01 X1.8233 Y0.9819 
G01 X1.8290 Y0.9861 
G01 X1.8339 Y0.9910 
G01 X1.8381 Y0.9967 
G01 X1.8412 Y1.0029 
G01 X1.8434 Y1.0096 
G01 X1.8445 Y1.0165 
G01 X1.8445 Y1.0835 
G01 X1.8434 Y1.0904 
G01 X1.8412 Y1.0971 
G01 X1.8381 Y1.1033 
G01 X1.8339 Y1.1090 
G01 X1.8290 Y1.1139 
G01 X1.8233 Y1.1181 
G01 X1.8195 Y1.1200 
G01 X1.8195 Y1.1800 
G01 X1.8233 Y1.1819 
G01 X1.8290 Y1.1861 
G01 X1.8339 Y1.1910 
G01 X1.8381 Y1.1967 
G01 X1.8412 Y1.2029 
G01 X1.8434 Y1.2096 
G01 X1.8445 Y1.2165 
G01 X1.8445 Y1.2835 
G01 X1.8434 Y1.2904 
G01 X1.8412 Y1.2971 
G01 X1.8381 Y1.3033 
G01 X1.8339 Y1.3090 
G01 X1.8290 Y1.3139 
G01 X1.8233 Y1.3181 
G01 X1.8195 Y1.3200 
G01 X1.8195 Y1.3800 
G01 X1.8233 Y1.3819 
G01 X1.8290 Y1.3861 
G01 X1.8339 Y1.3910 
G01 X1.8381 Y1.3967 
G01 X1.8412 Y1.4029 
G01 X1.8434 Y1.4096 
G01 X1.8445 Y1.4165 
G01 X1.8445 Y1.4835 
G01 X1.8434 Y1.4904 
G01 X1.8412 Y1.4971 
G01 X1.8381 Y1.5033 
G01 X1.8339 Y1.5090 
G01 X1.8290 Y1.5139 
G01 X1.8233 Y1.5181 
G01 X1.8171 Y1.5212 
G01 X1.8104 Y1.5234 
G01 X1.8035 Y1.5245 
G01 X1.7965 Y1.5245 
G01 X1.7896 Y1.5234 
G01 X1.7829 Y1.5212 
G01 X1.7767 Y1.5181 
G01 X1.7710 Y1.5139 
G01 X1.7673 Y1.5103 
G01 X1.7320 Y1.5456 
G01 X1.7275 Y1.5482 
G01 X1.7226 Y1.5495 
G01 X1.6774 Y1.5495 
G01 X1.6725 Y1.5482 
G01 X1.6680 Y1.5456 
G01 X1.6644 Y1.5420 
G01 X1.5472 Y1.4248 
G01 X1.5472 Y1.4295 
G01 X1.5462 Y1.4332 
G01 X1.5443 Y1.4365 
G01 X1.5416 Y1.4392 
G01 X1.5383 Y1.4411 
G01 X1.5346 Y1.4421 
G01 X1.4835 Y1.4421 
G01 X1.4798 Y1.4411 
G01 X1.4765 Y1.4392 
G01 X1.4738 Y1.4365 
G01 X1.4719 Y1.4332 
G01 X1.4709 Y1.4295 
G01 X1.4709 Y1.3705 
G01 X1.4719 Y1.3668 
G01 X1.4738 Y1.3635 
G01 X1.4765 Y1.3608 
G01 X1.4798 Y1.3589 
G01 X1.4835 Y1.3579 
G01 X1.5346 Y1.3579 
G01 X1.5383 Y1.3589 
G01 X1.5416 Y1.3608 
G01 X1.5443 Y1.3635 
G01 X1.5462 Y1.3668 
G01 X1.5472 Y1.3705 
G01 X1.5472 Y1.3805 
G01 X1.5526 Y1.3805 
G01 X1.5575 Y1.3818 
G01 X1.5620 Y1.3844 
G01 X1.6555 Y1.4779 
G01 X1.6555 Y1.4165 
G01 X1.6566 Y1.4096 
G01 X1.6588 Y1.4029 
G01 X1.6619 Y1.3967 
G01 X1.6661 Y1.3910 
G01 X1.6710 Y1.3861 
G01 X1.6767 Y1.3819 
G01 X1.6805 Y1.3800 
G01 X1.6805 Y1.3200 
G01 X1.6767 Y1.3181 
G01 X1.6710 Y1.3139 
G01 X1.6661 Y1.3090 
G01 X1.6619 Y1.3033 
G01 X1.6588 Y1.2971 
G01 X1.6566 Y1.2904 
G01 X1.6555 Y1.2835 
G01 X1.6555 Y1.2695 
G01 X1.5294 Y1.2695 
G01 X1.5280 Y1.2749 
G01 X1.5251 Y1.2798 
G01 X1.5211 Y1.2838 
G01 X1.5162 Y1.2867 
G01 X1.5107 Y1.2881 
G01 X1.4720 Y1.2881 
G01 X1.4665 Y1.2867 
G01 X1.4615 Y1.2838 
G01 X1.4575 Y1.2798 
G01 X1.4547 Y1.2749 
G01 X1.4532 Y1.2694 
G01 X1.4532 Y1.2408 
G01 X1.4468 Y1.2344 
G01 X1.4468 Y1.2694 
G01 X1.4453 Y1.2749 
G01 X1.4425 Y1.2798 
G01 X1.4385 Y1.2838 
G01 X1.4335 Y1.2867 
G01 X1.4280 Y1.2881 
G01 X1.3895 Y1.2881 
G01 X1.3720 Y1.3056 
G01 X1.3675 Y1.3082 
G01 X1.3626 Y1.3095 
G01 X1.1574 Y1.3095 
G01 X1.1525 Y1.3082 
G01 X1.1480 Y1.3056 
G01 X1.1444 Y1.3020 
G01 X1.1305 Y1.2881 
G01 X1.0969 Y1.2881 
G01 X1.0932 Y1.2871 
G01 X1.0899 Y1.2852 
G01 X1.0872 Y1.2825 
G01 X1.0853 Y1.2792 
G01 X1.0843 Y1.2755 
G01 X1.0843 Y1.2245 
G01 X1.0853 Y1.2208 
G01 X1.0872 Y1.2175 
G01 X1.0899 Y1.2148 
G01 X1.0932 Y1.2129 
G01 X1.0969 Y1.2119 
G01 X1.1322 Y1.2119 
G01 X1.1359 Y1.2129 
G01 X1.1392 Y1.2148 
G01 X1.1419 Y1.2175 
G01 X1.1438 Y1.2208 
G01 X1.1448 Y1.2245 
G01 X1.1448 Y1.2472 
G01 X1.1552 Y1.2576 
G01 X1.1552 Y1.2245 
G01 X1.1562 Y1.2208 
G01 X1.1581 Y1.2175 
G01 X1.1608 Y1.2148 
G01 X1.1641 Y1.2129 
G01 X1.1678 Y1.2119 
G01 X1.1705 Y1.2119 
G01 X1.1705 Y1.1681 
G01 X1.1219 Y1.1195 
G01 X0.9945 Y1.1195 
G01 X0.9945 Y1.1335 
G01 X0.9934 Y1.1404 
G01 X0.9912 Y1.1471 
G01 X0.9881 Y1.1533 
G01 X0.9839 Y1.1590 
G01 X0.9790 Y1.1639 
G01 X0.9733 Y1.1681 
G01 X0.9695 Y1.1700 
G01 X0.9695 Y1.3300 
G01 X0.9733 Y1.3319 
G01 X0.9790 Y1.3361 
G01 X0.9839 Y1.3410 
G01 X0.9881 Y1.3467 
G01 X0.9912 Y1.3529 
G01 X0.9934 Y1.3596 
G01 X0.9945 Y1.3665 
G01 X0.9945 Y1.4335 
G01 X0.9934 Y1.4404 
G01 X0.9912 Y1.4471 
G01 X0.9881 Y1.4533 
G01 X0.9839 Y1.4590 
G01 X0.9824 Y1.4605 
G01 X1.0919 Y1.4605 
G01 X1.1143 Y1.4381 
G01 X1.0969 Y1.4381 
G01 X1.0932 Y1.4371 
G01 X1.0899 Y1.4352 
G01 X1.0872 Y1.4325 
G01 X1.0853 Y1.4292 
G01 X1.0843 Y1.4255 
G01 X1.0843 Y1.3745 
G01 X1.0853 Y1.3708 
G01 X1.0872 Y1.3675 
G01 X1.0899 Y1.3648 
G01 X1.0932 Y1.3629 
G01 X1.0969 Y1.3619 
G01 X1.1305 Y1.3619 
G01 X1.1444 Y1.3480 
G01 X1.1480 Y1.3444 
G01 X1.1525 Y1.3418 
G01 X1.1574 Y1.3405 
G01 X1.3526 Y1.3405 
G01 X1.3575 Y1.3418 
G01 X1.3620 Y1.3444 
G01 X1.3755 Y1.3579 
G01 X1.4165 Y1.3579 
G01 X1.4202 Y1.3589 
G01 X1.4235 Y1.3608 
G01 X1.4262 Y1.3635 
G01 X1.4281 Y1.3668 
G01 X1.4291 Y1.3705 
G01 X1.4291 Y1.4295 
G01 X1.4281 Y1.4332 
G01 X1.4262 Y1.4365 
G01 X1.4235 Y1.4392 
G01 X1.4202 Y1.4411 
G01 X1.4165 Y1.4421 
G01 X1.3654 Y1.4421 
G01 X1.3617 Y1.4411 
G01 X1.3584 Y1.4392 
G01 X1.3557 Y1.4365 
G01 X1.3538 Y1.4332 
G01 X1.3528 Y1.4295 
G01 X1.3528 Y1.3904 
G01 X1.3419 Y1.3795 
G01 X1.2157 Y1.3795 
G01 X1.2157 Y1.4255 
G01 X1.2147 Y1.4292 
G01 X1.2128 Y1.4325 
G01 X1.2101 Y1.4352 
G01 X1.2068 Y1.4371 
G01 X1.2031 Y1.4381 
G01 X1.1695 Y1.4381 
G01 X1.1156 Y1.4920 
G01 X1.1120 Y1.4956 
G01 X1.1075 Y1.4982 
G01 X1.1026 Y1.4995 
G01 X0.9274 Y1.4995 
G01 X0.9225 Y1.4982 
G01 X0.9180 Y1.4956 
G01 X0.8827 Y1.4603 
G01 X0.8790 Y1.4639 
G01 X0.8733 Y1.4681 
G01 X0.8671 Y1.4712 
G01 X0.8604 Y1.4734 
G01 X0.8535 Y1.4745 
G01 X0.8465 Y1.4745 
G01 X0.8396 Y1.4734 
G01 X0.8329 Y1.4712 
G01 X0.8267 Y1.4681 
G01 X0.8210 Y1.4639 
G01 X0.8161 Y1.4590 
G01 X0.8119 Y1.4533 
G01 X0.8088 Y1.4471 
G01 X0.8066 Y1.4404 
G01 X0.8055 Y1.4335 
G01 X0.8055 Y1.3665 
G01 X0.8066 Y1.3596 
G01 X0.8088 Y1.3529 
G01 X0.8119 Y1.3467 
G01 X0.8161 Y1.3410 
G01 X0.8210 Y1.3361 
G01 X0.8267 Y1.3319 
G01 X0.8305 Y1.3300 
G01 X0.8305 Y1.1700 
G01 X0.8267 Y1.1681 
G01 X0.8210 Y1.1639 
G01 X0.8161 Y1.1590 
G01 X0.8119 Y1.1533 
G01 X0.8088 Y1.1471 
G01 X0.8066 Y1.1404 
G01 X0.8055 Y1.1335 
G01 X0.8055 Y1.0665 
G01 X0.8066 Y1.0596 
G01 X0.8088 Y1.0529 
G01 X0.8119 Y1.0467 
G01 X0.8161 Y1.0410 
G01 X0.8210 Y1.0361 
G01 X0.8267 Y1.0319 
G01 X0.8329 Y1.0288 
G01 X0.8396 Y1.0266 
G01 X0.8465 Y1.0255 
G01 X0.8535 Y1.0255 
G01 X0.8604 Y1.0266 
G01 X0.8671 Y1.0288 
G01 X0.8733 Y1.0319 
G01 X0.8790 Y1.0361 
G01 X0.8805 Y1.0376 
G01 X0.8805 Y0.8910 
G01 X0.8803 Y0.8908 
G01 X0.8784 Y0.8875 
G01 X0.8774 Y0.8838 
G01 X0.8774 Y0.8249 
G01 X0.8784 Y0.8212 
G01 X0.8803 Y0.8179 
G00 Z0.1000 
G00 X0.9195 Y0.8964 
G01 Z-0.0070 F10.00 
G01 X0.9195 Y1.0005 F20.00 
G01 X0.9726 Y1.0005 
G01 X0.9775 Y1.0018 
G01 X0.9820 Y1.0044 
G01 X0.9856 Y1.0080 
G01 X1.0081 Y1.0305 
G01 X1.1555 Y1.0305 
G01 X1.1555 Y1.0165 
G01 X1.1566 Y1.0096 
G01 X1.1588 Y1.0029 
G01 X1.1619 Y0.9967 
G01 X1.1661 Y0.9910 
G01 X1.1710 Y0.9861 
G01 X1.1767 Y0.9819 
G01 X1.1829 Y0.9788 
G01 X1.1896 Y0.9766 
G01 X1.1965 Y0.9755 
G01 X1.2035 Y0.9755 
G01 X1.2104 Y0.9766 
G01 X1.2171 Y0.9788 
G01 X1.2233 Y0.9819 
G01 X1.2290 Y0.9861 
G01 X1.2339 Y0.9910 
G01 X1.2381 Y0.9967 
G01 X1.2412 Y1.0029 
G01 X1.2434 Y1.0096 
G01 X1.2445 Y1.0165 
G01 X1.2445 Y1.0779 
G01 X1.2555 Y1.0669 
G01 X1.2555 Y1.0165 
G01 X1.2566 Y1.0096 
G01 X1.2588 Y1.0029 
G01 X1.2619 Y0.9967 
G01 X1.2661 Y0.9910 
G01 X1.2710 Y0.9861 
G01 X1.2767 Y0.9819 
G01 X1.2805 Y0.9800 
G01 X1.2805 Y0.8956 
G01 X1.2544 Y0.8695 
G01 X1.0226 Y0.8695 
G01 X1.0226 Y0.8838 
G01 X1.0216 Y0.8875 
G01 X1.0197 Y0.8908 
G01 X1.0170 Y0.8935 
G01 X1.0137 Y0.8954 
G01 X1.0100 Y0.8964 
G01 X0.9924 Y0.8964 
G01 X0.9887 Y0.8954 
G01 X0.9884 Y0.8952 
G01 X0.9881 Y0.8954 
G01 X0.9844 Y0.8964 
G01 X0.9668 Y0.8964 
G01 X0.9631 Y0.8954 
G01 X0.9628 Y0.8952 
G01 X0.9625 Y0.8954 
G01 X0.9588 Y0.8964 
G01 X0.9412 Y0.8964 
G01 X0.9375 Y0.8954 
G01 X0.9372 Y0.8952 
G01 X0.9369 Y0.8954 
G01 X0.9332 Y0.8964 
G01 X0.9195 Y0.8964 
G00 Z0.1000 
G00 X0.9055 Y1.0721 
G01 Z-0.0070 F10.00 
G01 X0.8945 Y1.0831 F20.00 
G01 X0.8945 Y1.1335 
G01 X0.8934 Y1.1404 
G01 X0.8912 Y1.1471 
G01 X0.8881 Y1.1533 
G01 X0.8839 Y1.1590 
G01 X0.8790 Y1.1639 
G01 X0.8733 Y1.1681 
G01 X0.8695 Y1.1700 
G01 X0.8695 Y1.3300 
G01 X0.8733 Y1.3319 
G01 X0.8790 Y1.3361 
G01 X0.8839 Y1.3410 
G01 X0.8881 Y1.3467 
G01 X0.8912 Y1.3529 
G01 X0.8934 Y1.3596 
G01 X0.8945 Y1.3665 
G01 X0.8945 Y1.4169 
G01 X0.9055 Y1.4279 
G01 X0.9055 Y1.3665 
G01 X0.9066 Y1.3596 
G01 X0.9088 Y1.3529 
G01 X0.9119 Y1.3467 
G01 X0.9161 Y1.3410 
G01 X0.9210 Y1.3361 
G01 X0.9267 Y1.3319 
G01 X0.9305 Y1.3300 
G01 X0.9305 Y1.1700 
G01 X0.9267 Y1.1681 
G01 X0.9210 Y1.1639 
G01 X0.9161 Y1.1590 
G01 X0.9119 Y1.1533 
G01 X0.9088 Y1.1471 
G01 X0.9066 Y1.1404 
G01 X0.9055 Y1.1335 
G01 X0.9055 Y1.0721 
G00 Z0.1000 
G00 X0.9945 Y1.0687 
G01 Z-0.0070 F10.00 
G01 X0.9945 Y1.0805 F20.00 
G01 X1.1326 Y1.0805 
G01 X1.1375 Y1.0818 
G01 X1.1420 Y1.0844 
G01 X1.1647 Y1.1071 
G01 X1.1619 Y1.1033 
G01 X1.1588 Y1.0971 
G01 X1.1566 Y1.0904 
G01 X1.1555 Y1.0835 
G01 X1.1555 Y1.0695 
G01 X0.9974 Y1.0695 
G01 X0.9945 Y1.0687 
G00 Z0.1000 
G00 X1.1729 Y1.1153 
G01 Z-0.0070 F10.00 
G01 X1.1900 Y1.1324 F20.00 
G01 X1.1979 Y1.1245 
G01 X1.1965 Y1.1245 
G01 X1.1896 Y1.1234 
G01 X1.1829 Y1.1212 
G01 X1.1767 Y1.1181 
G01 X1.1729 Y1.1153 
G00 Z0.1000 
G00 X1.2095 Y1.1681 
G01 Z-0.0070 F10.00 
G01 X1.2095 Y1.2144 F20.00 
G01 X1.2101 Y1.2148 
G01 X1.2128 Y1.2175 
G01 X1.2147 Y1.2208 
G01 X1.2157 Y1.2245 
G01 X1.2157 Y1.2705 
G01 X1.3519 Y1.2705 
G01 X1.3705 Y1.2519 
G01 X1.3705 Y1.2306 
G01 X1.3720 Y1.2251 
G01 X1.3749 Y1.2202 
G01 X1.3789 Y1.2162 
G01 X1.3838 Y1.2133 
G01 X1.3893 Y1.2119 
G01 X1.4243 Y1.2119 
G01 X1.3844 Y1.1720 
G01 X1.3818 Y1.1675 
G01 X1.3805 Y1.1626 
G01 X1.3805 Y1.1574 
G01 X1.3805 Y1.1200 
G01 X1.3767 Y1.1181 
G01 X1.3710 Y1.1139 
G01 X1.3661 Y1.1090 
G01 X1.3619 Y1.1033 
G01 X1.3588 Y1.0971 
G01 X1.3566 Y1.0904 
G01 X1.3555 Y1.0835 
G01 X1.3555 Y1.0165 
G01 X1.3566 Y1.0096 
G01 X1.3588 Y1.0029 
G01 X1.3619 Y0.9967 
G01 X1.3661 Y0.9910 
G01 X1.3710 Y0.9861 
G01 X1.3767 Y0.9819 
G01 X1.3805 Y0.9800 
G01 X1.3805 Y0.8956 
G01 X1.3540 Y0.8691 
G01 X1.3540 Y0.8309 
G01 X1.3654 Y0.8195 
G01 X1.3581 Y0.8195 
G01 X1.3460 Y0.8316 
G01 X1.3460 Y0.8691 
G01 X1.3195 Y0.8956 
G01 X1.3195 Y0.9800 
G01 X1.3233 Y0.9819 
G01 X1.3290 Y0.9861 
G01 X1.3339 Y0.9910 
G01 X1.3381 Y0.9967 
G01 X1.3412 Y1.0029 
G01 X1.3434 Y1.0096 
G01 X1.3445 Y1.0165 
G01 X1.3445 Y1.0835 
G01 X1.3434 Y1.0904 
G01 X1.3412 Y1.0971 
G01 X1.3381 Y1.1033 
G01 X1.3339 Y1.1090 
G01 X1.3290 Y1.1139 
G01 X1.3233 Y1.1181 
G01 X1.3171 Y1.1212 
G01 X1.3104 Y1.1234 
G01 X1.3035 Y1.1245 
G01 X1.2965 Y1.1245 
G01 X1.2896 Y1.1234 
G01 X1.2829 Y1.1212 
G01 X1.2767 Y1.1181 
G01 X1.2710 Y1.1139 
G01 X1.2673 Y1.1103 
G01 X1.2095 Y1.1681 
G00 Z0.1000 
G00 X1.4195 Y1.1519 
G01 Z-0.0070 F10.00 
G01 X1.4795 Y1.2119 F20.00 
G01 X1.5107 Y1.2119 
G01 X1.5162 Y1.2133 
G01 X1.5211 Y1.2162 
G01 X1.5251 Y1.2202 
G01 X1.5280 Y1.2251 
G01 X1.5294 Y1.2305 
G01 X1.6555 Y1.2305 
G01 X1.6555 Y1.2165 
G01 X1.6566 Y1.2096 
G01 X1.6588 Y1.2029 
G01 X1.6619 Y1.1967 
G01 X1.6661 Y1.1910 
G01 X1.6710 Y1.1861 
G01 X1.6767 Y1.1819 
G01 X1.6805 Y1.1800 
G01 X1.6805 Y1.1200 
G01 X1.6767 Y1.1181 
G01 X1.6710 Y1.1139 
G01 X1.6661 Y1.1090 
G01 X1.6619 Y1.1033 
G01 X1.6588 Y1.0971 
G01 X1.6566 Y1.0904 
G01 X1.6555 Y1.0835 
G01 X1.6555 Y1.0165 
G01 X1.6566 Y1.0096 
G01 X1.6588 Y1.0029 
G01 X1.6619 Y0.9967 
G01 X1.6661 Y0.9910 
G01 X1.6710 Y0.9861 
G01 X1.6767 Y0.9819 
G01 X1.6829 Y0.9788 
G01 X1.6896 Y0.9766 
G01 X1.6965 Y0.9755 
G01 X1.7035 Y0.9755 
G01 X1.7104 Y0.9766 
G01 X1.7171 Y0.9788 
G01 X1.7233 Y0.9819 
G01 X1.7290 Y0.9861 
G01 X1.7305 Y0.9876 
G01 X1.7305 Y0.8956 
G01 X1.7040 Y0.8691 
G01 X1.7040 Y0.8309 
G01 X1.7154 Y0.8195 
G01 X1.7081 Y0.8195 
G01 X1.6960 Y0.8316 
G01 X1.6960 Y0.8691 
G01 X1.6691 Y0.8960 
G01 X1.6309 Y0.8960 
G01 X1.6044 Y0.8695 
G01 X1.4674 Y0.8695 
G01 X1.4625 Y0.8682 
G01 X1.4580 Y0.8656 
G01 X1.4460 Y0.8536 
G01 X1.4460 Y0.8691 
G01 X1.4195 Y0.8956 
G01 X1.4195 Y0.9800 
G01 X1.4233 Y0.9819 
G01 X1.4290 Y0.9861 
G01 X1.4339 Y0.9910 
G01 X1.4381 Y0.9967 
G01 X1.4412 Y1.0029 
G01 X1.4434 Y1.0096 
G01 X1.4445 Y1.0165 
G01 X1.4445 Y1.0835 
G01 X1.4434 Y1.0904 
G01 X1.4412 Y1.0971 
G01 X1.4381 Y1.1033 
G01 X1.4339 Y1.1090 
G01 X1.4290 Y1.1139 
G01 X1.4233 Y1.1181 
G01 X1.4195 Y1.1200 
G01 X1.4195 Y1.1519 
G00 Z0.1000 
G00 X1.7195 Y1.1800 
G01 Z-0.0070 F10.00 
G01 X1.7233 Y1.1819 F20.00 
G01 X1.7290 Y1.1861 
G01 X1.7339 Y1.1910 
G01 X1.7381 Y1.1967 
G01 X1.7412 Y1.2029 
G01 X1.7434 Y1.2096 
G01 X1.7445 Y1.2165 
G01 X1.7445 Y1.2835 
G01 X1.7434 Y1.2904 
G01 X1.7412 Y1.2971 
G01 X1.7381 Y1.3033 
G01 X1.7339 Y1.3090 
G01 X1.7290 Y1.3139 
G01 X1.7233 Y1.3181 
G01 X1.7195 Y1.3200 
G01 X1.7195 Y1.3800 
G01 X1.7233 Y1.3819 
G01 X1.7290 Y1.3861 
G01 X1.7339 Y1.3910 
G01 X1.7381 Y1.3967 
G01 X1.7412 Y1.4029 
G01 X1.7434 Y1.4096 
G01 X1.7445 Y1.4165 
G01 X1.7445 Y1.4779 
G01 X1.7555 Y1.4669 
G01 X1.7555 Y1.4165 
G01 X1.7566 Y1.4096 
G01 X1.7588 Y1.4029 
G01 X1.7619 Y1.3967 
G01 X1.7661 Y1.3910 
G01 X1.7710 Y1.3861 
G01 X1.7767 Y1.3819 
G01 X1.7805 Y1.3800 
G01 X1.7805 Y1.3200 
G01 X1.7767 Y1.3181 
G01 X1.7710 Y1.3139 
G01 X1.7661 Y1.3090 
G01 X1.7619 Y1.3033 
G01 X1.7588 Y1.2971 
G01 X1.7566 Y1.2904 
G01 X1.7555 Y1.2835 
G01 X1.7555 Y1.2165 
G01 X1.7566 Y1.2096 
G01 X1.7588 Y1.2029 
G01 X1.7619 Y1.1967 
G01 X1.7661 Y1.1910 
G01 X1.7710 Y1.1861 
G01 X1.7767 Y1.1819 
G01 X1.7805 Y1.1800 
G01 X1.7805 Y1.1200 
G01 X1.7767 Y1.1181 
G01 X1.7710 Y1.1139 
G01 X1.7661 Y1.1090 
G01 X1.7619 Y1.1033 
G01 X1.7588 Y1.0971 
G01 X1.7566 Y1.0904 
G01 X1.7555 Y1.0835 
G01 X1.7555 Y1.0221 
G01 X1.7445 Y1.0331 
G01 X1.7445 Y1.0835 
G01 X1.7434 Y1.0904 
G01 X1.7412 Y1.0971 
G01 X1.7381 Y1.1033 
G01 X1.7339 Y1.1090 
G01 X1.7290 Y1.1139 
G01 X1.7233 Y1.1181 
G01 X1.7195 Y1.1200 
G01 X1.7195 Y1.1800 
G00 Z0.1000 
G00 X1.7695 Y0.9876 
G01 Z-0.0070 F10.00 
G01 X1.7710 Y0.9861 F20.00 
G01 X1.7767 Y0.9819 
G01 X1.7805 Y0.9800 
G01 X1.7805 Y0.8846 
G01 X1.7695 Y0.8956 
G01 X1.7695 Y0.9876 
G00 Z0.1000 
G00 X1.1545 Y0.7963 
G01 Z-0.0070 F10.00 
G01 X1.1518 Y0.7990 F20.00 
G01 X1.1485 Y0.8009 
G01 X1.1448 Y0.8019 
G01 X1.0701 Y0.8019 
G01 X1.0665 Y0.8009 
G01 X1.0631 Y0.7990 
G01 X1.0604 Y0.7963 
G01 X1.0585 Y0.7930 
G01 X1.0575 Y0.7893 
G01 X1.0575 Y0.7107 
G01 X1.0585 Y0.7070 
G01 X1.0604 Y0.7037 
G01 X1.0631 Y0.7010 
G01 X1.0665 Y0.6991 
G01 X1.0701 Y0.6981 
G01 X1.1448 Y0.6981 
G01 X1.1485 Y0.6991 
G01 X1.1518 Y0.7010 
G01 X1.1545 Y0.7037 
G01 X1.1564 Y0.7070 
G01 X1.1574 Y0.7107 
G01 X1.1574 Y0.7893 
G01 X1.1564 Y0.7930 
G01 X1.1545 Y0.7963 
G00 Z0.1000 
G00 X1.1552 Y1.3924 
G01 Z-0.0070 F10.00 
G01 X1.1448 Y1.4028 F20.00 
G01 X1.1448 Y1.4076 
G01 X1.1552 Y1.3972 
G01 X1.1552 Y1.3924 
(Between Passes)
(Top between passes)
G00 Z0.1000 
G00 X0.7415 Y0.7006 
G01 Z-0.0070 F10.00 
G01 X0.7451 Y0.6970 F20.00 
G01 X0.7496 Y0.6944 
G01 X0.7545 Y0.6931 
G01 X0.8305 Y0.6931 
G01 X0.8355 Y0.6944 
G01 X0.8399 Y0.6970 
G01 X0.8436 Y0.7006 
G01 X0.8453 Y0.7036 
G01 X0.8470 Y0.7006 
G01 X0.8506 Y0.6970 
G01 X0.8551 Y0.6944 
G01 X0.8600 Y0.6931 
G01 X0.9400 Y0.6931 
G01 X0.9449 Y0.6944 
G01 X0.9494 Y0.6970 
G01 X0.9500 Y0.6976 
G01 X0.9506 Y0.6970 
G01 X0.9551 Y0.6944 
G01 X0.9600 Y0.6931 
G01 X1.0400 Y0.6931 
G01 X1.0449 Y0.6944 
G01 X1.0494 Y0.6970 
G01 X1.0530 Y0.7006 
G01 X1.0547 Y0.7036 
G01 X1.0564 Y0.7006 
G01 X1.0601 Y0.6970 
G01 X1.0645 Y0.6944 
G01 X1.0695 Y0.6931 
G01 X1.1455 Y0.6931 
G01 X1.1504 Y0.6944 
G01 X1.1549 Y0.6970 
G01 X1.1585 Y0.7006 
G01 X1.1611 Y0.7051 
G01 X1.1624 Y0.7100 
G01 X1.1624 Y0.7900 
G01 X1.1611 Y0.7949 
G01 X1.1585 Y0.7994 
G01 X1.1549 Y0.8030 
G01 X1.1504 Y0.8056 
G01 X1.1455 Y0.8069 
G01 X1.0695 Y0.8069 
G01 X1.0645 Y0.8056 
G01 X1.0601 Y0.8030 
G01 X1.0564 Y0.7994 
G01 X1.0547 Y0.7964 
G01 X1.0530 Y0.7994 
G01 X1.0494 Y0.8030 
G01 X1.0449 Y0.8056 
G01 X1.0400 Y0.8069 
G01 X0.9600 Y0.8069 
G01 X0.9551 Y0.8056 
G01 X0.9506 Y0.8030 
G01 X0.9500 Y0.8024 
G01 X0.9494 Y0.8030 
G01 X0.9449 Y0.8056 
G01 X0.9400 Y0.8069 
G01 X0.8600 Y0.8069 
G01 X0.8551 Y0.8056 
G01 X0.8506 Y0.8030 
G01 X0.8470 Y0.7994 
G01 X0.8453 Y0.7964 
G01 X0.8436 Y0.7994 
G01 X0.8399 Y0.8030 
G01 X0.8355 Y0.8056 
G01 X0.8305 Y0.8069 
G01 X0.7545 Y0.8069 
G01 X0.7496 Y0.8056 
G01 X0.7451 Y0.8030 
G01 X0.7415 Y0.7994 
G01 X0.7389 Y0.7949 
G01 X0.7376 Y0.7900 
G01 X0.7376 Y0.7100 
G01 X0.7389 Y0.7051 
G01 X0.7415 Y0.7006 
G00 Z0.1000 
G00 X0.8763 Y0.8148 
G01 Z-0.0070 F10.00 
G01 X0.8800 Y0.8112 F20.00 
G01 X0.8844 Y0.8086 
G01 X0.8894 Y0.8073 
G01 X0.9083 Y0.8073 
G01 X0.9116 Y0.8082 
G01 X0.9150 Y0.8073 
G01 X0.9339 Y0.8073 
G01 X0.9372 Y0.8082 
G01 X0.9405 Y0.8073 
G01 X0.9595 Y0.8073 
G01 X0.9628 Y0.8082 
G01 X0.9661 Y0.8073 
G01 X0.9850 Y0.8073 
G01 X0.9884 Y0.8082 
G01 X0.9917 Y0.8073 
G01 X1.0106 Y0.8073 
G01 X1.0156 Y0.8086 
G01 X1.0200 Y0.8112 
G01 X1.0237 Y0.8148 
G01 X1.0262 Y0.8192 
G01 X1.0276 Y0.8242 
G01 X1.0276 Y0.8255 
G01 X1.2524 Y0.8255 
G01 X1.2789 Y0.7990 
G01 X1.3164 Y0.7990 
G01 X1.3344 Y0.7810 
G01 X1.3384 Y0.7783 
G01 X1.3429 Y0.7764 
G01 X1.3476 Y0.7755 
G01 X1.4224 Y0.7755 
G01 X1.4271 Y0.7764 
G01 X1.4316 Y0.7783 
G01 X1.4356 Y0.7810 
G01 X1.4390 Y0.7844 
G01 X1.4801 Y0.8255 
G01 X1.6024 Y0.8255 
G01 X1.6289 Y0.7990 
G01 X1.6664 Y0.7990 
G01 X1.6844 Y0.7810 
G01 X1.6884 Y0.7783 
G01 X1.6929 Y0.7764 
G01 X1.6976 Y0.7755 
G01 X1.7724 Y0.7755 
G01 X1.7771 Y0.7764 
G01 X1.7816 Y0.7783 
G01 X1.7856 Y0.7810 
G01 X1.7890 Y0.7844 
G01 X1.8190 Y0.8144 
G01 X1.8217 Y0.8184 
G01 X1.8236 Y0.8229 
G01 X1.8245 Y0.8276 
G01 X1.8245 Y0.9769 
G01 X1.8259 Y0.9777 
G01 X1.8322 Y0.9822 
G01 X1.8378 Y0.9878 
G01 X1.8423 Y0.9941 
G01 X1.8459 Y1.0010 
G01 X1.8483 Y1.0084 
G01 X1.8495 Y1.0161 
G01 X1.8495 Y1.0839 
G01 X1.8483 Y1.0916 
G01 X1.8459 Y1.0990 
G01 X1.8423 Y1.1059 
G01 X1.8378 Y1.1122 
G01 X1.8322 Y1.1178 
G01 X1.8259 Y1.1223 
G01 X1.8245 Y1.1231 
G01 X1.8245 Y1.1769 
G01 X1.8259 Y1.1777 
G01 X1.8322 Y1.1822 
G01 X1.8378 Y1.1878 
G01 X1.8423 Y1.1941 
G01 X1.8459 Y1.2010 
G01 X1.8483 Y1.2084 
G01 X1.8495 Y1.2161 
G01 X1.8495 Y1.2839 
G01 X1.8483 Y1.2916 
G01 X1.8459 Y1.2990 
G01 X1.8423 Y1.3059 
G01 X1.8378 Y1.3122 
G01 X1.8322 Y1.3178 
G01 X1.8259 Y1.3223 
G01 X1.8245 Y1.3231 
G01 X1.8245 Y1.3769 
G01 X1.8259 Y1.3777 
G01 X1.8322 Y1.3822 
G01 X1.8378 Y1.3878 
G01 X1.8423 Y1.3941 
G01 X1.8459 Y1.4010 
G01 X1.8483 Y1.4084 
G01 X1.8495 Y1.4161 
G01 X1.8495 Y1.4839 
G01 X1.8483 Y1.4916 
G01 X1.8459 Y1.4990 
G01 X1.8423 Y1.5059 
G01 X1.8378 Y1.5122 
G01 X1.8322 Y1.5178 
G01 X1.8259 Y1.5223 
G01 X1.8190 Y1.5259 
G01 X1.8116 Y1.5283 
G01 X1.8039 Y1.5295 
G01 X1.7961 Y1.5295 
G01 X1.7884 Y1.5283 
G01 X1.7810 Y1.5259 
G01 X1.7741 Y1.5223 
G01 X1.7678 Y1.5178 
G01 X1.7673 Y1.5173 
G01 X1.7356 Y1.5490 
G01 X1.7316 Y1.5517 
G01 X1.7271 Y1.5536 
G01 X1.7224 Y1.5545 
G01 X1.6776 Y1.5545 
G01 X1.6729 Y1.5536 
G01 X1.6684 Y1.5517 
G01 X1.6644 Y1.5490 
G01 X1.6610 Y1.5456 
G01 X1.5507 Y1.4353 
G01 X1.5483 Y1.4395 
G01 X1.5447 Y1.4432 
G01 X1.5402 Y1.4457 
G01 X1.5352 Y1.4471 
G01 X1.4829 Y1.4471 
G01 X1.4779 Y1.4457 
G01 X1.4735 Y1.4432 
G01 X1.4698 Y1.4395 
G01 X1.4673 Y1.4351 
G01 X1.4659 Y1.4301 
G01 X1.4659 Y1.3699 
G01 X1.4673 Y1.3649 
G01 X1.4698 Y1.3605 
G01 X1.4735 Y1.3568 
G01 X1.4779 Y1.3543 
G01 X1.4829 Y1.3529 
G01 X1.5352 Y1.3529 
G01 X1.5402 Y1.3543 
G01 X1.5447 Y1.3568 
G01 X1.5483 Y1.3605 
G01 X1.5508 Y1.3649 
G01 X1.5522 Y1.3699 
G01 X1.5522 Y1.3755 
G01 X1.5524 Y1.3755 
G01 X1.5571 Y1.3764 
G01 X1.5616 Y1.3783 
G01 X1.5656 Y1.3810 
G01 X1.6505 Y1.4659 
G01 X1.6505 Y1.4161 
G01 X1.6517 Y1.4084 
G01 X1.6541 Y1.4010 
G01 X1.6577 Y1.3941 
G01 X1.6622 Y1.3878 
G01 X1.6678 Y1.3822 
G01 X1.6741 Y1.3777 
G01 X1.6755 Y1.3769 
G01 X1.6755 Y1.3231 
G01 X1.6741 Y1.3223 
G01 X1.6678 Y1.3178 
G01 X1.6622 Y1.3122 
G01 X1.6577 Y1.3059 
G01 X1.6541 Y1.2990 
G01 X1.6517 Y1.2916 
G01 X1.6505 Y1.2839 
G01 X1.6505 Y1.2745 
G01 X1.5334 Y1.2745 
G01 X1.5314 Y1.2791 
G01 X1.5285 Y1.2835 
G01 X1.5248 Y1.2872 
G01 X1.5205 Y1.2901 
G01 X1.5156 Y1.2921 
G01 X1.5105 Y1.2931 
G01 X1.4722 Y1.2931 
G01 X1.4670 Y1.2921 
G01 X1.4622 Y1.2901 
G01 X1.4579 Y1.2872 
G01 X1.4542 Y1.2835 
G01 X1.4512 Y1.2791 
G01 X1.4500 Y1.2761 
G01 X1.4488 Y1.2791 
G01 X1.4458 Y1.2835 
G01 X1.4421 Y1.2872 
G01 X1.4378 Y1.2901 
G01 X1.4330 Y1.2921 
G01 X1.4278 Y1.2931 
G01 X1.3915 Y1.2931 
G01 X1.3756 Y1.3090 
G01 X1.3716 Y1.3117 
G01 X1.3671 Y1.3136 
G01 X1.3624 Y1.3145 
G01 X1.1576 Y1.3145 
G01 X1.1529 Y1.3136 
G01 X1.1484 Y1.3117 
G01 X1.1444 Y1.3090 
G01 X1.1410 Y1.3056 
G01 X1.1285 Y1.2931 
G01 X1.0963 Y1.2931 
G01 X1.0913 Y1.2918 
G01 X1.0868 Y1.2892 
G01 X1.0832 Y1.2856 
G01 X1.0806 Y1.2811 
G01 X1.0793 Y1.2762 
G01 X1.0793 Y1.2238 
G01 X1.0806 Y1.2189 
G01 X1.0832 Y1.2144 
G01 X1.0868 Y1.2108 
G01 X1.0913 Y1.2082 
G01 X1.0963 Y1.2069 
G01 X1.1329 Y1.2069 
G01 X1.1378 Y1.2082 
G01 X1.1423 Y1.2108 
G01 X1.1459 Y1.2144 
G01 X1.1485 Y1.2189 
G01 X1.1498 Y1.2238 
G01 X1.1498 Y1.2452 
G01 X1.1502 Y1.2455 
G01 X1.1502 Y1.2238 
G01 X1.1515 Y1.2189 
G01 X1.1541 Y1.2144 
G01 X1.1577 Y1.2108 
G01 X1.1622 Y1.2082 
G01 X1.1655 Y1.2073 
G01 X1.1655 Y1.1701 
G01 X1.1199 Y1.1245 
G01 X0.9995 Y1.1245 
G01 X0.9995 Y1.1339 
G01 X0.9983 Y1.1416 
G01 X0.9959 Y1.1490 
G01 X0.9923 Y1.1559 
G01 X0.9878 Y1.1622 
G01 X0.9822 Y1.1678 
G01 X0.9759 Y1.1723 
G01 X0.9745 Y1.1731 
G01 X0.9745 Y1.3269 
G01 X0.9759 Y1.3277 
G01 X0.9822 Y1.3322 
G01 X0.9878 Y1.3378 
G01 X0.9923 Y1.3441 
G01 X0.9959 Y1.3510 
G01 X0.9983 Y1.3584 
G01 X0.9995 Y1.3661 
G01 X0.9995 Y1.4339 
G01 X0.9983 Y1.4416 
G01 X0.9959 Y1.4490 
G01 X0.9926 Y1.4555 
G01 X1.0899 Y1.4555 
G01 X1.1022 Y1.4431 
G01 X1.0963 Y1.4431 
G01 X1.0913 Y1.4418 
G01 X1.0868 Y1.4392 
G01 X1.0832 Y1.4356 
G01 X1.0806 Y1.4311 
G01 X1.0793 Y1.4262 
G01 X1.0793 Y1.3738 
G01 X1.0806 Y1.3689 
G01 X1.0832 Y1.3644 
G01 X1.0868 Y1.3608 
G01 X1.0913 Y1.3582 
G01 X1.0963 Y1.3569 
G01 X1.1285 Y1.3569 
G01 X1.1410 Y1.3444 
G01 X1.1444 Y1.3410 
G01 X1.1484 Y1.3383 
G01 X1.1529 Y1.3364 
G01 X1.1576 Y1.3355 
G01 X1.3524 Y1.3355 
G01 X1.3571 Y1.3364 
G01 X1.3616 Y1.3383 
G01 X1.3656 Y1.3410 
G01 X1.3776 Y1.3529 
G01 X1.4171 Y1.3529 
G01 X1.4221 Y1.3543 
G01 X1.4265 Y1.3568 
G01 X1.4302 Y1.3605 
G01 X1.4327 Y1.3649 
G01 X1.4341 Y1.3699 
G01 X1.4341 Y1.4301 
G01 X1.4327 Y1.4351 
G01 X1.4302 Y1.4395 
G01 X1.4265 Y1.4432 
G01 X1.4221 Y1.4457 
G01 X1.4171 Y1.4471 
G01 X1.3648 Y1.4471 
G01 X1.3598 Y1.4457 
G01 X1.3553 Y1.4432 
G01 X1.3517 Y1.4395 
G01 X1.3492 Y1.4351 
G01 X1.3478 Y1.4301 
G01 X1.3478 Y1.3925 
G01 X1.3399 Y1.3845 
G01 X1.2207 Y1.3845 
G01 X1.2207 Y1.4262 
G01 X1.2194 Y1.4311 
G01 X1.2168 Y1.4356 
G01 X1.2132 Y1.4392 
G01 X1.2087 Y1.4418 
G01 X1.2037 Y1.4431 
G01 X1.1715 Y1.4431 
G01 X1.1190 Y1.4956 
G01 X1.1156 Y1.4990 
G01 X1.1116 Y1.5017 
G01 X1.1071 Y1.5036 
G01 X1.1024 Y1.5045 
G01 X0.9276 Y1.5045 
G01 X0.9229 Y1.5036 
G01 X0.9184 Y1.5017 
G01 X0.9144 Y1.4990 
G01 X0.8827 Y1.4673 
G01 X0.8822 Y1.4678 
G01 X0.8759 Y1.4723 
G01 X0.8690 Y1.4759 
G01 X0.8616 Y1.4783 
G01 X0.8539 Y1.4795 
G01 X0.8461 Y1.4795 
G01 X0.8384 Y1.4783 
G01 X0.8310 Y1.4759 
G01 X0.8241 Y1.4723 
G01 X0.8178 Y1.4678 
G01 X0.8122 Y1.4622 
G01 X0.8077 Y1.4559 
G01 X0.8041 Y1.4490 
G01 X0.8017 Y1.4416 
G01 X0.8005 Y1.4339 
G01 X0.8005 Y1.3661 
G01 X0.8017 Y1.3584 
G01 X0.8041 Y1.3510 
G01 X0.8077 Y1.3441 
G01 X0.8122 Y1.3378 
G01 X0.8178 Y1.3322 
G01 X0.8241 Y1.3277 
G01 X0.8255 Y1.3269 
G01 X0.8255 Y1.1731 
G01 X0.8241 Y1.1723 
G01 X0.8178 Y1.1678 
G01 X0.8122 Y1.1622 
G01 X0.8077 Y1.1559 
G01 X0.8041 Y1.1490 
G01 X0.8017 Y1.1416 
G01 X0.8005 Y1.1339 
G01 X0.8005 Y1.0661 
G01 X0.8017 Y1.0584 
G01 X0.8041 Y1.0510 
G01 X0.8077 Y1.0441 
G01 X0.8122 Y1.0378 
G01 X0.8178 Y1.0322 
G01 X0.8241 Y1.0277 
G01 X0.8310 Y1.0241 
G01 X0.8384 Y1.0217 
G01 X0.8461 Y1.0205 
G01 X0.8539 Y1.0205 
G01 X0.8616 Y1.0217 
G01 X0.8690 Y1.0241 
G01 X0.8755 Y1.0274 
G01 X0.8755 Y0.8924 
G01 X0.8738 Y0.8894 
G01 X0.8724 Y0.8845 
G01 X0.8724 Y0.8242 
G01 X0.8738 Y0.8192 
G01 X0.8763 Y0.8148 
G00 Z0.1000 
G00 X0.9245 Y0.9014 
G01 Z-0.0070 F10.00 
G01 X0.9245 Y0.9955 F20.00 
G01 X0.9724 Y0.9955 
G01 X0.9771 Y0.9964 
G01 X0.9816 Y0.9983 
G01 X0.9856 Y1.0010 
G01 X0.9890 Y1.0044 
G01 X1.0101 Y1.0255 
G01 X1.1505 Y1.0255 
G01 X1.1505 Y1.0161 
G01 X1.1517 Y1.0084 
G01 X1.1541 Y1.0010 
G01 X1.1577 Y0.9941 
G01 X1.1622 Y0.9878 
G01 X1.1678 Y0.9822 
G01 X1.1741 Y0.9777 
G01 X1.1810 Y0.9741 
G01 X1.1884 Y0.9717 
G01 X1.1961 Y0.9705 
G01 X1.2039 Y0.9705 
G01 X1.2116 Y0.9717 
G01 X1.2190 Y0.9741 
G01 X1.2259 Y0.9777 
G01 X1.2322 Y0.9822 
G01 X1.2378 Y0.9878 
G01 X1.2423 Y0.9941 
G01 X1.2459 Y1.0010 
G01 X1.2483 Y1.0084 
G01 X1.2495 Y1.0161 
G01 X1.2495 Y1.0659 
G01 X1.2505 Y1.0649 
G01 X1.2505 Y1.0161 
G01 X1.2517 Y1.0084 
G01 X1.2541 Y1.0010 
G01 X1.2577 Y0.9941 
G01 X1.2622 Y0.9878 
G01 X1.2678 Y0.9822 
G01 X1.2741 Y0.9777 
G01 X1.2755 Y0.9769 
G01 X1.2755 Y0.8976 
G01 X1.2524 Y0.8745 
G01 X1.0276 Y0.8745 
G01 X1.0276 Y0.8845 
G01 X1.0262 Y0.8894 
G01 X1.0237 Y0.8939 
G01 X1.0200 Y0.8975 
G01 X1.0156 Y0.9001 
G01 X1.0106 Y0.9014 
G01 X0.9917 Y0.9014 
G01 X0.9884 Y0.9005 
G01 X0.9850 Y0.9014 
G01 X0.9661 Y0.9014 
G01 X0.9628 Y0.9005 
G01 X0.9595 Y0.9014 
G01 X0.9405 Y0.9014 
G01 X0.9372 Y0.9005 
G01 X0.9339 Y0.9014 
G01 X0.9245 Y0.9014 
G00 Z0.1000 
G00 X0.9005 Y1.0841 
G01 Z-0.0070 F10.00 
G01 X0.8995 Y1.0851 F20.00 
G01 X0.8995 Y1.1339 
G01 X0.8983 Y1.1416 
G01 X0.8959 Y1.1490 
G01 X0.8923 Y1.1559 
G01 X0.8878 Y1.1622 
G01 X0.8822 Y1.1678 
G01 X0.8759 Y1.1723 
G01 X0.8745 Y1.1731 
G01 X0.8745 Y1.3269 
G01 X0.8759 Y1.3277 
G01 X0.8822 Y1.3322 
G01 X0.8878 Y1.3378 
G01 X0.8923 Y1.3441 
G01 X0.8959 Y1.3510 
G01 X0.8983 Y1.3584 
G01 X0.8995 Y1.3661 
G01 X0.8995 Y1.4149 
G01 X0.9005 Y1.4159 
G01 X0.9005 Y1.3661 
G01 X0.9017 Y1.3584 
G01 X0.9041 Y1.3510 
G01 X0.9077 Y1.3441 
G01 X0.9122 Y1.3378 
G01 X0.9178 Y1.3322 
G01 X0.9241 Y1.3277 
G01 X0.9255 Y1.3269 
G01 X0.9255 Y1.1731 
G01 X0.9241 Y1.1723 
G01 X0.9178 Y1.1678 
G01 X0.9122 Y1.1622 
G01 X0.9077 Y1.1559 
G01 X0.9041 Y1.1490 
G01 X0.9017 Y1.1416 
G01 X0.9005 Y1.1339 
G01 X0.9005 Y1.0841 
G00 Z0.1000 
G00 X0.9995 Y1.0755 
G01 Z-0.0070 F10.00 
G01 X1.1324 Y1.0755 F20.00 
G01 X1.1371 Y1.0764 
G01 X1.1416 Y1.0783 
G01 X1.1456 Y1.0810 
G01 X1.1509 Y1.0862 
G01 X1.1505 Y1.0839 
G01 X1.1505 Y1.0745 
G01 X0.9995 Y1.0745 
G01 X0.9995 Y1.0755 
G00 Z0.1000 
G00 X1.2673 Y1.1173 
G01 Z-0.0070 F10.00 
G01 X1.2145 Y1.1701 F20.00 
G01 X1.2145 Y1.2121 
G01 X1.2168 Y1.2144 
G01 X1.2194 Y1.2189 
G01 X1.2207 Y1.2238 
G01 X1.2207 Y1.2655 
G01 X1.3499 Y1.2655 
G01 X1.3655 Y1.2498 
G01 X1.3655 Y1.2308 
G01 X1.3666 Y1.2257 
G01 X1.3686 Y1.2209 
G01 X1.3715 Y1.2165 
G01 X1.3752 Y1.2128 
G01 X1.3795 Y1.2099 
G01 X1.3844 Y1.2079 
G01 X1.3895 Y1.2069 
G01 X1.4122 Y1.2069 
G01 X1.3810 Y1.1756 
G01 X1.3783 Y1.1716 
G01 X1.3764 Y1.1671 
G01 X1.3755 Y1.1624 
G01 X1.3755 Y1.1576 
G01 X1.3755 Y1.1231 
G01 X1.3741 Y1.1223 
G01 X1.3678 Y1.1178 
G01 X1.3622 Y1.1122 
G01 X1.3577 Y1.1059 
G01 X1.3541 Y1.0990 
G01 X1.3517 Y1.0916 
G01 X1.3505 Y1.0839 
G01 X1.3505 Y1.0161 
G01 X1.3517 Y1.0084 
G01 X1.3541 Y1.0010 
G01 X1.3577 Y0.9941 
G01 X1.3622 Y0.9878 
G01 X1.3678 Y0.9822 
G01 X1.3741 Y0.9777 
G01 X1.3755 Y0.9769 
G01 X1.3755 Y0.8976 
G01 X1.3500 Y0.8721 
G01 X1.3245 Y0.8976 
G01 X1.3245 Y0.9769 
G01 X1.3259 Y0.9777 
G01 X1.3322 Y0.9822 
G01 X1.3378 Y0.9878 
G01 X1.3423 Y0.9941 
G01 X1.3459 Y1.0010 
G01 X1.3483 Y1.0084 
G01 X1.3495 Y1.0161 
G01 X1.3495 Y1.0839 
G01 X1.3483 Y1.0916 
G01 X1.3459 Y1.0990 
G01 X1.3423 Y1.1059 
G01 X1.3378 Y1.1122 
G01 X1.3322 Y1.1178 
G01 X1.3259 Y1.1223 
G01 X1.3190 Y1.1259 
G01 X1.3116 Y1.1283 
G01 X1.3039 Y1.1295 
G01 X1.2961 Y1.1295 
G01 X1.2884 Y1.1283 
G01 X1.2810 Y1.1259 
G01 X1.2741 Y1.1223 
G01 X1.2678 Y1.1178 
G01 X1.2673 Y1.1173 
G00 Z0.1000 
G00 X1.4245 Y1.1231 
G01 Z-0.0070 F10.00 
G01 X1.4245 Y1.1499 F20.00 
G01 X1.4815 Y1.2069 
G01 X1.5105 Y1.2069 
G01 X1.5156 Y1.2079 
G01 X1.5205 Y1.2099 
G01 X1.5248 Y1.2128 
G01 X1.5285 Y1.2165 
G01 X1.5314 Y1.2209 
G01 X1.5334 Y1.2255 
G01 X1.6505 Y1.2255 
G01 X1.6505 Y1.2161 
G01 X1.6517 Y1.2084 
G01 X1.6541 Y1.2010 
G01 X1.6577 Y1.1941 
G01 X1.6622 Y1.1878 
G01 X1.6678 Y1.1822 
G01 X1.6741 Y1.1777 
G01 X1.6755 Y1.1769 
G01 X1.6755 Y1.1231 
G01 X1.6741 Y1.1223 
G01 X1.6678 Y1.1178 
G01 X1.6622 Y1.1122 
G01 X1.6577 Y1.1059 
G01 X1.6541 Y1.0990 
G01 X1.6517 Y1.0916 
G01 X1.6505 Y1.0839 
G01 X1.6505 Y1.0161 
G01 X1.6517 Y1.0084 
G01 X1.6541 Y1.0010 
G01 X1.6577 Y0.9941 
G01 X1.6622 Y0.9878 
G01 X1.6678 Y0.9822 
G01 X1.6741 Y0.9777 
G01 X1.6810 Y0.9741 
G01 X1.6884 Y0.9717 
G01 X1.6961 Y0.9705 
G01 X1.7039 Y0.9705 
G01 X1.7116 Y0.9717 
G01 X1.7190 Y0.9741 
G01 X1.7255 Y0.9774 
G01 X1.7255 Y0.8976 
G01 X1.7000 Y0.8721 
G01 X1.6711 Y0.9010 
G01 X1.6289 Y0.9010 
G01 X1.6024 Y0.8745 
G01 X1.4676 Y0.8745 
G01 X1.4629 Y0.8736 
G01 X1.4584 Y0.8717 
G01 X1.4544 Y0.8690 
G01 X1.4510 Y0.8656 
G01 X1.4510 Y0.8711 
G01 X1.4245 Y0.8976 
G01 X1.4245 Y0.9769 
G01 X1.4259 Y0.9777 
G01 X1.4322 Y0.9822 
G01 X1.4378 Y0.9878 
G01 X1.4423 Y0.9941 
G01 X1.4459 Y1.0010 
G01 X1.4483 Y1.0084 
G01 X1.4495 Y1.0161 
G01 X1.4495 Y1.0839 
G01 X1.4483 Y1.0916 
G01 X1.4459 Y1.0990 
G01 X1.4423 Y1.1059 
G01 X1.4378 Y1.1122 
G01 X1.4322 Y1.1178 
G01 X1.4259 Y1.1223 
G01 X1.4245 Y1.1231 
G00 Z0.1000 
G00 X1.7245 Y1.1231 
G01 Z-0.0070 F10.00 
G01 X1.7245 Y1.1769 F20.00 
G01 X1.7259 Y1.1777 
G01 X1.7322 Y1.1822 
G01 X1.7378 Y1.1878 
G01 X1.7423 Y1.1941 
G01 X1.7459 Y1.2010 
G01 X1.7483 Y1.2084 
G01 X1.7495 Y1.2161 
G01 X1.7495 Y1.2839 
G01 X1.7483 Y1.2916 
G01 X1.7459 Y1.2990 
G01 X1.7423 Y1.3059 
G01 X1.7378 Y1.3122 
G01 X1.7322 Y1.3178 
G01 X1.7259 Y1.3223 
G01 X1.7245 Y1.3231 
G01 X1.7245 Y1.3769 
G01 X1.7259 Y1.3777 
G01 X1.7322 Y1.3822 
G01 X1.7378 Y1.3878 
G01 X1.7423 Y1.3941 
G01 X1.7459 Y1.4010 
G01 X1.7483 Y1.4084 
G01 X1.7495 Y1.4161 
G01 X1.7495 Y1.4659 
G01 X1.7505 Y1.4649 
G01 X1.7505 Y1.4161 
G01 X1.7517 Y1.4084 
G01 X1.7541 Y1.4010 
G01 X1.7577 Y1.3941 
G01 X1.7622 Y1.3878 
G01 X1.7678 Y1.3822 
G01 X1.7741 Y1.3777 
G01 X1.7755 Y1.3769 
G01 X1.7755 Y1.3231 
G01 X1.7741 Y1.3223 
G01 X1.7678 Y1.3178 
G01 X1.7622 Y1.3122 
G01 X1.7577 Y1.3059 
G01 X1.7541 Y1.2990 
G01 X1.7517 Y1.2916 
G01 X1.7505 Y1.2839 
G01 X1.7505 Y1.2161 
G01 X1.7517 Y1.2084 
G01 X1.7541 Y1.2010 
G01 X1.7577 Y1.1941 
G01 X1.7622 Y1.1878 
G01 X1.7678 Y1.1822 
G01 X1.7741 Y1.1777 
G01 X1.7755 Y1.1769 
G01 X1.7755 Y1.1231 
G01 X1.7741 Y1.1223 
G01 X1.7678 Y1.1178 
G01 X1.7622 Y1.1122 
G01 X1.7577 Y1.1059 
G01 X1.7541 Y1.0990 
G01 X1.7517 Y1.0916 
G01 X1.7505 Y1.0839 
G01 X1.7505 Y1.0341 
G01 X1.7495 Y1.0351 
G01 X1.7495 Y1.0839 
G01 X1.7483 Y1.0916 
G01 X1.7459 Y1.0990 
G01 X1.7423 Y1.1059 
G01 X1.7378 Y1.1122 
G01 X1.7322 Y1.1178 
G01 X1.7259 Y1.1223 
G01 X1.7245 Y1.1231 
G00 Z0.1000 
G00 X1.7745 Y0.9774 
G01 Z-0.0070 F10.00 
G01 X1.7755 Y0.9769 F20.00 
G01 X1.7755 Y0.8966 
G01 X1.7745 Y0.8976 
G01 X1.7745 Y0.9774 
(Between Passes)
(Top between passes)
G00 Z0.1000 
G00 X0.7381 Y0.6970 
G01 Z-0.0070 F10.00 
G01 X0.7415 Y0.6936 F20.00 
G01 X0.7455 Y0.6909 
G01 X0.7499 Y0.6890 
G01 X0.7547 Y0.6881 
G01 X0.8304 Y0.6881 
G01 X0.8351 Y0.6890 
G01 X0.8396 Y0.6909 
G01 X0.8436 Y0.6936 
G01 X0.8453 Y0.6953 
G01 X0.8470 Y0.6936 
G01 X0.8510 Y0.6909 
G01 X0.8555 Y0.6890 
G01 X0.8602 Y0.6881 
G01 X0.9398 Y0.6881 
G01 X0.9445 Y0.6890 
G01 X0.9490 Y0.6909 
G01 X0.9500 Y0.6916 
G01 X0.9510 Y0.6909 
G01 X0.9555 Y0.6890 
G01 X0.9602 Y0.6881 
G01 X1.0398 Y0.6881 
G01 X1.0445 Y0.6890 
G01 X1.0490 Y0.6909 
G01 X1.0530 Y0.6936 
G01 X1.0547 Y0.6953 
G01 X1.0564 Y0.6936 
G01 X1.0604 Y0.6909 
G01 X1.0649 Y0.6890 
G01 X1.0696 Y0.6881 
G01 X1.1453 Y0.6881 
G01 X1.1501 Y0.6890 
G01 X1.1545 Y0.6909 
G01 X1.1585 Y0.6936 
G01 X1.1619 Y0.6970 
G01 X1.1646 Y0.7010 
G01 X1.1665 Y0.7055 
G01 X1.1674 Y0.7102 
G01 X1.1674 Y0.7898 
G01 X1.1665 Y0.7945 
G01 X1.1646 Y0.7990 
G01 X1.1619 Y0.8030 
G01 X1.1585 Y0.8064 
G01 X1.1545 Y0.8091 
G01 X1.1501 Y0.8110 
G01 X1.1453 Y0.8119 
G01 X1.0696 Y0.8119 
G01 X1.0649 Y0.8110 
G01 X1.0604 Y0.8091 
G01 X1.0564 Y0.8064 
G01 X1.0547 Y0.8047 
G01 X1.0530 Y0.8064 
G01 X1.0490 Y0.8091 
G01 X1.0445 Y0.8110 
G01 X1.0398 Y0.8119 
G01 X1.0276 Y0.8119 
G01 X1.0298 Y0.8152 
G01 X1.0316 Y0.8196 
G01 X1.0318 Y0.8205 
G01 X1.2503 Y0.8205 
G01 X1.2768 Y0.7940 
G01 X1.3143 Y0.7940 
G01 X1.3312 Y0.7771 
G01 X1.3360 Y0.7739 
G01 X1.3414 Y0.7716 
G01 X1.3471 Y0.7705 
G01 X1.4229 Y0.7705 
G01 X1.4286 Y0.7716 
G01 X1.4340 Y0.7739 
G01 X1.4388 Y0.7771 
G01 X1.4429 Y0.7812 
G01 X1.4822 Y0.8205 
G01 X1.6003 Y0.8205 
G01 X1.6268 Y0.7940 
G01 X1.6643 Y0.7940 
G01 X1.6812 Y0.7771 
G01 X1.6860 Y0.7739 
G01 X1.6914 Y0.7716 
G01 X1.6971 Y0.7705 
G01 X1.7729 Y0.7705 
G01 X1.7786 Y0.7716 
G01 X1.7840 Y0.7739 
G01 X1.7888 Y0.7771 
G01 X1.7929 Y0.7812 
G01 X1.8229 Y0.8112 
G01 X1.8261 Y0.8160 
G01 X1.8284 Y0.8214 
G01 X1.8295 Y0.8271 
G01 X1.8295 Y0.9741 
G01 X1.8355 Y0.9784 
G01 X1.8416 Y0.9845 
G01 X1.8466 Y0.9914 
G01 X1.8505 Y0.9991 
G01 X1.8532 Y1.0072 
G01 X1.8545 Y1.0157 
G01 X1.8545 Y1.0843 
G01 X1.8532 Y1.0928 
G01 X1.8505 Y1.1009 
G01 X1.8466 Y1.1086 
G01 X1.8416 Y1.1155 
G01 X1.8355 Y1.1216 
G01 X1.8295 Y1.1259 
G01 X1.8295 Y1.1741 
G01 X1.8355 Y1.1784 
G01 X1.8416 Y1.1845 
G01 X1.8466 Y1.1914 
G01 X1.8505 Y1.1991 
G01 X1.8532 Y1.2072 
G01 X1.8545 Y1.2157 
G01 X1.8545 Y1.2843 
G01 X1.8532 Y1.2928 
G01 X1.8505 Y1.3009 
G01 X1.8466 Y1.3086 
G01 X1.8416 Y1.3155 
G01 X1.8355 Y1.3216 
G01 X1.8295 Y1.3259 
G01 X1.8295 Y1.3741 
G01 X1.8355 Y1.3784 
G01 X1.8416 Y1.3845 
G01 X1.8466 Y1.3914 
G01 X1.8505 Y1.3991 
G01 X1.8532 Y1.4072 
G01 X1.8545 Y1.4157 
G01 X1.8545 Y1.4843 
G01 X1.8532 Y1.4928 
G01 X1.8505 Y1.5009 
G01 X1.8466 Y1.5086 
G01 X1.8416 Y1.5155 
G01 X1.8355 Y1.5216 
G01 X1.8286 Y1.5266 
G01 X1.8209 Y1.5305 
G01 X1.8128 Y1.5332 
G01 X1.8043 Y1.5345 
G01 X1.7957 Y1.5345 
G01 X1.7872 Y1.5332 
G01 X1.7791 Y1.5305 
G01 X1.7714 Y1.5266 
G01 X1.7678 Y1.5239 
G01 X1.7388 Y1.5529 
G01 X1.7340 Y1.5561 
G01 X1.7286 Y1.5584 
G01 X1.7229 Y1.5595 
G01 X1.6771 Y1.5595 
G01 X1.6714 Y1.5584 
G01 X1.6660 Y1.5561 
G01 X1.6612 Y1.5529 
G01 X1.6571 Y1.5488 
G01 X1.5516 Y1.4433 
G01 X1.5483 Y1.4466 
G01 X1.5443 Y1.4493 
G01 X1.5398 Y1.4511 
G01 X1.5351 Y1.4521 
G01 X1.4830 Y1.4521 
G01 X1.4783 Y1.4511 
G01 X1.4738 Y1.4493 
G01 X1.4698 Y1.4466 
G01 X1.4664 Y1.4432 
G01 X1.4637 Y1.4392 
G01 X1.4619 Y1.4347 
G01 X1.4609 Y1.4300 
G01 X1.4609 Y1.3700 
G01 X1.4619 Y1.3653 
G01 X1.4637 Y1.3608 
G01 X1.4664 Y1.3568 
G01 X1.4698 Y1.3534 
G01 X1.4738 Y1.3507 
G01 X1.4783 Y1.3489 
G01 X1.4830 Y1.3479 
G01 X1.5351 Y1.3479 
G01 X1.5398 Y1.3489 
G01 X1.5443 Y1.3507 
G01 X1.5483 Y1.3534 
G01 X1.5517 Y1.3568 
G01 X1.5544 Y1.3608 
G01 X1.5562 Y1.3653 
G01 X1.5572 Y1.3700 
G01 X1.5572 Y1.3713 
G01 X1.5586 Y1.3716 
G01 X1.5640 Y1.3739 
G01 X1.5688 Y1.3771 
G01 X1.6455 Y1.4538 
G01 X1.6455 Y1.4157 
G01 X1.6468 Y1.4072 
G01 X1.6495 Y1.3991 
G01 X1.6534 Y1.3914 
G01 X1.6584 Y1.3845 
G01 X1.6645 Y1.3784 
G01 X1.6705 Y1.3741 
G01 X1.6705 Y1.3259 
G01 X1.6645 Y1.3216 
G01 X1.6584 Y1.3155 
G01 X1.6534 Y1.3086 
G01 X1.6495 Y1.3009 
G01 X1.6468 Y1.2928 
G01 X1.6455 Y1.2843 
G01 X1.6455 Y1.2795 
G01 X1.5367 Y1.2795 
G01 X1.5359 Y1.2815 
G01 X1.5324 Y1.2867 
G01 X1.5280 Y1.2911 
G01 X1.5228 Y1.2945 
G01 X1.5171 Y1.2969 
G01 X1.5110 Y1.2981 
G01 X1.4717 Y1.2981 
G01 X1.4656 Y1.2969 
G01 X1.4598 Y1.2945 
G01 X1.4547 Y1.2911 
G01 X1.4503 Y1.2867 
G01 X1.4500 Y1.2863 
G01 X1.4497 Y1.2867 
G01 X1.4453 Y1.2911 
G01 X1.4402 Y1.2945 
G01 X1.4344 Y1.2969 
G01 X1.4283 Y1.2981 
G01 X1.3936 Y1.2981 
G01 X1.3788 Y1.3129 
G01 X1.3740 Y1.3161 
G01 X1.3686 Y1.3184 
G01 X1.3629 Y1.3195 
G01 X1.1571 Y1.3195 
G01 X1.1514 Y1.3184 
G01 X1.1460 Y1.3161 
G01 X1.1412 Y1.3129 
G01 X1.1371 Y1.3088 
G01 X1.1264 Y1.2981 
G01 X1.0964 Y1.2981 
G01 X1.0917 Y1.2972 
G01 X1.0872 Y1.2953 
G01 X1.0832 Y1.2927 
G01 X1.0798 Y1.2892 
G01 X1.0771 Y1.2852 
G01 X1.0753 Y1.2808 
G01 X1.0743 Y1.2760 
G01 X1.0743 Y1.2240 
G01 X1.0753 Y1.2192 
G01 X1.0771 Y1.2148 
G01 X1.0798 Y1.2108 
G01 X1.0832 Y1.2073 
G01 X1.0872 Y1.2047 
G01 X1.0917 Y1.2028 
G01 X1.0964 Y1.2019 
G01 X1.1327 Y1.2019 
G01 X1.1375 Y1.2028 
G01 X1.1419 Y1.2047 
G01 X1.1459 Y1.2073 
G01 X1.1493 Y1.2108 
G01 X1.1500 Y1.2117 
G01 X1.1507 Y1.2108 
G01 X1.1541 Y1.2073 
G01 X1.1581 Y1.2047 
G01 X1.1605 Y1.2037 
G01 X1.1605 Y1.1722 
G01 X1.1178 Y1.1295 
G01 X1.0045 Y1.1295 
G01 X1.0045 Y1.1343 
G01 X1.0032 Y1.1428 
G01 X1.0005 Y1.1509 
G01 X0.9966 Y1.1586 
G01 X0.9916 Y1.1655 
G01 X0.9855 Y1.1716 
G01 X0.9795 Y1.1759 
G01 X0.9795 Y1.3241 
G01 X0.9855 Y1.3284 
G01 X0.9916 Y1.3345 
G01 X0.9966 Y1.3414 
G01 X1.0005 Y1.3491 
G01 X1.0032 Y1.3572 
G01 X1.0045 Y1.3657 
G01 X1.0045 Y1.4343 
G01 X1.0032 Y1.4428 
G01 X1.0006 Y1.4505 
G01 X1.0878 Y1.4505 
G01 X1.0913 Y1.4470 
G01 X1.0872 Y1.4453 
G01 X1.0832 Y1.4427 
G01 X1.0798 Y1.4392 
G01 X1.0771 Y1.4352 
G01 X1.0753 Y1.4308 
G01 X1.0743 Y1.4260 
G01 X1.0743 Y1.3740 
G01 X1.0753 Y1.3692 
G01 X1.0771 Y1.3648 
G01 X1.0798 Y1.3608 
G01 X1.0832 Y1.3573 
G01 X1.0872 Y1.3547 
G01 X1.0917 Y1.3528 
G01 X1.0964 Y1.3519 
G01 X1.1264 Y1.3519 
G01 X1.1371 Y1.3412 
G01 X1.1412 Y1.3371 
G01 X1.1460 Y1.3339 
G01 X1.1514 Y1.3316 
G01 X1.1571 Y1.3305 
G01 X1.3529 Y1.3305 
G01 X1.3586 Y1.3316 
G01 X1.3640 Y1.3339 
G01 X1.3688 Y1.3371 
G01 X1.3797 Y1.3479 
G01 X1.4170 Y1.3479 
G01 X1.4217 Y1.3489 
G01 X1.4262 Y1.3507 
G01 X1.4302 Y1.3534 
G01 X1.4336 Y1.3568 
G01 X1.4363 Y1.3608 
G01 X1.4381 Y1.3653 
G01 X1.4391 Y1.3700 
G01 X1.4391 Y1.4300 
G01 X1.4381 Y1.4347 
G01 X1.4363 Y1.4392 
G01 X1.4336 Y1.4432 
G01 X1.4302 Y1.4466 
G01 X1.4262 Y1.4493 
G01 X1.4217 Y1.4511 
G01 X1.4170 Y1.4521 
G01 X1.3649 Y1.4521 
G01 X1.3602 Y1.4511 
G01 X1.3557 Y1.4493 
G01 X1.3517 Y1.4466 
G01 X1.3483 Y1.4432 
G01 X1.3456 Y1.4392 
G01 X1.3438 Y1.4347 
G01 X1.3428 Y1.4300 
G01 X1.3428 Y1.3945 
G01 X1.3378 Y1.3895 
G01 X1.2257 Y1.3895 
G01 X1.2257 Y1.4260 
G01 X1.2247 Y1.4308 
G01 X1.2229 Y1.4352 
G01 X1.2202 Y1.4392 
G01 X1.2168 Y1.4427 
G01 X1.2128 Y1.4453 
G01 X1.2083 Y1.4472 
G01 X1.2036 Y1.4481 
G01 X1.1736 Y1.4481 
G01 X1.1229 Y1.4988 
G01 X1.1188 Y1.5029 
G01 X1.1140 Y1.5061 
G01 X1.1086 Y1.5084 
G01 X1.1029 Y1.5095 
G01 X0.9271 Y1.5095 
G01 X0.9214 Y1.5084 
G01 X0.9160 Y1.5061 
G01 X0.9112 Y1.5029 
G01 X0.8822 Y1.4739 
G01 X0.8786 Y1.4766 
G01 X0.8709 Y1.4805 
G01 X0.8628 Y1.4832 
G01 X0.8543 Y1.4845 
G01 X0.8457 Y1.4845 
G01 X0.8372 Y1.4832 
G01 X0.8291 Y1.4805 
G01 X0.8214 Y1.4766 
G01 X0.8145 Y1.4716 
G01 X0.8084 Y1.4655 
G01 X0.8034 Y1.4586 
G01 X0.7995 Y1.4509 
G01 X0.7968 Y1.4428 
G01 X0.7955 Y1.4343 
G01 X0.7955 Y1.3657 
G01 X0.7968 Y1.3572 
G01 X0.7995 Y1.3491 
G01 X0.8034 Y1.3414 
G01 X0.8084 Y1.3345 
G01 X0.8145 Y1.3284 
G01 X0.8205 Y1.3241 
G01 X0.8205 Y1.1759 
G01 X0.8145 Y1.1716 
G01 X0.8084 Y1.1655 
G01 X0.8034 Y1.1586 
G01 X0.7995 Y1.1509 
G01 X0.7968 Y1.1428 
G01 X0.7955 Y1.1343 
G01 X0.7955 Y1.0657 
G01 X0.7968 Y1.0572 
G01 X0.7995 Y1.0491 
G01 X0.8034 Y1.0414 
G01 X0.8084 Y1.0345 
G01 X0.8145 Y1.0284 
G01 X0.8214 Y1.0234 
G01 X0.8291 Y1.0195 
G01 X0.8372 Y1.0168 
G01 X0.8457 Y1.0155 
G01 X0.8543 Y1.0155 
G01 X0.8628 Y1.0168 
G01 X0.8705 Y1.0194 
G01 X0.8705 Y0.8939 
G01 X0.8702 Y0.8935 
G01 X0.8684 Y0.8890 
G01 X0.8674 Y0.8843 
G01 X0.8674 Y0.8244 
G01 X0.8684 Y0.8196 
G01 X0.8702 Y0.8152 
G01 X0.8724 Y0.8119 
G01 X0.8602 Y0.8119 
G01 X0.8555 Y0.8110 
G01 X0.8510 Y0.8091 
G01 X0.8470 Y0.8064 
G01 X0.8453 Y0.8047 
G01 X0.8436 Y0.8064 
G01 X0.8396 Y0.8091 
G01 X0.8351 Y0.8110 
G01 X0.8304 Y0.8119 
G01 X0.7547 Y0.8119 
G01 X0.7499 Y0.8110 
G01 X0.7455 Y0.8091 
G01 X0.7415 Y0.8064 
G01 X0.7381 Y0.8030 
G01 X0.7354 Y0.7990 
G01 X0.7335 Y0.7945 
G01 X0.7326 Y0.7898 
G01 X0.7326 Y0.7102 
G01 X0.7335 Y0.7055 
G01 X0.7354 Y0.7010 
G01 X0.7381 Y0.6970 
G00 Z0.1000 
G00 X0.9295 Y0.9064 
G01 Z-0.0070 F10.00 
G01 X0.9295 Y0.9905 F20.00 
G01 X0.9729 Y0.9905 
G01 X0.9786 Y0.9916 
G01 X0.9840 Y0.9939 
G01 X0.9888 Y0.9971 
G01 X0.9929 Y1.0012 
G01 X1.0122 Y1.0205 
G01 X1.1455 Y1.0205 
G01 X1.1455 Y1.0157 
G01 X1.1468 Y1.0072 
G01 X1.1495 Y0.9991 
G01 X1.1534 Y0.9914 
G01 X1.1584 Y0.9845 
G01 X1.1645 Y0.9784 
G01 X1.1714 Y0.9734 
G01 X1.1791 Y0.9695 
G01 X1.1872 Y0.9668 
G01 X1.1957 Y0.9655 
G01 X1.2043 Y0.9655 
G01 X1.2128 Y0.9668 
G01 X1.2209 Y0.9695 
G01 X1.2286 Y0.9734 
G01 X1.2355 Y0.9784 
G01 X1.2416 Y0.9845 
G01 X1.2466 Y0.9914 
G01 X1.2500 Y0.9981 
G01 X1.2534 Y0.9914 
G01 X1.2584 Y0.9845 
G01 X1.2645 Y0.9784 
G01 X1.2705 Y0.9741 
G01 X1.2705 Y0.8997 
G01 X1.2503 Y0.8795 
G01 X1.0326 Y0.8795 
G01 X1.0326 Y0.8843 
G01 X1.0316 Y0.8890 
G01 X1.0298 Y0.8935 
G01 X1.0271 Y0.8975 
G01 X1.0237 Y0.9009 
G01 X1.0197 Y0.9036 
G01 X1.0152 Y0.9054 
G01 X1.0105 Y0.9064 
G01 X0.9919 Y0.9064 
G01 X0.9884 Y0.9057 
G01 X0.9849 Y0.9064 
G01 X0.9663 Y0.9064 
G01 X0.9628 Y0.9057 
G01 X0.9593 Y0.9064 
G01 X0.9407 Y0.9064 
G01 X0.9372 Y0.9057 
G01 X0.9337 Y0.9064 
G01 X0.9295 Y0.9064 
G00 Z0.1000 
G00 X0.9000 Y1.1519 
G01 Z-0.0070 F10.00 
G01 X0.8966 Y1.1586 F20.00 
G01 X0.8916 Y1.1655 
G01 X0.8855 Y1.1716 
G01 X0.8795 Y1.1759 
G01 X0.8795 Y1.3241 
G01 X0.8855 Y1.3284 
G01 X0.8916 Y1.3345 
G01 X0.8966 Y1.3414 
G01 X0.9000 Y1.3481 
G01 X0.9034 Y1.3414 
G01 X0.9084 Y1.3345 
G01 X0.9145 Y1.3284 
G01 X0.9205 Y1.3241 
G01 X0.9205 Y1.1759 
G01 X0.9145 Y1.1716 
G01 X0.9084 Y1.1655 
G01 X0.9034 Y1.1586 
G01 X0.9000 Y1.1519 
G00 Z0.1000 
G00 X1.2195 Y1.1722 
G01 Z-0.0070 F10.00 
G01 X1.2195 Y1.2100 F20.00 
G01 X1.2202 Y1.2108 
G01 X1.2229 Y1.2148 
G01 X1.2247 Y1.2192 
G01 X1.2257 Y1.2240 
G01 X1.2257 Y1.2605 
G01 X1.3478 Y1.2605 
G01 X1.3605 Y1.2477 
G01 X1.3605 Y1.2304 
G01 X1.3618 Y1.2243 
G01 X1.3641 Y1.2185 
G01 X1.3676 Y1.2133 
G01 X1.3720 Y1.2089 
G01 X1.3772 Y1.2055 
G01 X1.3829 Y1.2031 
G01 X1.3890 Y1.2019 
G01 X1.4002 Y1.2019 
G01 X1.3771 Y1.1788 
G01 X1.3739 Y1.1740 
G01 X1.3716 Y1.1686 
G01 X1.3705 Y1.1629 
G01 X1.3705 Y1.1571 
G01 X1.3705 Y1.1259 
G01 X1.3645 Y1.1216 
G01 X1.3584 Y1.1155 
G01 X1.3534 Y1.1086 
G01 X1.3500 Y1.1019 
G01 X1.3466 Y1.1086 
G01 X1.3416 Y1.1155 
G01 X1.3355 Y1.1216 
G01 X1.3286 Y1.1266 
G01 X1.3209 Y1.1305 
G01 X1.3128 Y1.1332 
G01 X1.3043 Y1.1345 
G01 X1.2957 Y1.1345 
G01 X1.2872 Y1.1332 
G01 X1.2791 Y1.1305 
G01 X1.2714 Y1.1266 
G01 X1.2678 Y1.1239 
G01 X1.2195 Y1.1722 
G00 Z0.1000 
G00 X1.4295 Y1.1478 
G01 Z-0.0070 F10.00 
G01 X1.4836 Y1.2019 F20.00 
G01 X1.5110 Y1.2019 
G01 X1.5171 Y1.2031 
G01 X1.5228 Y1.2055 
G01 X1.5280 Y1.2089 
G01 X1.5324 Y1.2133 
G01 X1.5359 Y1.2185 
G01 X1.5367 Y1.2205 
G01 X1.6455 Y1.2205 
G01 X1.6455 Y1.2157 
G01 X1.6468 Y1.2072 
G01 X1.6495 Y1.1991 
G01 X1.6534 Y1.1914 
G01 X1.6584 Y1.1845 
G01 X1.6645 Y1.1784 
G01 X1.6705 Y1.1741 
G01 X1.6705 Y1.1259 
G01 X1.6645 Y1.1216 
G01 X1.6584 Y1.1155 
G01 X1.6534 Y1.1086 
G01 X1.6495 Y1.1009 
G01 X1.6468 Y1.0928 
G01 X1.6455 Y1.0843 
G01 X1.6455 Y1.0157 
G01 X1.6468 Y1.0072 
G01 X1.6495 Y0.9991 
G01 X1.6534 Y0.9914 
G01 X1.6584 Y0.9845 
G01 X1.6645 Y0.9784 
G01 X1.6714 Y0.9734 
G01 X1.6791 Y0.9695 
G01 X1.6872 Y0.9668 
G01 X1.6957 Y0.9655 
G01 X1.7043 Y0.9655 
G01 X1.7128 Y0.9668 
G01 X1.7205 Y0.9694 
G01 X1.7205 Y0.8997 
G01 X1.7000 Y0.8792 
G01 X1.6732 Y0.9060 
G01 X1.6268 Y0.9060 
G01 X1.6003 Y0.8795 
G01 X1.4671 Y0.8795 
G01 X1.4614 Y0.8784 
G01 X1.4560 Y0.8761 
G01 X1.4542 Y0.8750 
G01 X1.4295 Y0.8997 
G01 X1.4295 Y0.9741 
G01 X1.4355 Y0.9784 
G01 X1.4416 Y0.9845 
G01 X1.4466 Y0.9914 
G01 X1.4505 Y0.9991 
G01 X1.4532 Y1.0072 
G01 X1.4545 Y1.0157 
G01 X1.4545 Y1.0843 
G01 X1.4532 Y1.0928 
G01 X1.4505 Y1.1009 
G01 X1.4466 Y1.1086 
G01 X1.4416 Y1.1155 
G01 X1.4355 Y1.1216 
G01 X1.4295 Y1.1259 
G01 X1.4295 Y1.1478 
G00 Z0.1000 
G00 X1.3500 Y0.9981 
G01 Z-0.0070 F10.00 
G01 X1.3534 Y0.9914 F20.00 
G01 X1.3584 Y0.9845 
G01 X1.3645 Y0.9784 
G01 X1.3705 Y0.9741 
G01 X1.3705 Y0.8997 
G01 X1.3500 Y0.8792 
G01 X1.3295 Y0.8997 
G01 X1.3295 Y0.9741 
G01 X1.3355 Y0.9784 
G01 X1.3416 Y0.9845 
G01 X1.3466 Y0.9914 
G01 X1.3500 Y0.9981 
G00 Z0.1000 
G00 X1.7500 Y1.1019 
G01 Z-0.0070 F10.00 
G01 X1.7466 Y1.1086 F20.00 
G01 X1.7416 Y1.1155 
G01 X1.7355 Y1.1216 
G01 X1.7295 Y1.1259 
G01 X1.7295 Y1.1741 
G01 X1.7355 Y1.1784 
G01 X1.7416 Y1.1845 
G01 X1.7466 Y1.1914 
G01 X1.7500 Y1.1981 
G01 X1.7534 Y1.1914 
G01 X1.7584 Y1.1845 
G01 X1.7645 Y1.1784 
G01 X1.7705 Y1.1741 
G01 X1.7705 Y1.1259 
G01 X1.7645 Y1.1216 
G01 X1.7584 Y1.1155 
G01 X1.7534 Y1.1086 
G01 X1.7500 Y1.1019 
G00 Z0.1000 
G00 X1.7500 Y1.3019 
G01 Z-0.0070 F10.00 
G01 X1.7466 Y1.3086 F20.00 
G01 X1.7416 Y1.3155 
G01 X1.7355 Y1.3216 
G01 X1.7295 Y1.3259 
G01 X1.7295 Y1.3741 
G01 X1.7355 Y1.3784 
G01 X1.7416 Y1.3845 
G01 X1.7466 Y1.3914 
G01 X1.7500 Y1.3981 
G01 X1.7534 Y1.3914 
G01 X1.7584 Y1.3845 
G01 X1.7645 Y1.3784 
G01 X1.7705 Y1.3741 
G01 X1.7705 Y1.3259 
G01 X1.7645 Y1.3216 
G01 X1.7584 Y1.3155 
G01 X1.7534 Y1.3086 
G01 X1.7500 Y1.3019 
(Top outline End)
(Outline End)
(End of every top file)
(End of every file)
G00 Z0.1000 
G00 Z0.100000
G00 X1.4000 Y0.8500 
G01 Z-0.0130 F20.00 
G01 Z0.100000
(R0.1000  P1.000000)
G00 X1.3000 Y0.8500 
G01 Z-0.0130 
G01 Z0.100000
G00 X1.7500 Y0.8500 
G01 Z-0.0130 
G01 Z0.100000
G00 X1.6500 Y0.8500 
G01 Z-0.0130 
G01 Z0.100000
G00 X1.2000 Y1.0500 
G01 Z-0.0130 
G01 Z0.100000
G00 X1.3000 Y1.0500 
G01 Z-0.0130 
G01 Z0.100000
G00 X1.4000 Y1.0500 
G01 Z-0.0130 
G01 Z0.100000
G00 X1.8000 Y1.0500 
G01 Z-0.0130 
G01 Z0.100000
G00 X1.7000 Y1.0500 
G01 Z-0.0130 
G01 Z0.100000
G00 X1.8000 Y1.2500 
G01 Z-0.0130 
G01 Z0.100000
G00 X1.7000 Y1.2500 
G01 Z-0.0130 
G01 Z0.100000
G00 X1.8000 Y1.4500 
G01 Z-0.0130 
G01 Z0.100000
G00 X1.7000 Y1.4500 
G01 Z-0.0130 
G01 Z0.100000
G00 X0.8500 Y1.1000 
G01 Z-0.0130 
G01 Z0.100000
G00 X0.9500 Y1.1000 
G01 Z-0.0130 
G01 Z0.100000
G00 X0.8500 Y1.4000 
G01 Z-0.0130 
G01 Z0.100000
G00 X0.9500 Y1.4000 
G01 Z-0.0130 
G01 Z0.100000
G00 Z0.5000 
M05
M02
