(.../pcbgcode/pcbgcode-master/pcb-gcode.ulp)
(Copyright 2005 - 2012 by John Johnson)
(See readme.txt for licensing terms.)
(This file generated from the board:)
(.../LM7805_voltage_regulator/Voltage_regulator.brd)
(Current profile is .../pcb-gcode-3.6.2.4/profiles/generic.pp  )
(This file generated 3/7/2023 12:24 PM)
(Settings from pcb-machine.h)
(spindle on time = 3.0000)
(spindle speed = 15000.0000)
(milling depth = -0.0100)
(tool change at 0.0000 0.0000 1.0000 )
(feed rate xy = F10.00 )
(feed rate z  = F5.00  )
(Z Axis Settings)
(  High     Up        Down     Drill)
(0.5000 	0.1000 	-0.0070 	-0.0320 )
(Settings from pcb-defaults.h)
(isolate min = 0.0010)
(isolate max = 0.0200)
(isolate step = 0.0050)
(Generated top outlines, top drill, bottom outlines, bottom drill, )
(Unit of measure: inch)
(Beginning of every file)
(Beginning of every top file)
(MILL Begin)
(Top MILL Begin)
(Inch Mode)
G20
(Absolute Coordinates)
G90
S15000
G00 Z0.5000 
G00 X0.0000 Y0.0000 
M03
G04 P3.000000
G00 Z0.1000 
G00 X0.7500 Y0.7000 
G01 Z-0.0100 F5.00  
G01 X1.7000 Y0.7000 F10.00 
G00 Z0.1000 
G00 X1.8000 Y0.7000 
G01 Z-0.0100 F5.00  
G01 X1.9500 Y0.7000 F10.00 
G01 X1.9500 Y1.6000 
G01 X1.7000 Y1.6000 
G00 Z0.1000 
G00 X1.6000 Y1.6000 
G01 Z-0.0100 F5.00  
G01 X0.7500 Y1.6000 F10.00 
G01 X0.7500 Y1.1500 
G00 Z0.1000 
G00 X0.7500 Y1.0500 
G01 Z-0.0100 F5.00  
G01 X0.7500 Y0.7000 F10.00 
(Top MILL End)
(MILL End)
(End of every top file)
(End of every file)
G00 Z0.5000 
M05
M02
