(.../pcbgcode/pcbgcode-master/pcb-gcode.ulp)
(Copyright 2005 - 2012 by John Johnson)
(See readme.txt for licensing terms.)
(This file generated from the board:)
(.../LM7805_voltage_regulator/Voltage_regulator.brd)
(Current profile is .../pcb-gcode-3.6.2.4/profiles/generic.pp  )
(This file generated 3/7/2023 12:24 PM)
(Settings from pcb-machine.h)
(spindle on time = 3.0000)
(  Tool Size)
(0.0070 )
(spindle speed = 30000.0000)
(tool change at 0.0000 0.0000 1.0000 )
(feed rate xy = F20.00 )
(feed rate z  = F10.00 )
(Z Axis Settings)
(  High     Up        Down     Drill)
(0.5000 	0.1000 	-0.0070 	-0.0320 )
(Settings from pcb-defaults.h)
(isolate min = 0.0010)
(isolate max = 0.0200)
(isolate step = 0.0050)
(Generated top outlines, top drill, bottom outlines, bottom drill, )
(Unit of measure: inch)
(Beginning of every file)
(Beginning of every bottom file)
(Outline Begin)
(Bottom outline Begin)
(Inch Mode)
G20
(Absolute Coordinates)
G90
S30000
G00 Z0.5000 
G00 X0.0000 Y0.0000 
M03
G04 P3.000000
G00 Z0.1000 
G00 X-0.8232 Y1.0480 
G01 Z-0.0070 F10.00 
G01 X-0.8280 Y1.0432 F20.00 
G01 X-0.8337 Y1.0394 
G01 X-0.8399 Y1.0368 
G01 X-0.8466 Y1.0355 
G01 X-0.8534 Y1.0355 
G01 X-0.8601 Y1.0368 
G01 X-0.8663 Y1.0394 
G01 X-0.8720 Y1.0432 
G01 X-0.8768 Y1.0480 
G01 X-0.8806 Y1.0537 
G01 X-0.8832 Y1.0599 
G01 X-0.8845 Y1.0666 
G01 X-0.8845 Y1.1334 
G01 X-0.8832 Y1.1401 
G01 X-0.8806 Y1.1463 
G01 X-0.8768 Y1.1520 
G01 X-0.8720 Y1.1568 
G01 X-0.8663 Y1.1606 
G01 X-0.8601 Y1.1632 
G01 X-0.8534 Y1.1645 
G01 X-0.8466 Y1.1645 
G01 X-0.8399 Y1.1632 
G01 X-0.8337 Y1.1606 
G01 X-0.8280 Y1.1568 
G01 X-0.8232 Y1.1520 
G01 X-0.8194 Y1.1463 
G01 X-0.8168 Y1.1401 
G01 X-0.8155 Y1.1334 
G01 X-0.8155 Y1.0666 
G01 X-0.8168 Y1.0599 
G01 X-0.8194 Y1.0537 
G01 X-0.8232 Y1.0480 
G00 Z0.1000 
G00 X-0.9232 Y1.0480 
G01 Z-0.0070 F10.00 
G01 X-0.9280 Y1.0432 F20.00 
G01 X-0.9337 Y1.0394 
G01 X-0.9399 Y1.0368 
G01 X-0.9466 Y1.0355 
G01 X-0.9534 Y1.0355 
G01 X-0.9601 Y1.0368 
G01 X-0.9663 Y1.0394 
G01 X-0.9720 Y1.0432 
G01 X-0.9768 Y1.0480 
G01 X-0.9806 Y1.0537 
G01 X-0.9832 Y1.0599 
G01 X-0.9845 Y1.0666 
G01 X-0.9845 Y1.1334 
G01 X-0.9832 Y1.1401 
G01 X-0.9806 Y1.1463 
G01 X-0.9768 Y1.1520 
G01 X-0.9720 Y1.1568 
G01 X-0.9663 Y1.1606 
G01 X-0.9601 Y1.1632 
G01 X-0.9534 Y1.1645 
G01 X-0.9466 Y1.1645 
G01 X-0.9399 Y1.1632 
G01 X-0.9337 Y1.1606 
G01 X-0.9280 Y1.1568 
G01 X-0.9232 Y1.1520 
G01 X-0.9194 Y1.1463 
G01 X-0.9168 Y1.1401 
G01 X-0.9155 Y1.1334 
G01 X-0.9155 Y1.0666 
G01 X-0.9168 Y1.0599 
G01 X-0.9194 Y1.0537 
G01 X-0.9232 Y1.0480 
G00 Z0.1000 
G00 X-1.1655 Y1.0166 
G01 Z-0.0070 F10.00 
G01 X-1.1668 Y1.0099 F20.00 
G01 X-1.1694 Y1.0037 
G01 X-1.1732 Y0.9980 
G01 X-1.1780 Y0.9932 
G01 X-1.1837 Y0.9894 
G01 X-1.1899 Y0.9868 
G01 X-1.1966 Y0.9855 
G01 X-1.2034 Y0.9855 
G01 X-1.2101 Y0.9868 
G01 X-1.2163 Y0.9894 
G01 X-1.2220 Y0.9932 
G01 X-1.2268 Y0.9980 
G01 X-1.2306 Y1.0037 
G01 X-1.2332 Y1.0099 
G01 X-1.2345 Y1.0166 
G01 X-1.2345 Y1.0834 
G01 X-1.2332 Y1.0901 
G01 X-1.2306 Y1.0963 
G01 X-1.2268 Y1.1020 
G01 X-1.2220 Y1.1068 
G01 X-1.2163 Y1.1106 
G01 X-1.2101 Y1.1132 
G01 X-1.2034 Y1.1145 
G01 X-1.1966 Y1.1145 
G01 X-1.1899 Y1.1132 
G01 X-1.1837 Y1.1106 
G01 X-1.1780 Y1.1068 
G01 X-1.1732 Y1.1020 
G01 X-1.1694 Y1.0963 
G01 X-1.1668 Y1.0901 
G01 X-1.1655 Y1.0834 
G01 X-1.1655 Y1.0166 
G00 Z0.1000 
G00 X-1.2655 Y1.0166 
G01 Z-0.0070 F10.00 
G01 X-1.2668 Y1.0099 F20.00 
G01 X-1.2694 Y1.0037 
G01 X-1.2732 Y0.9980 
G01 X-1.2780 Y0.9932 
G01 X-1.2837 Y0.9894 
G01 X-1.2899 Y0.9868 
G01 X-1.2966 Y0.9855 
G01 X-1.3034 Y0.9855 
G01 X-1.3101 Y0.9868 
G01 X-1.3163 Y0.9894 
G01 X-1.3220 Y0.9932 
G01 X-1.3268 Y0.9980 
G01 X-1.3306 Y1.0037 
G01 X-1.3332 Y1.0099 
G01 X-1.3345 Y1.0166 
G01 X-1.3345 Y1.0834 
G01 X-1.3332 Y1.0901 
G01 X-1.3306 Y1.0963 
G01 X-1.3268 Y1.1020 
G01 X-1.3220 Y1.1068 
G01 X-1.3163 Y1.1106 
G01 X-1.3101 Y1.1132 
G01 X-1.3034 Y1.1145 
G01 X-1.2966 Y1.1145 
G01 X-1.2899 Y1.1132 
G01 X-1.2837 Y1.1106 
G01 X-1.2780 Y1.1068 
G01 X-1.2732 Y1.1020 
G01 X-1.2694 Y1.0963 
G01 X-1.2668 Y1.0901 
G01 X-1.2655 Y1.0834 
G01 X-1.2655 Y1.0166 
G00 Z0.1000 
G00 X-1.3655 Y1.0166 
G01 Z-0.0070 F10.00 
G01 X-1.3668 Y1.0099 F20.00 
G01 X-1.3694 Y1.0037 
G01 X-1.3732 Y0.9980 
G01 X-1.3780 Y0.9932 
G01 X-1.3837 Y0.9894 
G01 X-1.3899 Y0.9868 
G01 X-1.3966 Y0.9855 
G01 X-1.4034 Y0.9855 
G01 X-1.4101 Y0.9868 
G01 X-1.4163 Y0.9894 
G01 X-1.4220 Y0.9932 
G01 X-1.4268 Y0.9980 
G01 X-1.4306 Y1.0037 
G01 X-1.4332 Y1.0099 
G01 X-1.4345 Y1.0166 
G01 X-1.4345 Y1.0834 
G01 X-1.4332 Y1.0901 
G01 X-1.4306 Y1.0963 
G01 X-1.4268 Y1.1020 
G01 X-1.4220 Y1.1068 
G01 X-1.4163 Y1.1106 
G01 X-1.4101 Y1.1132 
G01 X-1.4034 Y1.1145 
G01 X-1.3966 Y1.1145 
G01 X-1.3899 Y1.1132 
G01 X-1.3837 Y1.1106 
G01 X-1.3780 Y1.1068 
G01 X-1.3732 Y1.1020 
G01 X-1.3694 Y1.0963 
G01 X-1.3668 Y1.0901 
G01 X-1.3655 Y1.0834 
G01 X-1.3655 Y1.0166 
G00 Z0.1000 
G00 X-1.3851 Y0.8860 
G01 Z-0.0070 F10.00 
G01 X-1.3640 Y0.8649 F20.00 
G01 X-1.3640 Y0.8351 
G01 X-1.3851 Y0.8140 
G01 X-1.4149 Y0.8140 
G01 X-1.4360 Y0.8351 
G01 X-1.4360 Y0.8649 
G01 X-1.4149 Y0.8860 
G01 X-1.3851 Y0.8860 
G00 Z0.1000 
G00 X-1.3360 Y0.8649 
G01 Z-0.0070 F10.00 
G01 X-1.3149 Y0.8860 F20.00 
G01 X-1.2851 Y0.8860 
G01 X-1.2640 Y0.8649 
G01 X-1.2640 Y0.8351 
G01 X-1.2851 Y0.8140 
G01 X-1.3149 Y0.8140 
G01 X-1.3360 Y0.8351 
G01 X-1.3360 Y0.8649 
G00 Z0.1000 
G00 X-1.6140 Y0.8649 
G01 Z-0.0070 F10.00 
G01 X-1.6140 Y0.8351 F20.00 
G01 X-1.6351 Y0.8140 
G01 X-1.6649 Y0.8140 
G01 X-1.6860 Y0.8351 
G01 X-1.6860 Y0.8649 
G01 X-1.6649 Y0.8860 
G01 X-1.6351 Y0.8860 
G01 X-1.6140 Y0.8649 
G00 Z0.1000 
G00 X-1.7140 Y0.8649 
G01 Z-0.0070 F10.00 
G01 X-1.7140 Y0.8351 F20.00 
G01 X-1.7351 Y0.8140 
G01 X-1.7649 Y0.8140 
G01 X-1.7860 Y0.8351 
G01 X-1.7860 Y0.8649 
G01 X-1.7649 Y0.8860 
G01 X-1.7351 Y0.8860 
G01 X-1.7140 Y0.8649 
G00 Z0.1000 
G00 X-1.7101 Y0.9868 
G01 Z-0.0070 F10.00 
G01 X-1.7163 Y0.9894 F20.00 
G01 X-1.7220 Y0.9932 
G01 X-1.7268 Y0.9980 
G01 X-1.7306 Y1.0037 
G01 X-1.7332 Y1.0099 
G01 X-1.7345 Y1.0166 
G01 X-1.7345 Y1.0834 
G01 X-1.7332 Y1.0901 
G01 X-1.7306 Y1.0963 
G01 X-1.7268 Y1.1020 
G01 X-1.7220 Y1.1068 
G01 X-1.7163 Y1.1106 
G01 X-1.7101 Y1.1132 
G01 X-1.7034 Y1.1145 
G01 X-1.6966 Y1.1145 
G01 X-1.6899 Y1.1132 
G01 X-1.6837 Y1.1106 
G01 X-1.6780 Y1.1068 
G01 X-1.6732 Y1.1020 
G01 X-1.6694 Y1.0963 
G01 X-1.6668 Y1.0901 
G01 X-1.6655 Y1.0834 
G01 X-1.6655 Y1.0166 
G01 X-1.6668 Y1.0099 
G01 X-1.6694 Y1.0037 
G01 X-1.6732 Y0.9980 
G01 X-1.6780 Y0.9932 
G01 X-1.6837 Y0.9894 
G01 X-1.6899 Y0.9868 
G01 X-1.6966 Y0.9855 
G01 X-1.7034 Y0.9855 
G01 X-1.7101 Y0.9868 
G00 Z0.1000 
G00 X-1.7732 Y0.9980 
G01 Z-0.0070 F10.00 
G01 X-1.7780 Y0.9932 F20.00 
G01 X-1.7837 Y0.9894 
G01 X-1.7899 Y0.9868 
G01 X-1.7966 Y0.9855 
G01 X-1.8034 Y0.9855 
G01 X-1.8101 Y0.9868 
G01 X-1.8163 Y0.9894 
G01 X-1.8220 Y0.9932 
G01 X-1.8268 Y0.9980 
G01 X-1.8306 Y1.0037 
G01 X-1.8332 Y1.0099 
G01 X-1.8345 Y1.0166 
G01 X-1.8345 Y1.0834 
G01 X-1.8332 Y1.0901 
G01 X-1.8306 Y1.0963 
G01 X-1.8268 Y1.1020 
G01 X-1.8220 Y1.1068 
G01 X-1.8163 Y1.1106 
G01 X-1.8101 Y1.1132 
G01 X-1.8034 Y1.1145 
G01 X-1.7966 Y1.1145 
G01 X-1.7899 Y1.1132 
G01 X-1.7837 Y1.1106 
G01 X-1.7780 Y1.1068 
G01 X-1.7732 Y1.1020 
G01 X-1.7694 Y1.0963 
G01 X-1.7668 Y1.0901 
G01 X-1.7655 Y1.0834 
G01 X-1.7655 Y1.0166 
G01 X-1.7668 Y1.0099 
G01 X-1.7694 Y1.0037 
G01 X-1.7732 Y0.9980 
G00 Z0.1000 
G00 X-1.7732 Y1.1980 
G01 Z-0.0070 F10.00 
G01 X-1.7780 Y1.1932 F20.00 
G01 X-1.7837 Y1.1894 
G01 X-1.7899 Y1.1868 
G01 X-1.7966 Y1.1855 
G01 X-1.8034 Y1.1855 
G01 X-1.8101 Y1.1868 
G01 X-1.8163 Y1.1894 
G01 X-1.8220 Y1.1932 
G01 X-1.8268 Y1.1980 
G01 X-1.8306 Y1.2037 
G01 X-1.8332 Y1.2099 
G01 X-1.8345 Y1.2166 
G01 X-1.8345 Y1.2834 
G01 X-1.8332 Y1.2901 
G01 X-1.8306 Y1.2963 
G01 X-1.8268 Y1.3020 
G01 X-1.8220 Y1.3068 
G01 X-1.8163 Y1.3106 
G01 X-1.8101 Y1.3132 
G01 X-1.8034 Y1.3145 
G01 X-1.7966 Y1.3145 
G01 X-1.7899 Y1.3132 
G01 X-1.7837 Y1.3106 
G01 X-1.7780 Y1.3068 
G01 X-1.7732 Y1.3020 
G01 X-1.7694 Y1.2963 
G01 X-1.7668 Y1.2901 
G01 X-1.7655 Y1.2834 
G01 X-1.7655 Y1.2166 
G01 X-1.7668 Y1.2099 
G01 X-1.7694 Y1.2037 
G01 X-1.7732 Y1.1980 
G00 Z0.1000 
G00 X-1.7268 Y1.1980 
G01 Z-0.0070 F10.00 
G01 X-1.7306 Y1.2037 F20.00 
G01 X-1.7332 Y1.2099 
G01 X-1.7345 Y1.2166 
G01 X-1.7345 Y1.2834 
G01 X-1.7332 Y1.2901 
G01 X-1.7306 Y1.2963 
G01 X-1.7268 Y1.3020 
G01 X-1.7220 Y1.3068 
G01 X-1.7163 Y1.3106 
G01 X-1.7101 Y1.3132 
G01 X-1.7034 Y1.3145 
G01 X-1.6966 Y1.3145 
G01 X-1.6899 Y1.3132 
G01 X-1.6837 Y1.3106 
G01 X-1.6780 Y1.3068 
G01 X-1.6732 Y1.3020 
G01 X-1.6694 Y1.2963 
G01 X-1.6668 Y1.2901 
G01 X-1.6655 Y1.2834 
G01 X-1.6655 Y1.2166 
G01 X-1.6668 Y1.2099 
G01 X-1.6694 Y1.2037 
G01 X-1.6732 Y1.1980 
G01 X-1.6780 Y1.1932 
G01 X-1.6837 Y1.1894 
G01 X-1.6899 Y1.1868 
G01 X-1.6966 Y1.1855 
G01 X-1.7034 Y1.1855 
G01 X-1.7101 Y1.1868 
G01 X-1.7163 Y1.1894 
G01 X-1.7220 Y1.1932 
G01 X-1.7268 Y1.1980 
G00 Z0.1000 
G00 X-1.7220 Y1.3932 
G01 Z-0.0070 F10.00 
G01 X-1.7268 Y1.3980 F20.00 
G01 X-1.7306 Y1.4037 
G01 X-1.7332 Y1.4099 
G01 X-1.7345 Y1.4166 
G01 X-1.7345 Y1.4834 
G01 X-1.7332 Y1.4901 
G01 X-1.7306 Y1.4963 
G01 X-1.7268 Y1.5020 
G01 X-1.7220 Y1.5068 
G01 X-1.7163 Y1.5106 
G01 X-1.7101 Y1.5132 
G01 X-1.7034 Y1.5145 
G01 X-1.6966 Y1.5145 
G01 X-1.6899 Y1.5132 
G01 X-1.6837 Y1.5106 
G01 X-1.6780 Y1.5068 
G01 X-1.6732 Y1.5020 
G01 X-1.6694 Y1.4963 
G01 X-1.6668 Y1.4901 
G01 X-1.6655 Y1.4834 
G01 X-1.6655 Y1.4166 
G01 X-1.6668 Y1.4099 
G01 X-1.6694 Y1.4037 
G01 X-1.6732 Y1.3980 
G01 X-1.6780 Y1.3932 
G01 X-1.6837 Y1.3894 
G01 X-1.6899 Y1.3868 
G01 X-1.6966 Y1.3855 
G01 X-1.7034 Y1.3855 
G01 X-1.7101 Y1.3868 
G01 X-1.7163 Y1.3894 
G01 X-1.7220 Y1.3932 
G00 Z0.1000 
G00 X-1.7732 Y1.3980 
G01 Z-0.0070 F10.00 
G01 X-1.7780 Y1.3932 F20.00 
G01 X-1.7837 Y1.3894 
G01 X-1.7899 Y1.3868 
G01 X-1.7966 Y1.3855 
G01 X-1.8034 Y1.3855 
G01 X-1.8101 Y1.3868 
G01 X-1.8163 Y1.3894 
G01 X-1.8220 Y1.3932 
G01 X-1.8268 Y1.3980 
G01 X-1.8306 Y1.4037 
G01 X-1.8332 Y1.4099 
G01 X-1.8345 Y1.4166 
G01 X-1.8345 Y1.4834 
G01 X-1.8332 Y1.4901 
G01 X-1.8306 Y1.4963 
G01 X-1.8268 Y1.5020 
G01 X-1.8220 Y1.5068 
G01 X-1.8163 Y1.5106 
G01 X-1.8101 Y1.5132 
G01 X-1.8034 Y1.5145 
G01 X-1.7966 Y1.5145 
G01 X-1.7899 Y1.5132 
G01 X-1.7837 Y1.5106 
G01 X-1.7780 Y1.5068 
G01 X-1.7732 Y1.5020 
G01 X-1.7694 Y1.4963 
G01 X-1.7668 Y1.4901 
G01 X-1.7655 Y1.4834 
G01 X-1.7655 Y1.4166 
G01 X-1.7668 Y1.4099 
G01 X-1.7694 Y1.4037 
G01 X-1.7732 Y1.3980 
G00 Z0.1000 
G00 X-0.9845 Y1.3666 
G01 Z-0.0070 F10.00 
G01 X-0.9845 Y1.4334 F20.00 
G01 X-0.9832 Y1.4401 
G01 X-0.9806 Y1.4463 
G01 X-0.9768 Y1.4520 
G01 X-0.9720 Y1.4568 
G01 X-0.9663 Y1.4606 
G01 X-0.9601 Y1.4632 
G01 X-0.9534 Y1.4645 
G01 X-0.9466 Y1.4645 
G01 X-0.9399 Y1.4632 
G01 X-0.9337 Y1.4606 
G01 X-0.9280 Y1.4568 
G01 X-0.9232 Y1.4520 
G01 X-0.9194 Y1.4463 
G01 X-0.9168 Y1.4401 
G01 X-0.9155 Y1.4334 
G01 X-0.9155 Y1.3666 
G01 X-0.9168 Y1.3599 
G01 X-0.9194 Y1.3537 
G01 X-0.9232 Y1.3480 
G01 X-0.9280 Y1.3432 
G01 X-0.9337 Y1.3394 
G01 X-0.9399 Y1.3368 
G01 X-0.9466 Y1.3355 
G01 X-0.9534 Y1.3355 
G01 X-0.9601 Y1.3368 
G01 X-0.9663 Y1.3394 
G01 X-0.9720 Y1.3432 
G01 X-0.9768 Y1.3480 
G01 X-0.9806 Y1.3537 
G01 X-0.9832 Y1.3599 
G01 X-0.9845 Y1.3666 
G00 Z0.1000 
G00 X-0.8845 Y1.3666 
G01 Z-0.0070 F10.00 
G01 X-0.8845 Y1.4334 F20.00 
G01 X-0.8832 Y1.4401 
G01 X-0.8806 Y1.4463 
G01 X-0.8768 Y1.4520 
G01 X-0.8720 Y1.4568 
G01 X-0.8663 Y1.4606 
G01 X-0.8601 Y1.4632 
G01 X-0.8534 Y1.4645 
G01 X-0.8466 Y1.4645 
G01 X-0.8399 Y1.4632 
G01 X-0.8337 Y1.4606 
G01 X-0.8280 Y1.4568 
G01 X-0.8232 Y1.4520 
G01 X-0.8194 Y1.4463 
G01 X-0.8168 Y1.4401 
G01 X-0.8155 Y1.4334 
G01 X-0.8155 Y1.3666 
G01 X-0.8168 Y1.3599 
G01 X-0.8194 Y1.3537 
G01 X-0.8232 Y1.3480 
G01 X-0.8280 Y1.3432 
G01 X-0.8337 Y1.3394 
G01 X-0.8399 Y1.3368 
G01 X-0.8466 Y1.3355 
G01 X-0.8534 Y1.3355 
G01 X-0.8601 Y1.3368 
G01 X-0.8663 Y1.3394 
G01 X-0.8720 Y1.3432 
G01 X-0.8768 Y1.3480 
G01 X-0.8806 Y1.3537 
G01 X-0.8832 Y1.3599 
G01 X-0.8845 Y1.3666 
(Between Passes)
(Bottom between passes)
G00 Z0.1000 
G00 X-0.8193 Y1.0448 
G01 Z-0.0070 F10.00 
G01 X-0.8150 Y1.0513 F20.00 
G01 X-0.8120 Y1.0585 
G01 X-0.8105 Y1.0661 
G01 X-0.8105 Y1.1339 
G01 X-0.8120 Y1.1415 
G01 X-0.8150 Y1.1487 
G01 X-0.8193 Y1.1552 
G01 X-0.8248 Y1.1607 
G01 X-0.8313 Y1.1650 
G01 X-0.8385 Y1.1680 
G01 X-0.8461 Y1.1695 
G01 X-0.8539 Y1.1695 
G01 X-0.8615 Y1.1680 
G01 X-0.8687 Y1.1650 
G01 X-0.8752 Y1.1607 
G01 X-0.8807 Y1.1552 
G01 X-0.8850 Y1.1487 
G01 X-0.8880 Y1.1415 
G01 X-0.8895 Y1.1339 
G01 X-0.8895 Y1.0661 
G01 X-0.8880 Y1.0585 
G01 X-0.8850 Y1.0513 
G01 X-0.8807 Y1.0448 
G01 X-0.8752 Y1.0393 
G01 X-0.8687 Y1.0350 
G01 X-0.8615 Y1.0320 
G01 X-0.8539 Y1.0305 
G01 X-0.8461 Y1.0305 
G01 X-0.8385 Y1.0320 
G01 X-0.8313 Y1.0350 
G01 X-0.8248 Y1.0393 
G01 X-0.8193 Y1.0448 
G00 Z0.1000 
G00 X-0.9193 Y1.0448 
G01 Z-0.0070 F10.00 
G01 X-0.9150 Y1.0513 F20.00 
G01 X-0.9120 Y1.0585 
G01 X-0.9105 Y1.0661 
G01 X-0.9105 Y1.1339 
G01 X-0.9120 Y1.1415 
G01 X-0.9150 Y1.1487 
G01 X-0.9193 Y1.1552 
G01 X-0.9248 Y1.1607 
G01 X-0.9313 Y1.1650 
G01 X-0.9385 Y1.1680 
G01 X-0.9461 Y1.1695 
G01 X-0.9539 Y1.1695 
G01 X-0.9615 Y1.1680 
G01 X-0.9687 Y1.1650 
G01 X-0.9752 Y1.1607 
G01 X-0.9807 Y1.1552 
G01 X-0.9850 Y1.1487 
G01 X-0.9880 Y1.1415 
G01 X-0.9895 Y1.1339 
G01 X-0.9895 Y1.0661 
G01 X-0.9880 Y1.0585 
G01 X-0.9850 Y1.0513 
G01 X-0.9807 Y1.0448 
G01 X-0.9752 Y1.0393 
G01 X-0.9687 Y1.0350 
G01 X-0.9615 Y1.0320 
G01 X-0.9539 Y1.0305 
G01 X-0.9461 Y1.0305 
G01 X-0.9385 Y1.0320 
G01 X-0.9313 Y1.0350 
G01 X-0.9248 Y1.0393 
G01 X-0.9193 Y1.0448 
G00 Z0.1000 
G00 X-1.1605 Y1.0161 
G01 Z-0.0070 F10.00 
G01 X-1.1605 Y1.0839 F20.00 
G01 X-1.1620 Y1.0915 
G01 X-1.1650 Y1.0987 
G01 X-1.1693 Y1.1052 
G01 X-1.1748 Y1.1107 
G01 X-1.1813 Y1.1150 
G01 X-1.1885 Y1.1180 
G01 X-1.1961 Y1.1195 
G01 X-1.2039 Y1.1195 
G01 X-1.2115 Y1.1180 
G01 X-1.2187 Y1.1150 
G01 X-1.2252 Y1.1107 
G01 X-1.2307 Y1.1052 
G01 X-1.2350 Y1.0987 
G01 X-1.2380 Y1.0915 
G01 X-1.2395 Y1.0839 
G01 X-1.2395 Y1.0161 
G01 X-1.2380 Y1.0085 
G01 X-1.2350 Y1.0013 
G01 X-1.2307 Y0.9948 
G01 X-1.2252 Y0.9893 
G01 X-1.2187 Y0.9850 
G01 X-1.2115 Y0.9820 
G01 X-1.2039 Y0.9805 
G01 X-1.1961 Y0.9805 
G01 X-1.1885 Y0.9820 
G01 X-1.1813 Y0.9850 
G01 X-1.1748 Y0.9893 
G01 X-1.1693 Y0.9948 
G01 X-1.1650 Y1.0013 
G01 X-1.1620 Y1.0085 
G01 X-1.1605 Y1.0161 
G00 Z0.1000 
G00 X-1.2605 Y1.0161 
G01 Z-0.0070 F10.00 
G01 X-1.2605 Y1.0839 F20.00 
G01 X-1.2620 Y1.0915 
G01 X-1.2650 Y1.0987 
G01 X-1.2693 Y1.1052 
G01 X-1.2748 Y1.1107 
G01 X-1.2813 Y1.1150 
G01 X-1.2885 Y1.1180 
G01 X-1.2961 Y1.1195 
G01 X-1.3039 Y1.1195 
G01 X-1.3115 Y1.1180 
G01 X-1.3187 Y1.1150 
G01 X-1.3252 Y1.1107 
G01 X-1.3307 Y1.1052 
G01 X-1.3350 Y1.0987 
G01 X-1.3380 Y1.0915 
G01 X-1.3395 Y1.0839 
G01 X-1.3395 Y1.0161 
G01 X-1.3380 Y1.0085 
G01 X-1.3350 Y1.0013 
G01 X-1.3307 Y0.9948 
G01 X-1.3252 Y0.9893 
G01 X-1.3187 Y0.9850 
G01 X-1.3115 Y0.9820 
G01 X-1.3039 Y0.9805 
G01 X-1.2961 Y0.9805 
G01 X-1.2885 Y0.9820 
G01 X-1.2813 Y0.9850 
G01 X-1.2748 Y0.9893 
G01 X-1.2693 Y0.9948 
G01 X-1.2650 Y1.0013 
G01 X-1.2620 Y1.0085 
G01 X-1.2605 Y1.0161 
G00 Z0.1000 
G00 X-1.3605 Y1.0161 
G01 Z-0.0070 F10.00 
G01 X-1.3605 Y1.0839 F20.00 
G01 X-1.3620 Y1.0915 
G01 X-1.3650 Y1.0987 
G01 X-1.3693 Y1.1052 
G01 X-1.3748 Y1.1107 
G01 X-1.3813 Y1.1150 
G01 X-1.3885 Y1.1180 
G01 X-1.3961 Y1.1195 
G01 X-1.4039 Y1.1195 
G01 X-1.4115 Y1.1180 
G01 X-1.4187 Y1.1150 
G01 X-1.4252 Y1.1107 
G01 X-1.4307 Y1.1052 
G01 X-1.4350 Y1.0987 
G01 X-1.4380 Y1.0915 
G01 X-1.4395 Y1.0839 
G01 X-1.4395 Y1.0161 
G01 X-1.4380 Y1.0085 
G01 X-1.4350 Y1.0013 
G01 X-1.4307 Y0.9948 
G01 X-1.4252 Y0.9893 
G01 X-1.4187 Y0.9850 
G01 X-1.4115 Y0.9820 
G01 X-1.4039 Y0.9805 
G01 X-1.3961 Y0.9805 
G01 X-1.3885 Y0.9820 
G01 X-1.3813 Y0.9850 
G01 X-1.3748 Y0.9893 
G01 X-1.3693 Y0.9948 
G01 X-1.3650 Y1.0013 
G01 X-1.3620 Y1.0085 
G01 X-1.3605 Y1.0161 
G00 Z0.1000 
G00 X-1.3830 Y0.8910 
G01 Z-0.0070 F10.00 
G01 X-1.4170 Y0.8910 F20.00 
G01 X-1.4410 Y0.8670 
G01 X-1.4410 Y0.8330 
G01 X-1.4170 Y0.8090 
G01 X-1.3830 Y0.8090 
G01 X-1.3590 Y0.8330 
G01 X-1.3590 Y0.8670 
G01 X-1.3830 Y0.8910 
G00 Z0.1000 
G00 X-1.3410 Y0.8670 
G01 Z-0.0070 F10.00 
G01 X-1.3410 Y0.8330 F20.00 
G01 X-1.3170 Y0.8090 
G01 X-1.2830 Y0.8090 
G01 X-1.2590 Y0.8330 
G01 X-1.2590 Y0.8670 
G01 X-1.2830 Y0.8910 
G01 X-1.3170 Y0.8910 
G01 X-1.3410 Y0.8670 
G00 Z0.1000 
G00 X-1.6090 Y0.8670 
G01 Z-0.0070 F10.00 
G01 X-1.6330 Y0.8910 F20.00 
G01 X-1.6670 Y0.8910 
G01 X-1.6910 Y0.8670 
G01 X-1.6910 Y0.8330 
G01 X-1.6670 Y0.8090 
G01 X-1.6330 Y0.8090 
G01 X-1.6090 Y0.8330 
G01 X-1.6090 Y0.8670 
G00 Z0.1000 
G00 X-1.7090 Y0.8670 
G01 Z-0.0070 F10.00 
G01 X-1.7330 Y0.8910 F20.00 
G01 X-1.7670 Y0.8910 
G01 X-1.7910 Y0.8670 
G01 X-1.7910 Y0.8330 
G01 X-1.7670 Y0.8090 
G01 X-1.7330 Y0.8090 
G01 X-1.7090 Y0.8330 
G01 X-1.7090 Y0.8670 
G00 Z0.1000 
G00 X-1.7115 Y0.9820 
G01 Z-0.0070 F10.00 
G01 X-1.7039 Y0.9805 F20.00 
G01 X-1.6961 Y0.9805 
G01 X-1.6885 Y0.9820 
G01 X-1.6813 Y0.9850 
G01 X-1.6748 Y0.9893 
G01 X-1.6693 Y0.9948 
G01 X-1.6650 Y1.0013 
G01 X-1.6620 Y1.0085 
G01 X-1.6605 Y1.0161 
G01 X-1.6605 Y1.0839 
G01 X-1.6620 Y1.0915 
G01 X-1.6650 Y1.0987 
G01 X-1.6693 Y1.1052 
G01 X-1.6748 Y1.1107 
G01 X-1.6813 Y1.1150 
G01 X-1.6885 Y1.1180 
G01 X-1.6961 Y1.1195 
G01 X-1.7039 Y1.1195 
G01 X-1.7115 Y1.1180 
G01 X-1.7187 Y1.1150 
G01 X-1.7252 Y1.1107 
G01 X-1.7307 Y1.1052 
G01 X-1.7350 Y1.0987 
G01 X-1.7380 Y1.0915 
G01 X-1.7395 Y1.0839 
G01 X-1.7395 Y1.0161 
G01 X-1.7380 Y1.0085 
G01 X-1.7350 Y1.0013 
G01 X-1.7307 Y0.9948 
G01 X-1.7252 Y0.9893 
G01 X-1.7187 Y0.9850 
G01 X-1.7115 Y0.9820 
G00 Z0.1000 
G00 X-1.7693 Y0.9948 
G01 Z-0.0070 F10.00 
G01 X-1.7650 Y1.0013 F20.00 
G01 X-1.7620 Y1.0085 
G01 X-1.7605 Y1.0161 
G01 X-1.7605 Y1.0839 
G01 X-1.7620 Y1.0915 
G01 X-1.7650 Y1.0987 
G01 X-1.7693 Y1.1052 
G01 X-1.7748 Y1.1107 
G01 X-1.7813 Y1.1150 
G01 X-1.7885 Y1.1180 
G01 X-1.7961 Y1.1195 
G01 X-1.8039 Y1.1195 
G01 X-1.8115 Y1.1180 
G01 X-1.8187 Y1.1150 
G01 X-1.8252 Y1.1107 
G01 X-1.8307 Y1.1052 
G01 X-1.8350 Y1.0987 
G01 X-1.8380 Y1.0915 
G01 X-1.8395 Y1.0839 
G01 X-1.8395 Y1.0161 
G01 X-1.8380 Y1.0085 
G01 X-1.8350 Y1.0013 
G01 X-1.8307 Y0.9948 
G01 X-1.8252 Y0.9893 
G01 X-1.8187 Y0.9850 
G01 X-1.8115 Y0.9820 
G01 X-1.8039 Y0.9805 
G01 X-1.7961 Y0.9805 
G01 X-1.7885 Y0.9820 
G01 X-1.7813 Y0.9850 
G01 X-1.7748 Y0.9893 
G01 X-1.7693 Y0.9948 
G00 Z0.1000 
G00 X-1.7693 Y1.1948 
G01 Z-0.0070 F10.00 
G01 X-1.7650 Y1.2013 F20.00 
G01 X-1.7620 Y1.2085 
G01 X-1.7605 Y1.2161 
G01 X-1.7605 Y1.2839 
G01 X-1.7620 Y1.2915 
G01 X-1.7650 Y1.2987 
G01 X-1.7693 Y1.3052 
G01 X-1.7748 Y1.3107 
G01 X-1.7813 Y1.3150 
G01 X-1.7885 Y1.3180 
G01 X-1.7961 Y1.3195 
G01 X-1.8039 Y1.3195 
G01 X-1.8115 Y1.3180 
G01 X-1.8187 Y1.3150 
G01 X-1.8252 Y1.3107 
G01 X-1.8307 Y1.3052 
G01 X-1.8350 Y1.2987 
G01 X-1.8380 Y1.2915 
G01 X-1.8395 Y1.2839 
G01 X-1.8395 Y1.2161 
G01 X-1.8380 Y1.2085 
G01 X-1.8350 Y1.2013 
G01 X-1.8307 Y1.1948 
G01 X-1.8252 Y1.1893 
G01 X-1.8187 Y1.1850 
G01 X-1.8115 Y1.1820 
G01 X-1.8039 Y1.1805 
G01 X-1.7961 Y1.1805 
G01 X-1.7885 Y1.1820 
G01 X-1.7813 Y1.1850 
G01 X-1.7748 Y1.1893 
G01 X-1.7693 Y1.1948 
G00 Z0.1000 
G00 X-1.7307 Y1.1948 
G01 Z-0.0070 F10.00 
G01 X-1.7252 Y1.1893 F20.00 
G01 X-1.7187 Y1.1850 
G01 X-1.7115 Y1.1820 
G01 X-1.7039 Y1.1805 
G01 X-1.6961 Y1.1805 
G01 X-1.6885 Y1.1820 
G01 X-1.6813 Y1.1850 
G01 X-1.6748 Y1.1893 
G01 X-1.6693 Y1.1948 
G01 X-1.6650 Y1.2013 
G01 X-1.6620 Y1.2085 
G01 X-1.6605 Y1.2161 
G01 X-1.6605 Y1.2839 
G01 X-1.6620 Y1.2915 
G01 X-1.6650 Y1.2987 
G01 X-1.6693 Y1.3052 
G01 X-1.6748 Y1.3107 
G01 X-1.6813 Y1.3150 
G01 X-1.6885 Y1.3180 
G01 X-1.6961 Y1.3195 
G01 X-1.7039 Y1.3195 
G01 X-1.7115 Y1.3180 
G01 X-1.7187 Y1.3150 
G01 X-1.7252 Y1.3107 
G01 X-1.7307 Y1.3052 
G01 X-1.7350 Y1.2987 
G01 X-1.7380 Y1.2915 
G01 X-1.7395 Y1.2839 
G01 X-1.7395 Y1.2161 
G01 X-1.7380 Y1.2085 
G01 X-1.7350 Y1.2013 
G01 X-1.7307 Y1.1948 
G00 Z0.1000 
G00 X-1.7252 Y1.3893 
G01 Z-0.0070 F10.00 
G01 X-1.7187 Y1.3850 F20.00 
G01 X-1.7115 Y1.3820 
G01 X-1.7039 Y1.3805 
G01 X-1.6961 Y1.3805 
G01 X-1.6885 Y1.3820 
G01 X-1.6813 Y1.3850 
G01 X-1.6748 Y1.3893 
G01 X-1.6693 Y1.3948 
G01 X-1.6650 Y1.4013 
G01 X-1.6620 Y1.4085 
G01 X-1.6605 Y1.4161 
G01 X-1.6605 Y1.4839 
G01 X-1.6620 Y1.4915 
G01 X-1.6650 Y1.4987 
G01 X-1.6693 Y1.5052 
G01 X-1.6748 Y1.5107 
G01 X-1.6813 Y1.5150 
G01 X-1.6885 Y1.5180 
G01 X-1.6961 Y1.5195 
G01 X-1.7039 Y1.5195 
G01 X-1.7115 Y1.5180 
G01 X-1.7187 Y1.5150 
G01 X-1.7252 Y1.5107 
G01 X-1.7307 Y1.5052 
G01 X-1.7350 Y1.4987 
G01 X-1.7380 Y1.4915 
G01 X-1.7395 Y1.4839 
G01 X-1.7395 Y1.4161 
G01 X-1.7380 Y1.4085 
G01 X-1.7350 Y1.4013 
G01 X-1.7307 Y1.3948 
G01 X-1.7252 Y1.3893 
G00 Z0.1000 
G00 X-1.7693 Y1.3948 
G01 Z-0.0070 F10.00 
G01 X-1.7650 Y1.4013 F20.00 
G01 X-1.7620 Y1.4085 
G01 X-1.7605 Y1.4161 
G01 X-1.7605 Y1.4839 
G01 X-1.7620 Y1.4915 
G01 X-1.7650 Y1.4987 
G01 X-1.7693 Y1.5052 
G01 X-1.7748 Y1.5107 
G01 X-1.7813 Y1.5150 
G01 X-1.7885 Y1.5180 
G01 X-1.7961 Y1.5195 
G01 X-1.8039 Y1.5195 
G01 X-1.8115 Y1.5180 
G01 X-1.8187 Y1.5150 
G01 X-1.8252 Y1.5107 
G01 X-1.8307 Y1.5052 
G01 X-1.8350 Y1.4987 
G01 X-1.8380 Y1.4915 
G01 X-1.8395 Y1.4839 
G01 X-1.8395 Y1.4161 
G01 X-1.8380 Y1.4085 
G01 X-1.8350 Y1.4013 
G01 X-1.8307 Y1.3948 
G01 X-1.8252 Y1.3893 
G01 X-1.8187 Y1.3850 
G01 X-1.8115 Y1.3820 
G01 X-1.8039 Y1.3805 
G01 X-1.7961 Y1.3805 
G01 X-1.7885 Y1.3820 
G01 X-1.7813 Y1.3850 
G01 X-1.7748 Y1.3893 
G01 X-1.7693 Y1.3948 
G00 Z0.1000 
G00 X-0.9895 Y1.3661 
G01 Z-0.0070 F10.00 
G01 X-0.9880 Y1.3585 F20.00 
G01 X-0.9850 Y1.3513 
G01 X-0.9807 Y1.3448 
G01 X-0.9752 Y1.3393 
G01 X-0.9687 Y1.3350 
G01 X-0.9615 Y1.3320 
G01 X-0.9539 Y1.3305 
G01 X-0.9461 Y1.3305 
G01 X-0.9385 Y1.3320 
G01 X-0.9313 Y1.3350 
G01 X-0.9248 Y1.3393 
G01 X-0.9193 Y1.3448 
G01 X-0.9150 Y1.3513 
G01 X-0.9120 Y1.3585 
G01 X-0.9105 Y1.3661 
G01 X-0.9105 Y1.4339 
G01 X-0.9120 Y1.4415 
G01 X-0.9150 Y1.4487 
G01 X-0.9193 Y1.4552 
G01 X-0.9248 Y1.4607 
G01 X-0.9313 Y1.4650 
G01 X-0.9385 Y1.4680 
G01 X-0.9461 Y1.4695 
G01 X-0.9539 Y1.4695 
G01 X-0.9615 Y1.4680 
G01 X-0.9687 Y1.4650 
G01 X-0.9752 Y1.4607 
G01 X-0.9807 Y1.4552 
G01 X-0.9850 Y1.4487 
G01 X-0.9880 Y1.4415 
G01 X-0.9895 Y1.4339 
G01 X-0.9895 Y1.3661 
G00 Z0.1000 
G00 X-0.8895 Y1.3661 
G01 Z-0.0070 F10.00 
G01 X-0.8880 Y1.3585 F20.00 
G01 X-0.8850 Y1.3513 
G01 X-0.8807 Y1.3448 
G01 X-0.8752 Y1.3393 
G01 X-0.8687 Y1.3350 
G01 X-0.8615 Y1.3320 
G01 X-0.8539 Y1.3305 
G01 X-0.8461 Y1.3305 
G01 X-0.8385 Y1.3320 
G01 X-0.8313 Y1.3350 
G01 X-0.8248 Y1.3393 
G01 X-0.8193 Y1.3448 
G01 X-0.8150 Y1.3513 
G01 X-0.8120 Y1.3585 
G01 X-0.8105 Y1.3661 
G01 X-0.8105 Y1.4339 
G01 X-0.8120 Y1.4415 
G01 X-0.8150 Y1.4487 
G01 X-0.8193 Y1.4552 
G01 X-0.8248 Y1.4607 
G01 X-0.8313 Y1.4650 
G01 X-0.8385 Y1.4680 
G01 X-0.8461 Y1.4695 
G01 X-0.8539 Y1.4695 
G01 X-0.8615 Y1.4680 
G01 X-0.8687 Y1.4650 
G01 X-0.8752 Y1.4607 
G01 X-0.8807 Y1.4552 
G01 X-0.8850 Y1.4487 
G01 X-0.8880 Y1.4415 
G01 X-0.8895 Y1.4339 
G01 X-0.8895 Y1.3661 
(Between Passes)
(Bottom between passes)
G00 Z0.1000 
G00 X-0.8161 Y1.0410 
G01 Z-0.0070 F10.00 
G01 X-0.8119 Y1.0467 F20.00 
G01 X-0.8088 Y1.0529 
G01 X-0.8066 Y1.0596 
G01 X-0.8055 Y1.0665 
G01 X-0.8055 Y1.1335 
G01 X-0.8066 Y1.1404 
G01 X-0.8088 Y1.1471 
G01 X-0.8119 Y1.1533 
G01 X-0.8161 Y1.1590 
G01 X-0.8210 Y1.1639 
G01 X-0.8267 Y1.1681 
G01 X-0.8329 Y1.1712 
G01 X-0.8396 Y1.1734 
G01 X-0.8465 Y1.1745 
G01 X-0.8535 Y1.1745 
G01 X-0.8604 Y1.1734 
G01 X-0.8671 Y1.1712 
G01 X-0.8733 Y1.1681 
G01 X-0.8790 Y1.1639 
G01 X-0.8839 Y1.1590 
G01 X-0.8881 Y1.1533 
G01 X-0.8912 Y1.1471 
G01 X-0.8934 Y1.1404 
G01 X-0.8945 Y1.1335 
G01 X-0.8945 Y1.0665 
G01 X-0.8934 Y1.0596 
G01 X-0.8912 Y1.0529 
G01 X-0.8881 Y1.0467 
G01 X-0.8839 Y1.0410 
G01 X-0.8790 Y1.0361 
G01 X-0.8733 Y1.0319 
G01 X-0.8671 Y1.0288 
G01 X-0.8604 Y1.0266 
G01 X-0.8535 Y1.0255 
G01 X-0.8465 Y1.0255 
G01 X-0.8396 Y1.0266 
G01 X-0.8329 Y1.0288 
G01 X-0.8267 Y1.0319 
G01 X-0.8210 Y1.0361 
G01 X-0.8161 Y1.0410 
G00 Z0.1000 
G00 X-0.9161 Y1.0410 
G01 Z-0.0070 F10.00 
G01 X-0.9119 Y1.0467 F20.00 
G01 X-0.9088 Y1.0529 
G01 X-0.9066 Y1.0596 
G01 X-0.9055 Y1.0665 
G01 X-0.9055 Y1.1335 
G01 X-0.9066 Y1.1404 
G01 X-0.9088 Y1.1471 
G01 X-0.9119 Y1.1533 
G01 X-0.9161 Y1.1590 
G01 X-0.9210 Y1.1639 
G01 X-0.9267 Y1.1681 
G01 X-0.9329 Y1.1712 
G01 X-0.9396 Y1.1734 
G01 X-0.9465 Y1.1745 
G01 X-0.9535 Y1.1745 
G01 X-0.9604 Y1.1734 
G01 X-0.9671 Y1.1712 
G01 X-0.9733 Y1.1681 
G01 X-0.9790 Y1.1639 
G01 X-0.9839 Y1.1590 
G01 X-0.9881 Y1.1533 
G01 X-0.9912 Y1.1471 
G01 X-0.9934 Y1.1404 
G01 X-0.9945 Y1.1335 
G01 X-0.9945 Y1.0665 
G01 X-0.9934 Y1.0596 
G01 X-0.9912 Y1.0529 
G01 X-0.9881 Y1.0467 
G01 X-0.9839 Y1.0410 
G01 X-0.9790 Y1.0361 
G01 X-0.9733 Y1.0319 
G01 X-0.9671 Y1.0288 
G01 X-0.9604 Y1.0266 
G01 X-0.9535 Y1.0255 
G01 X-0.9465 Y1.0255 
G01 X-0.9396 Y1.0266 
G01 X-0.9329 Y1.0288 
G01 X-0.9267 Y1.0319 
G01 X-0.9210 Y1.0361 
G01 X-0.9161 Y1.0410 
G00 Z0.1000 
G00 X-1.1555 Y1.0165 
G01 Z-0.0070 F10.00 
G01 X-1.1555 Y1.0835 F20.00 
G01 X-1.1566 Y1.0904 
G01 X-1.1588 Y1.0971 
G01 X-1.1619 Y1.1033 
G01 X-1.1661 Y1.1090 
G01 X-1.1710 Y1.1139 
G01 X-1.1767 Y1.1181 
G01 X-1.1829 Y1.1212 
G01 X-1.1896 Y1.1234 
G01 X-1.1965 Y1.1245 
G01 X-1.2035 Y1.1245 
G01 X-1.2104 Y1.1234 
G01 X-1.2171 Y1.1212 
G01 X-1.2233 Y1.1181 
G01 X-1.2290 Y1.1139 
G01 X-1.2339 Y1.1090 
G01 X-1.2381 Y1.1033 
G01 X-1.2412 Y1.0971 
G01 X-1.2434 Y1.0904 
G01 X-1.2445 Y1.0835 
G01 X-1.2445 Y1.0165 
G01 X-1.2434 Y1.0096 
G01 X-1.2412 Y1.0029 
G01 X-1.2381 Y0.9967 
G01 X-1.2339 Y0.9910 
G01 X-1.2290 Y0.9861 
G01 X-1.2233 Y0.9819 
G01 X-1.2171 Y0.9788 
G01 X-1.2104 Y0.9766 
G01 X-1.2035 Y0.9755 
G01 X-1.1965 Y0.9755 
G01 X-1.1896 Y0.9766 
G01 X-1.1829 Y0.9788 
G01 X-1.1767 Y0.9819 
G01 X-1.1710 Y0.9861 
G01 X-1.1661 Y0.9910 
G01 X-1.1619 Y0.9967 
G01 X-1.1588 Y1.0029 
G01 X-1.1566 Y1.0096 
G01 X-1.1555 Y1.0165 
G00 Z0.1000 
G00 X-1.2555 Y1.0165 
G01 Z-0.0070 F10.00 
G01 X-1.2555 Y1.0835 F20.00 
G01 X-1.2566 Y1.0904 
G01 X-1.2588 Y1.0971 
G01 X-1.2619 Y1.1033 
G01 X-1.2661 Y1.1090 
G01 X-1.2710 Y1.1139 
G01 X-1.2767 Y1.1181 
G01 X-1.2829 Y1.1212 
G01 X-1.2896 Y1.1234 
G01 X-1.2965 Y1.1245 
G01 X-1.3035 Y1.1245 
G01 X-1.3104 Y1.1234 
G01 X-1.3171 Y1.1212 
G01 X-1.3233 Y1.1181 
G01 X-1.3290 Y1.1139 
G01 X-1.3339 Y1.1090 
G01 X-1.3381 Y1.1033 
G01 X-1.3412 Y1.0971 
G01 X-1.3434 Y1.0904 
G01 X-1.3445 Y1.0835 
G01 X-1.3445 Y1.0165 
G01 X-1.3434 Y1.0096 
G01 X-1.3412 Y1.0029 
G01 X-1.3381 Y0.9967 
G01 X-1.3339 Y0.9910 
G01 X-1.3290 Y0.9861 
G01 X-1.3233 Y0.9819 
G01 X-1.3171 Y0.9788 
G01 X-1.3104 Y0.9766 
G01 X-1.3035 Y0.9755 
G01 X-1.2965 Y0.9755 
G01 X-1.2896 Y0.9766 
G01 X-1.2829 Y0.9788 
G01 X-1.2767 Y0.9819 
G01 X-1.2710 Y0.9861 
G01 X-1.2661 Y0.9910 
G01 X-1.2619 Y0.9967 
G01 X-1.2588 Y1.0029 
G01 X-1.2566 Y1.0096 
G01 X-1.2555 Y1.0165 
G00 Z0.1000 
G00 X-1.3555 Y1.0165 
G01 Z-0.0070 F10.00 
G01 X-1.3555 Y1.0835 F20.00 
G01 X-1.3566 Y1.0904 
G01 X-1.3588 Y1.0971 
G01 X-1.3619 Y1.1033 
G01 X-1.3661 Y1.1090 
G01 X-1.3710 Y1.1139 
G01 X-1.3767 Y1.1181 
G01 X-1.3829 Y1.1212 
G01 X-1.3896 Y1.1234 
G01 X-1.3965 Y1.1245 
G01 X-1.4035 Y1.1245 
G01 X-1.4104 Y1.1234 
G01 X-1.4171 Y1.1212 
G01 X-1.4233 Y1.1181 
G01 X-1.4290 Y1.1139 
G01 X-1.4339 Y1.1090 
G01 X-1.4381 Y1.1033 
G01 X-1.4412 Y1.0971 
G01 X-1.4434 Y1.0904 
G01 X-1.4445 Y1.0835 
G01 X-1.4445 Y1.0165 
G01 X-1.4434 Y1.0096 
G01 X-1.4412 Y1.0029 
G01 X-1.4381 Y0.9967 
G01 X-1.4339 Y0.9910 
G01 X-1.4290 Y0.9861 
G01 X-1.4233 Y0.9819 
G01 X-1.4171 Y0.9788 
G01 X-1.4104 Y0.9766 
G01 X-1.4035 Y0.9755 
G01 X-1.3965 Y0.9755 
G01 X-1.3896 Y0.9766 
G01 X-1.3829 Y0.9788 
G01 X-1.3767 Y0.9819 
G01 X-1.3710 Y0.9861 
G01 X-1.3661 Y0.9910 
G01 X-1.3619 Y0.9967 
G01 X-1.3588 Y1.0029 
G01 X-1.3566 Y1.0096 
G01 X-1.3555 Y1.0165 
G00 Z0.1000 
G00 X-1.3809 Y0.8960 
G01 Z-0.0070 F10.00 
G01 X-1.4191 Y0.8960 F20.00 
G01 X-1.4460 Y0.8691 
G01 X-1.4460 Y0.8309 
G01 X-1.4191 Y0.8040 
G01 X-1.3809 Y0.8040 
G01 X-1.3540 Y0.8309 
G01 X-1.3540 Y0.8691 
G01 X-1.3809 Y0.8960 
G00 Z0.1000 
G00 X-1.3460 Y0.8691 
G01 Z-0.0070 F10.00 
G01 X-1.3460 Y0.8309 F20.00 
G01 X-1.3191 Y0.8040 
G01 X-1.2809 Y0.8040 
G01 X-1.2540 Y0.8309 
G01 X-1.2540 Y0.8691 
G01 X-1.2809 Y0.8960 
G01 X-1.3191 Y0.8960 
G01 X-1.3460 Y0.8691 
G00 Z0.1000 
G00 X-1.6040 Y0.8691 
G01 Z-0.0070 F10.00 
G01 X-1.6309 Y0.8960 F20.00 
G01 X-1.6691 Y0.8960 
G01 X-1.6960 Y0.8691 
G01 X-1.6960 Y0.8309 
G01 X-1.6691 Y0.8040 
G01 X-1.6309 Y0.8040 
G01 X-1.6040 Y0.8309 
G01 X-1.6040 Y0.8691 
G00 Z0.1000 
G00 X-1.7040 Y0.8691 
G01 Z-0.0070 F10.00 
G01 X-1.7309 Y0.8960 F20.00 
G01 X-1.7691 Y0.8960 
G01 X-1.7960 Y0.8691 
G01 X-1.7960 Y0.8309 
G01 X-1.7691 Y0.8040 
G01 X-1.7309 Y0.8040 
G01 X-1.7040 Y0.8309 
G01 X-1.7040 Y0.8691 
G00 Z0.1000 
G00 X-1.7035 Y0.9755 
G01 Z-0.0070 F10.00 
G01 X-1.6965 Y0.9755 F20.00 
G01 X-1.6896 Y0.9766 
G01 X-1.6829 Y0.9788 
G01 X-1.6767 Y0.9819 
G01 X-1.6710 Y0.9861 
G01 X-1.6661 Y0.9910 
G01 X-1.6619 Y0.9967 
G01 X-1.6588 Y1.0029 
G01 X-1.6566 Y1.0096 
G01 X-1.6555 Y1.0165 
G01 X-1.6555 Y1.0835 
G01 X-1.6566 Y1.0904 
G01 X-1.6588 Y1.0971 
G01 X-1.6619 Y1.1033 
G01 X-1.6661 Y1.1090 
G01 X-1.6710 Y1.1139 
G01 X-1.6767 Y1.1181 
G01 X-1.6829 Y1.1212 
G01 X-1.6896 Y1.1234 
G01 X-1.6965 Y1.1245 
G01 X-1.7035 Y1.1245 
G01 X-1.7104 Y1.1234 
G01 X-1.7171 Y1.1212 
G01 X-1.7233 Y1.1181 
G01 X-1.7290 Y1.1139 
G01 X-1.7339 Y1.1090 
G01 X-1.7381 Y1.1033 
G01 X-1.7412 Y1.0971 
G01 X-1.7434 Y1.0904 
G01 X-1.7445 Y1.0835 
G01 X-1.7445 Y1.0165 
G01 X-1.7434 Y1.0096 
G01 X-1.7412 Y1.0029 
G01 X-1.7381 Y0.9967 
G01 X-1.7339 Y0.9910 
G01 X-1.7290 Y0.9861 
G01 X-1.7233 Y0.9819 
G01 X-1.7171 Y0.9788 
G01 X-1.7104 Y0.9766 
G01 X-1.7035 Y0.9755 
G00 Z0.1000 
G00 X-1.7661 Y0.9910 
G01 Z-0.0070 F10.00 
G01 X-1.7619 Y0.9967 F20.00 
G01 X-1.7588 Y1.0029 
G01 X-1.7566 Y1.0096 
G01 X-1.7555 Y1.0165 
G01 X-1.7555 Y1.0835 
G01 X-1.7566 Y1.0904 
G01 X-1.7588 Y1.0971 
G01 X-1.7619 Y1.1033 
G01 X-1.7661 Y1.1090 
G01 X-1.7710 Y1.1139 
G01 X-1.7767 Y1.1181 
G01 X-1.7829 Y1.1212 
G01 X-1.7896 Y1.1234 
G01 X-1.7965 Y1.1245 
G01 X-1.8035 Y1.1245 
G01 X-1.8104 Y1.1234 
G01 X-1.8171 Y1.1212 
G01 X-1.8233 Y1.1181 
G01 X-1.8290 Y1.1139 
G01 X-1.8339 Y1.1090 
G01 X-1.8381 Y1.1033 
G01 X-1.8412 Y1.0971 
G01 X-1.8434 Y1.0904 
G01 X-1.8445 Y1.0835 
G01 X-1.8445 Y1.0165 
G01 X-1.8434 Y1.0096 
G01 X-1.8412 Y1.0029 
G01 X-1.8381 Y0.9967 
G01 X-1.8339 Y0.9910 
G01 X-1.8290 Y0.9861 
G01 X-1.8233 Y0.9819 
G01 X-1.8171 Y0.9788 
G01 X-1.8104 Y0.9766 
G01 X-1.8035 Y0.9755 
G01 X-1.7965 Y0.9755 
G01 X-1.7896 Y0.9766 
G01 X-1.7829 Y0.9788 
G01 X-1.7767 Y0.9819 
G01 X-1.7710 Y0.9861 
G01 X-1.7661 Y0.9910 
G00 Z0.1000 
G00 X-1.7661 Y1.1910 
G01 Z-0.0070 F10.00 
G01 X-1.7619 Y1.1967 F20.00 
G01 X-1.7588 Y1.2029 
G01 X-1.7566 Y1.2096 
G01 X-1.7555 Y1.2165 
G01 X-1.7555 Y1.2835 
G01 X-1.7566 Y1.2904 
G01 X-1.7588 Y1.2971 
G01 X-1.7619 Y1.3033 
G01 X-1.7661 Y1.3090 
G01 X-1.7710 Y1.3139 
G01 X-1.7767 Y1.3181 
G01 X-1.7829 Y1.3212 
G01 X-1.7896 Y1.3234 
G01 X-1.7965 Y1.3245 
G01 X-1.8035 Y1.3245 
G01 X-1.8104 Y1.3234 
G01 X-1.8171 Y1.3212 
G01 X-1.8233 Y1.3181 
G01 X-1.8290 Y1.3139 
G01 X-1.8339 Y1.3090 
G01 X-1.8381 Y1.3033 
G01 X-1.8412 Y1.2971 
G01 X-1.8434 Y1.2904 
G01 X-1.8445 Y1.2835 
G01 X-1.8445 Y1.2165 
G01 X-1.8434 Y1.2096 
G01 X-1.8412 Y1.2029 
G01 X-1.8381 Y1.1967 
G01 X-1.8339 Y1.1910 
G01 X-1.8290 Y1.1861 
G01 X-1.8233 Y1.1819 
G01 X-1.8171 Y1.1788 
G01 X-1.8104 Y1.1766 
G01 X-1.8035 Y1.1755 
G01 X-1.7965 Y1.1755 
G01 X-1.7896 Y1.1766 
G01 X-1.7829 Y1.1788 
G01 X-1.7767 Y1.1819 
G01 X-1.7710 Y1.1861 
G01 X-1.7661 Y1.1910 
G00 Z0.1000 
G00 X-1.7339 Y1.1910 
G01 Z-0.0070 F10.00 
G01 X-1.7290 Y1.1861 F20.00 
G01 X-1.7233 Y1.1819 
G01 X-1.7171 Y1.1788 
G01 X-1.7104 Y1.1766 
G01 X-1.7035 Y1.1755 
G01 X-1.6965 Y1.1755 
G01 X-1.6896 Y1.1766 
G01 X-1.6829 Y1.1788 
G01 X-1.6767 Y1.1819 
G01 X-1.6710 Y1.1861 
G01 X-1.6661 Y1.1910 
G01 X-1.6619 Y1.1967 
G01 X-1.6588 Y1.2029 
G01 X-1.6566 Y1.2096 
G01 X-1.6555 Y1.2165 
G01 X-1.6555 Y1.2835 
G01 X-1.6566 Y1.2904 
G01 X-1.6588 Y1.2971 
G01 X-1.6619 Y1.3033 
G01 X-1.6661 Y1.3090 
G01 X-1.6710 Y1.3139 
G01 X-1.6767 Y1.3181 
G01 X-1.6829 Y1.3212 
G01 X-1.6896 Y1.3234 
G01 X-1.6965 Y1.3245 
G01 X-1.7035 Y1.3245 
G01 X-1.7104 Y1.3234 
G01 X-1.7171 Y1.3212 
G01 X-1.7233 Y1.3181 
G01 X-1.7290 Y1.3139 
G01 X-1.7339 Y1.3090 
G01 X-1.7381 Y1.3033 
G01 X-1.7412 Y1.2971 
G01 X-1.7434 Y1.2904 
G01 X-1.7445 Y1.2835 
G01 X-1.7445 Y1.2165 
G01 X-1.7434 Y1.2096 
G01 X-1.7412 Y1.2029 
G01 X-1.7381 Y1.1967 
G01 X-1.7339 Y1.1910 
G00 Z0.1000 
G00 X-1.7290 Y1.3861 
G01 Z-0.0070 F10.00 
G01 X-1.7233 Y1.3819 F20.00 
G01 X-1.7171 Y1.3788 
G01 X-1.7104 Y1.3766 
G01 X-1.7035 Y1.3755 
G01 X-1.6965 Y1.3755 
G01 X-1.6896 Y1.3766 
G01 X-1.6829 Y1.3788 
G01 X-1.6767 Y1.3819 
G01 X-1.6710 Y1.3861 
G01 X-1.6661 Y1.3910 
G01 X-1.6619 Y1.3967 
G01 X-1.6588 Y1.4029 
G01 X-1.6566 Y1.4096 
G01 X-1.6555 Y1.4165 
G01 X-1.6555 Y1.4835 
G01 X-1.6566 Y1.4904 
G01 X-1.6588 Y1.4971 
G01 X-1.6619 Y1.5033 
G01 X-1.6661 Y1.5090 
G01 X-1.6710 Y1.5139 
G01 X-1.6767 Y1.5181 
G01 X-1.6829 Y1.5212 
G01 X-1.6896 Y1.5234 
G01 X-1.6965 Y1.5245 
G01 X-1.7035 Y1.5245 
G01 X-1.7104 Y1.5234 
G01 X-1.7171 Y1.5212 
G01 X-1.7233 Y1.5181 
G01 X-1.7290 Y1.5139 
G01 X-1.7339 Y1.5090 
G01 X-1.7381 Y1.5033 
G01 X-1.7412 Y1.4971 
G01 X-1.7434 Y1.4904 
G01 X-1.7445 Y1.4835 
G01 X-1.7445 Y1.4165 
G01 X-1.7434 Y1.4096 
G01 X-1.7412 Y1.4029 
G01 X-1.7381 Y1.3967 
G01 X-1.7339 Y1.3910 
G01 X-1.7290 Y1.3861 
G00 Z0.1000 
G00 X-1.7661 Y1.3910 
G01 Z-0.0070 F10.00 
G01 X-1.7619 Y1.3967 F20.00 
G01 X-1.7588 Y1.4029 
G01 X-1.7566 Y1.4096 
G01 X-1.7555 Y1.4165 
G01 X-1.7555 Y1.4835 
G01 X-1.7566 Y1.4904 
G01 X-1.7588 Y1.4971 
G01 X-1.7619 Y1.5033 
G01 X-1.7661 Y1.5090 
G01 X-1.7710 Y1.5139 
G01 X-1.7767 Y1.5181 
G01 X-1.7829 Y1.5212 
G01 X-1.7896 Y1.5234 
G01 X-1.7965 Y1.5245 
G01 X-1.8035 Y1.5245 
G01 X-1.8104 Y1.5234 
G01 X-1.8171 Y1.5212 
G01 X-1.8233 Y1.5181 
G01 X-1.8290 Y1.5139 
G01 X-1.8339 Y1.5090 
G01 X-1.8381 Y1.5033 
G01 X-1.8412 Y1.4971 
G01 X-1.8434 Y1.4904 
G01 X-1.8445 Y1.4835 
G01 X-1.8445 Y1.4165 
G01 X-1.8434 Y1.4096 
G01 X-1.8412 Y1.4029 
G01 X-1.8381 Y1.3967 
G01 X-1.8339 Y1.3910 
G01 X-1.8290 Y1.3861 
G01 X-1.8233 Y1.3819 
G01 X-1.8171 Y1.3788 
G01 X-1.8104 Y1.3766 
G01 X-1.8035 Y1.3755 
G01 X-1.7965 Y1.3755 
G01 X-1.7896 Y1.3766 
G01 X-1.7829 Y1.3788 
G01 X-1.7767 Y1.3819 
G01 X-1.7710 Y1.3861 
G01 X-1.7661 Y1.3910 
G00 Z0.1000 
G00 X-0.9945 Y1.3665 
G01 Z-0.0070 F10.00 
G01 X-0.9934 Y1.3596 F20.00 
G01 X-0.9912 Y1.3529 
G01 X-0.9881 Y1.3467 
G01 X-0.9839 Y1.3410 
G01 X-0.9790 Y1.3361 
G01 X-0.9733 Y1.3319 
G01 X-0.9671 Y1.3288 
G01 X-0.9604 Y1.3266 
G01 X-0.9535 Y1.3255 
G01 X-0.9465 Y1.3255 
G01 X-0.9396 Y1.3266 
G01 X-0.9329 Y1.3288 
G01 X-0.9267 Y1.3319 
G01 X-0.9210 Y1.3361 
G01 X-0.9161 Y1.3410 
G01 X-0.9119 Y1.3467 
G01 X-0.9088 Y1.3529 
G01 X-0.9066 Y1.3596 
G01 X-0.9055 Y1.3665 
G01 X-0.9055 Y1.4335 
G01 X-0.9066 Y1.4404 
G01 X-0.9088 Y1.4471 
G01 X-0.9119 Y1.4533 
G01 X-0.9161 Y1.4590 
G01 X-0.9210 Y1.4639 
G01 X-0.9267 Y1.4681 
G01 X-0.9329 Y1.4712 
G01 X-0.9396 Y1.4734 
G01 X-0.9465 Y1.4745 
G01 X-0.9535 Y1.4745 
G01 X-0.9604 Y1.4734 
G01 X-0.9671 Y1.4712 
G01 X-0.9733 Y1.4681 
G01 X-0.9790 Y1.4639 
G01 X-0.9839 Y1.4590 
G01 X-0.9881 Y1.4533 
G01 X-0.9912 Y1.4471 
G01 X-0.9934 Y1.4404 
G01 X-0.9945 Y1.4335 
G01 X-0.9945 Y1.3665 
G00 Z0.1000 
G00 X-0.8945 Y1.3665 
G01 Z-0.0070 F10.00 
G01 X-0.8934 Y1.3596 F20.00 
G01 X-0.8912 Y1.3529 
G01 X-0.8881 Y1.3467 
G01 X-0.8839 Y1.3410 
G01 X-0.8790 Y1.3361 
G01 X-0.8733 Y1.3319 
G01 X-0.8671 Y1.3288 
G01 X-0.8604 Y1.3266 
G01 X-0.8535 Y1.3255 
G01 X-0.8465 Y1.3255 
G01 X-0.8396 Y1.3266 
G01 X-0.8329 Y1.3288 
G01 X-0.8267 Y1.3319 
G01 X-0.8210 Y1.3361 
G01 X-0.8161 Y1.3410 
G01 X-0.8119 Y1.3467 
G01 X-0.8088 Y1.3529 
G01 X-0.8066 Y1.3596 
G01 X-0.8055 Y1.3665 
G01 X-0.8055 Y1.4335 
G01 X-0.8066 Y1.4404 
G01 X-0.8088 Y1.4471 
G01 X-0.8119 Y1.4533 
G01 X-0.8161 Y1.4590 
G01 X-0.8210 Y1.4639 
G01 X-0.8267 Y1.4681 
G01 X-0.8329 Y1.4712 
G01 X-0.8396 Y1.4734 
G01 X-0.8465 Y1.4745 
G01 X-0.8535 Y1.4745 
G01 X-0.8604 Y1.4734 
G01 X-0.8671 Y1.4712 
G01 X-0.8733 Y1.4681 
G01 X-0.8790 Y1.4639 
G01 X-0.8839 Y1.4590 
G01 X-0.8881 Y1.4533 
G01 X-0.8912 Y1.4471 
G01 X-0.8934 Y1.4404 
G01 X-0.8945 Y1.4335 
G01 X-0.8945 Y1.3665 
(Between Passes)
(Bottom between passes)
G00 Z0.1000 
G00 X-0.8122 Y1.0378 
G01 Z-0.0070 F10.00 
G01 X-0.8077 Y1.0441 F20.00 
G01 X-0.8041 Y1.0510 
G01 X-0.8017 Y1.0584 
G01 X-0.8005 Y1.0661 
G01 X-0.8005 Y1.1339 
G01 X-0.8017 Y1.1416 
G01 X-0.8041 Y1.1490 
G01 X-0.8077 Y1.1559 
G01 X-0.8122 Y1.1622 
G01 X-0.8178 Y1.1678 
G01 X-0.8241 Y1.1723 
G01 X-0.8310 Y1.1759 
G01 X-0.8384 Y1.1783 
G01 X-0.8461 Y1.1795 
G01 X-0.8539 Y1.1795 
G01 X-0.8616 Y1.1783 
G01 X-0.8690 Y1.1759 
G01 X-0.8759 Y1.1723 
G01 X-0.8822 Y1.1678 
G01 X-0.8878 Y1.1622 
G01 X-0.8923 Y1.1559 
G01 X-0.8959 Y1.1490 
G01 X-0.8983 Y1.1416 
G01 X-0.8995 Y1.1339 
G01 X-0.8995 Y1.0661 
G01 X-0.8983 Y1.0584 
G01 X-0.8959 Y1.0510 
G01 X-0.8923 Y1.0441 
G01 X-0.8878 Y1.0378 
G01 X-0.8822 Y1.0322 
G01 X-0.8759 Y1.0277 
G01 X-0.8690 Y1.0241 
G01 X-0.8616 Y1.0217 
G01 X-0.8539 Y1.0205 
G01 X-0.8461 Y1.0205 
G01 X-0.8384 Y1.0217 
G01 X-0.8310 Y1.0241 
G01 X-0.8241 Y1.0277 
G01 X-0.8178 Y1.0322 
G01 X-0.8122 Y1.0378 
G00 Z0.1000 
G00 X-0.9122 Y1.0378 
G01 Z-0.0070 F10.00 
G01 X-0.9077 Y1.0441 F20.00 
G01 X-0.9041 Y1.0510 
G01 X-0.9017 Y1.0584 
G01 X-0.9005 Y1.0661 
G01 X-0.9005 Y1.1339 
G01 X-0.9017 Y1.1416 
G01 X-0.9041 Y1.1490 
G01 X-0.9077 Y1.1559 
G01 X-0.9122 Y1.1622 
G01 X-0.9178 Y1.1678 
G01 X-0.9241 Y1.1723 
G01 X-0.9310 Y1.1759 
G01 X-0.9384 Y1.1783 
G01 X-0.9461 Y1.1795 
G01 X-0.9539 Y1.1795 
G01 X-0.9616 Y1.1783 
G01 X-0.9690 Y1.1759 
G01 X-0.9759 Y1.1723 
G01 X-0.9822 Y1.1678 
G01 X-0.9878 Y1.1622 
G01 X-0.9923 Y1.1559 
G01 X-0.9959 Y1.1490 
G01 X-0.9983 Y1.1416 
G01 X-0.9995 Y1.1339 
G01 X-0.9995 Y1.0661 
G01 X-0.9983 Y1.0584 
G01 X-0.9959 Y1.0510 
G01 X-0.9923 Y1.0441 
G01 X-0.9878 Y1.0378 
G01 X-0.9822 Y1.0322 
G01 X-0.9759 Y1.0277 
G01 X-0.9690 Y1.0241 
G01 X-0.9616 Y1.0217 
G01 X-0.9539 Y1.0205 
G01 X-0.9461 Y1.0205 
G01 X-0.9384 Y1.0217 
G01 X-0.9310 Y1.0241 
G01 X-0.9241 Y1.0277 
G01 X-0.9178 Y1.0322 
G01 X-0.9122 Y1.0378 
G00 Z0.1000 
G00 X-1.1505 Y1.0161 
G01 Z-0.0070 F10.00 
G01 X-1.1505 Y1.0839 F20.00 
G01 X-1.1517 Y1.0916 
G01 X-1.1541 Y1.0990 
G01 X-1.1577 Y1.1059 
G01 X-1.1622 Y1.1122 
G01 X-1.1678 Y1.1178 
G01 X-1.1741 Y1.1223 
G01 X-1.1810 Y1.1259 
G01 X-1.1884 Y1.1283 
G01 X-1.1961 Y1.1295 
G01 X-1.2039 Y1.1295 
G01 X-1.2116 Y1.1283 
G01 X-1.2190 Y1.1259 
G01 X-1.2259 Y1.1223 
G01 X-1.2322 Y1.1178 
G01 X-1.2378 Y1.1122 
G01 X-1.2423 Y1.1059 
G01 X-1.2459 Y1.0990 
G01 X-1.2483 Y1.0916 
G01 X-1.2495 Y1.0839 
G01 X-1.2495 Y1.0161 
G01 X-1.2483 Y1.0084 
G01 X-1.2459 Y1.0010 
G01 X-1.2423 Y0.9941 
G01 X-1.2378 Y0.9878 
G01 X-1.2322 Y0.9822 
G01 X-1.2259 Y0.9777 
G01 X-1.2190 Y0.9741 
G01 X-1.2116 Y0.9717 
G01 X-1.2039 Y0.9705 
G01 X-1.1961 Y0.9705 
G01 X-1.1884 Y0.9717 
G01 X-1.1810 Y0.9741 
G01 X-1.1741 Y0.9777 
G01 X-1.1678 Y0.9822 
G01 X-1.1622 Y0.9878 
G01 X-1.1577 Y0.9941 
G01 X-1.1541 Y1.0010 
G01 X-1.1517 Y1.0084 
G01 X-1.1505 Y1.0161 
G00 Z0.1000 
G00 X-1.2505 Y1.0161 
G01 Z-0.0070 F10.00 
G01 X-1.2505 Y1.0839 F20.00 
G01 X-1.2517 Y1.0916 
G01 X-1.2541 Y1.0990 
G01 X-1.2577 Y1.1059 
G01 X-1.2622 Y1.1122 
G01 X-1.2678 Y1.1178 
G01 X-1.2741 Y1.1223 
G01 X-1.2810 Y1.1259 
G01 X-1.2884 Y1.1283 
G01 X-1.2961 Y1.1295 
G01 X-1.3039 Y1.1295 
G01 X-1.3116 Y1.1283 
G01 X-1.3190 Y1.1259 
G01 X-1.3259 Y1.1223 
G01 X-1.3322 Y1.1178 
G01 X-1.3378 Y1.1122 
G01 X-1.3423 Y1.1059 
G01 X-1.3459 Y1.0990 
G01 X-1.3483 Y1.0916 
G01 X-1.3495 Y1.0839 
G01 X-1.3495 Y1.0161 
G01 X-1.3483 Y1.0084 
G01 X-1.3459 Y1.0010 
G01 X-1.3423 Y0.9941 
G01 X-1.3378 Y0.9878 
G01 X-1.3322 Y0.9822 
G01 X-1.3259 Y0.9777 
G01 X-1.3190 Y0.9741 
G01 X-1.3116 Y0.9717 
G01 X-1.3039 Y0.9705 
G01 X-1.2961 Y0.9705 
G01 X-1.2884 Y0.9717 
G01 X-1.2810 Y0.9741 
G01 X-1.2741 Y0.9777 
G01 X-1.2678 Y0.9822 
G01 X-1.2622 Y0.9878 
G01 X-1.2577 Y0.9941 
G01 X-1.2541 Y1.0010 
G01 X-1.2517 Y1.0084 
G01 X-1.2505 Y1.0161 
G00 Z0.1000 
G00 X-1.3505 Y1.0161 
G01 Z-0.0070 F10.00 
G01 X-1.3505 Y1.0839 F20.00 
G01 X-1.3517 Y1.0916 
G01 X-1.3541 Y1.0990 
G01 X-1.3577 Y1.1059 
G01 X-1.3622 Y1.1122 
G01 X-1.3678 Y1.1178 
G01 X-1.3741 Y1.1223 
G01 X-1.3810 Y1.1259 
G01 X-1.3884 Y1.1283 
G01 X-1.3961 Y1.1295 
G01 X-1.4039 Y1.1295 
G01 X-1.4116 Y1.1283 
G01 X-1.4190 Y1.1259 
G01 X-1.4259 Y1.1223 
G01 X-1.4322 Y1.1178 
G01 X-1.4378 Y1.1122 
G01 X-1.4423 Y1.1059 
G01 X-1.4459 Y1.0990 
G01 X-1.4483 Y1.0916 
G01 X-1.4495 Y1.0839 
G01 X-1.4495 Y1.0161 
G01 X-1.4483 Y1.0084 
G01 X-1.4459 Y1.0010 
G01 X-1.4423 Y0.9941 
G01 X-1.4378 Y0.9878 
G01 X-1.4322 Y0.9822 
G01 X-1.4259 Y0.9777 
G01 X-1.4190 Y0.9741 
G01 X-1.4116 Y0.9717 
G01 X-1.4039 Y0.9705 
G01 X-1.3961 Y0.9705 
G01 X-1.3884 Y0.9717 
G01 X-1.3810 Y0.9741 
G01 X-1.3741 Y0.9777 
G01 X-1.3678 Y0.9822 
G01 X-1.3622 Y0.9878 
G01 X-1.3577 Y0.9941 
G01 X-1.3541 Y1.0010 
G01 X-1.3517 Y1.0084 
G01 X-1.3505 Y1.0161 
G00 Z0.1000 
G00 X-1.3789 Y0.9010 
G01 Z-0.0070 F10.00 
G01 X-1.4211 Y0.9010 F20.00 
G01 X-1.4510 Y0.8711 
G01 X-1.4510 Y0.8289 
G01 X-1.4211 Y0.7990 
G01 X-1.3789 Y0.7990 
G01 X-1.3500 Y0.8279 
G01 X-1.3211 Y0.7990 
G01 X-1.2789 Y0.7990 
G01 X-1.2490 Y0.8289 
G01 X-1.2490 Y0.8711 
G01 X-1.2789 Y0.9010 
G01 X-1.3211 Y0.9010 
G01 X-1.3500 Y0.8721 
G01 X-1.3789 Y0.9010 
G00 Z0.1000 
G00 X-1.6289 Y0.9010 
G01 Z-0.0070 F10.00 
G01 X-1.6711 Y0.9010 F20.00 
G01 X-1.7000 Y0.8721 
G01 X-1.7289 Y0.9010 
G01 X-1.7711 Y0.9010 
G01 X-1.8010 Y0.8711 
G01 X-1.8010 Y0.8289 
G01 X-1.7711 Y0.7990 
G01 X-1.7289 Y0.7990 
G01 X-1.7000 Y0.8279 
G01 X-1.6711 Y0.7990 
G01 X-1.6289 Y0.7990 
G01 X-1.5990 Y0.8289 
G01 X-1.5990 Y0.8711 
G01 X-1.6289 Y0.9010 
G00 Z0.1000 
G00 X-1.6622 Y0.9878 
G01 Z-0.0070 F10.00 
G01 X-1.6577 Y0.9941 F20.00 
G01 X-1.6541 Y1.0010 
G01 X-1.6517 Y1.0084 
G01 X-1.6505 Y1.0161 
G01 X-1.6505 Y1.0839 
G01 X-1.6517 Y1.0916 
G01 X-1.6541 Y1.0990 
G01 X-1.6577 Y1.1059 
G01 X-1.6622 Y1.1122 
G01 X-1.6678 Y1.1178 
G01 X-1.6741 Y1.1223 
G01 X-1.6810 Y1.1259 
G01 X-1.6884 Y1.1283 
G01 X-1.6961 Y1.1295 
G01 X-1.7039 Y1.1295 
G01 X-1.7116 Y1.1283 
G01 X-1.7190 Y1.1259 
G01 X-1.7259 Y1.1223 
G01 X-1.7322 Y1.1178 
G01 X-1.7378 Y1.1122 
G01 X-1.7423 Y1.1059 
G01 X-1.7459 Y1.0990 
G01 X-1.7483 Y1.0916 
G01 X-1.7495 Y1.0839 
G01 X-1.7495 Y1.0161 
G01 X-1.7483 Y1.0084 
G01 X-1.7459 Y1.0010 
G01 X-1.7423 Y0.9941 
G01 X-1.7378 Y0.9878 
G01 X-1.7322 Y0.9822 
G01 X-1.7259 Y0.9777 
G01 X-1.7190 Y0.9741 
G01 X-1.7116 Y0.9717 
G01 X-1.7039 Y0.9705 
G01 X-1.6961 Y0.9705 
G01 X-1.6884 Y0.9717 
G01 X-1.6810 Y0.9741 
G01 X-1.6741 Y0.9777 
G01 X-1.6678 Y0.9822 
G01 X-1.6622 Y0.9878 
G00 Z0.1000 
G00 X-1.7622 Y0.9878 
G01 Z-0.0070 F10.00 
G01 X-1.7577 Y0.9941 F20.00 
G01 X-1.7541 Y1.0010 
G01 X-1.7517 Y1.0084 
G01 X-1.7505 Y1.0161 
G01 X-1.7505 Y1.0839 
G01 X-1.7517 Y1.0916 
G01 X-1.7541 Y1.0990 
G01 X-1.7577 Y1.1059 
G01 X-1.7622 Y1.1122 
G01 X-1.7678 Y1.1178 
G01 X-1.7741 Y1.1223 
G01 X-1.7810 Y1.1259 
G01 X-1.7884 Y1.1283 
G01 X-1.7961 Y1.1295 
G01 X-1.8039 Y1.1295 
G01 X-1.8116 Y1.1283 
G01 X-1.8190 Y1.1259 
G01 X-1.8259 Y1.1223 
G01 X-1.8322 Y1.1178 
G01 X-1.8378 Y1.1122 
G01 X-1.8423 Y1.1059 
G01 X-1.8459 Y1.0990 
G01 X-1.8483 Y1.0916 
G01 X-1.8495 Y1.0839 
G01 X-1.8495 Y1.0161 
G01 X-1.8483 Y1.0084 
G01 X-1.8459 Y1.0010 
G01 X-1.8423 Y0.9941 
G01 X-1.8378 Y0.9878 
G01 X-1.8322 Y0.9822 
G01 X-1.8259 Y0.9777 
G01 X-1.8190 Y0.9741 
G01 X-1.8116 Y0.9717 
G01 X-1.8039 Y0.9705 
G01 X-1.7961 Y0.9705 
G01 X-1.7884 Y0.9717 
G01 X-1.7810 Y0.9741 
G01 X-1.7741 Y0.9777 
G01 X-1.7678 Y0.9822 
G01 X-1.7622 Y0.9878 
G00 Z0.1000 
G00 X-1.7622 Y1.1878 
G01 Z-0.0070 F10.00 
G01 X-1.7577 Y1.1941 F20.00 
G01 X-1.7541 Y1.2010 
G01 X-1.7517 Y1.2084 
G01 X-1.7505 Y1.2161 
G01 X-1.7505 Y1.2839 
G01 X-1.7517 Y1.2916 
G01 X-1.7541 Y1.2990 
G01 X-1.7577 Y1.3059 
G01 X-1.7622 Y1.3122 
G01 X-1.7678 Y1.3178 
G01 X-1.7741 Y1.3223 
G01 X-1.7810 Y1.3259 
G01 X-1.7884 Y1.3283 
G01 X-1.7961 Y1.3295 
G01 X-1.8039 Y1.3295 
G01 X-1.8116 Y1.3283 
G01 X-1.8190 Y1.3259 
G01 X-1.8259 Y1.3223 
G01 X-1.8322 Y1.3178 
G01 X-1.8378 Y1.3122 
G01 X-1.8423 Y1.3059 
G01 X-1.8459 Y1.2990 
G01 X-1.8483 Y1.2916 
G01 X-1.8495 Y1.2839 
G01 X-1.8495 Y1.2161 
G01 X-1.8483 Y1.2084 
G01 X-1.8459 Y1.2010 
G01 X-1.8423 Y1.1941 
G01 X-1.8378 Y1.1878 
G01 X-1.8322 Y1.1822 
G01 X-1.8259 Y1.1777 
G01 X-1.8190 Y1.1741 
G01 X-1.8116 Y1.1717 
G01 X-1.8039 Y1.1705 
G01 X-1.7961 Y1.1705 
G01 X-1.7884 Y1.1717 
G01 X-1.7810 Y1.1741 
G01 X-1.7741 Y1.1777 
G01 X-1.7678 Y1.1822 
G01 X-1.7622 Y1.1878 
G00 Z0.1000 
G00 X-1.7378 Y1.1878 
G01 Z-0.0070 F10.00 
G01 X-1.7322 Y1.1822 F20.00 
G01 X-1.7259 Y1.1777 
G01 X-1.7190 Y1.1741 
G01 X-1.7116 Y1.1717 
G01 X-1.7039 Y1.1705 
G01 X-1.6961 Y1.1705 
G01 X-1.6884 Y1.1717 
G01 X-1.6810 Y1.1741 
G01 X-1.6741 Y1.1777 
G01 X-1.6678 Y1.1822 
G01 X-1.6622 Y1.1878 
G01 X-1.6577 Y1.1941 
G01 X-1.6541 Y1.2010 
G01 X-1.6517 Y1.2084 
G01 X-1.6505 Y1.2161 
G01 X-1.6505 Y1.2839 
G01 X-1.6517 Y1.2916 
G01 X-1.6541 Y1.2990 
G01 X-1.6577 Y1.3059 
G01 X-1.6622 Y1.3122 
G01 X-1.6678 Y1.3178 
G01 X-1.6741 Y1.3223 
G01 X-1.6810 Y1.3259 
G01 X-1.6884 Y1.3283 
G01 X-1.6961 Y1.3295 
G01 X-1.7039 Y1.3295 
G01 X-1.7116 Y1.3283 
G01 X-1.7190 Y1.3259 
G01 X-1.7259 Y1.3223 
G01 X-1.7322 Y1.3178 
G01 X-1.7378 Y1.3122 
G01 X-1.7423 Y1.3059 
G01 X-1.7459 Y1.2990 
G01 X-1.7483 Y1.2916 
G01 X-1.7495 Y1.2839 
G01 X-1.7495 Y1.2161 
G01 X-1.7483 Y1.2084 
G01 X-1.7459 Y1.2010 
G01 X-1.7423 Y1.1941 
G01 X-1.7378 Y1.1878 
G00 Z0.1000 
G00 X-1.7322 Y1.3822 
G01 Z-0.0070 F10.00 
G01 X-1.7259 Y1.3777 F20.00 
G01 X-1.7190 Y1.3741 
G01 X-1.7116 Y1.3717 
G01 X-1.7039 Y1.3705 
G01 X-1.6961 Y1.3705 
G01 X-1.6884 Y1.3717 
G01 X-1.6810 Y1.3741 
G01 X-1.6741 Y1.3777 
G01 X-1.6678 Y1.3822 
G01 X-1.6622 Y1.3878 
G01 X-1.6577 Y1.3941 
G01 X-1.6541 Y1.4010 
G01 X-1.6517 Y1.4084 
G01 X-1.6505 Y1.4161 
G01 X-1.6505 Y1.4839 
G01 X-1.6517 Y1.4916 
G01 X-1.6541 Y1.4990 
G01 X-1.6577 Y1.5059 
G01 X-1.6622 Y1.5122 
G01 X-1.6678 Y1.5178 
G01 X-1.6741 Y1.5223 
G01 X-1.6810 Y1.5259 
G01 X-1.6884 Y1.5283 
G01 X-1.6961 Y1.5295 
G01 X-1.7039 Y1.5295 
G01 X-1.7116 Y1.5283 
G01 X-1.7190 Y1.5259 
G01 X-1.7259 Y1.5223 
G01 X-1.7322 Y1.5178 
G01 X-1.7378 Y1.5122 
G01 X-1.7423 Y1.5059 
G01 X-1.7459 Y1.4990 
G01 X-1.7483 Y1.4916 
G01 X-1.7495 Y1.4839 
G01 X-1.7495 Y1.4161 
G01 X-1.7483 Y1.4084 
G01 X-1.7459 Y1.4010 
G01 X-1.7423 Y1.3941 
G01 X-1.7378 Y1.3878 
G01 X-1.7322 Y1.3822 
G00 Z0.1000 
G00 X-1.7622 Y1.3878 
G01 Z-0.0070 F10.00 
G01 X-1.7577 Y1.3941 F20.00 
G01 X-1.7541 Y1.4010 
G01 X-1.7517 Y1.4084 
G01 X-1.7505 Y1.4161 
G01 X-1.7505 Y1.4839 
G01 X-1.7517 Y1.4916 
G01 X-1.7541 Y1.4990 
G01 X-1.7577 Y1.5059 
G01 X-1.7622 Y1.5122 
G01 X-1.7678 Y1.5178 
G01 X-1.7741 Y1.5223 
G01 X-1.7810 Y1.5259 
G01 X-1.7884 Y1.5283 
G01 X-1.7961 Y1.5295 
G01 X-1.8039 Y1.5295 
G01 X-1.8116 Y1.5283 
G01 X-1.8190 Y1.5259 
G01 X-1.8259 Y1.5223 
G01 X-1.8322 Y1.5178 
G01 X-1.8378 Y1.5122 
G01 X-1.8423 Y1.5059 
G01 X-1.8459 Y1.4990 
G01 X-1.8483 Y1.4916 
G01 X-1.8495 Y1.4839 
G01 X-1.8495 Y1.4161 
G01 X-1.8483 Y1.4084 
G01 X-1.8459 Y1.4010 
G01 X-1.8423 Y1.3941 
G01 X-1.8378 Y1.3878 
G01 X-1.8322 Y1.3822 
G01 X-1.8259 Y1.3777 
G01 X-1.8190 Y1.3741 
G01 X-1.8116 Y1.3717 
G01 X-1.8039 Y1.3705 
G01 X-1.7961 Y1.3705 
G01 X-1.7884 Y1.3717 
G01 X-1.7810 Y1.3741 
G01 X-1.7741 Y1.3777 
G01 X-1.7678 Y1.3822 
G01 X-1.7622 Y1.3878 
G00 Z0.1000 
G00 X-0.9995 Y1.3661 
G01 Z-0.0070 F10.00 
G01 X-0.9983 Y1.3584 F20.00 
G01 X-0.9959 Y1.3510 
G01 X-0.9923 Y1.3441 
G01 X-0.9878 Y1.3378 
G01 X-0.9822 Y1.3322 
G01 X-0.9759 Y1.3277 
G01 X-0.9690 Y1.3241 
G01 X-0.9616 Y1.3217 
G01 X-0.9539 Y1.3205 
G01 X-0.9461 Y1.3205 
G01 X-0.9384 Y1.3217 
G01 X-0.9310 Y1.3241 
G01 X-0.9241 Y1.3277 
G01 X-0.9178 Y1.3322 
G01 X-0.9122 Y1.3378 
G01 X-0.9077 Y1.3441 
G01 X-0.9041 Y1.3510 
G01 X-0.9017 Y1.3584 
G01 X-0.9005 Y1.3661 
G01 X-0.9005 Y1.4339 
G01 X-0.9017 Y1.4416 
G01 X-0.9041 Y1.4490 
G01 X-0.9077 Y1.4559 
G01 X-0.9122 Y1.4622 
G01 X-0.9178 Y1.4678 
G01 X-0.9241 Y1.4723 
G01 X-0.9310 Y1.4759 
G01 X-0.9384 Y1.4783 
G01 X-0.9461 Y1.4795 
G01 X-0.9539 Y1.4795 
G01 X-0.9616 Y1.4783 
G01 X-0.9690 Y1.4759 
G01 X-0.9759 Y1.4723 
G01 X-0.9822 Y1.4678 
G01 X-0.9878 Y1.4622 
G01 X-0.9923 Y1.4559 
G01 X-0.9959 Y1.4490 
G01 X-0.9983 Y1.4416 
G01 X-0.9995 Y1.4339 
G01 X-0.9995 Y1.3661 
G00 Z0.1000 
G00 X-0.8995 Y1.3661 
G01 Z-0.0070 F10.00 
G01 X-0.8983 Y1.3584 F20.00 
G01 X-0.8959 Y1.3510 
G01 X-0.8923 Y1.3441 
G01 X-0.8878 Y1.3378 
G01 X-0.8822 Y1.3322 
G01 X-0.8759 Y1.3277 
G01 X-0.8690 Y1.3241 
G01 X-0.8616 Y1.3217 
G01 X-0.8539 Y1.3205 
G01 X-0.8461 Y1.3205 
G01 X-0.8384 Y1.3217 
G01 X-0.8310 Y1.3241 
G01 X-0.8241 Y1.3277 
G01 X-0.8178 Y1.3322 
G01 X-0.8122 Y1.3378 
G01 X-0.8077 Y1.3441 
G01 X-0.8041 Y1.3510 
G01 X-0.8017 Y1.3584 
G01 X-0.8005 Y1.3661 
G01 X-0.8005 Y1.4339 
G01 X-0.8017 Y1.4416 
G01 X-0.8041 Y1.4490 
G01 X-0.8077 Y1.4559 
G01 X-0.8122 Y1.4622 
G01 X-0.8178 Y1.4678 
G01 X-0.8241 Y1.4723 
G01 X-0.8310 Y1.4759 
G01 X-0.8384 Y1.4783 
G01 X-0.8461 Y1.4795 
G01 X-0.8539 Y1.4795 
G01 X-0.8616 Y1.4783 
G01 X-0.8690 Y1.4759 
G01 X-0.8759 Y1.4723 
G01 X-0.8822 Y1.4678 
G01 X-0.8878 Y1.4622 
G01 X-0.8923 Y1.4559 
G01 X-0.8959 Y1.4490 
G01 X-0.8983 Y1.4416 
G01 X-0.8995 Y1.4339 
G01 X-0.8995 Y1.3661 
(Between Passes)
(Bottom between passes)
G00 Z0.1000 
G00 X-0.8084 Y1.0345 
G01 Z-0.0070 F10.00 
G01 X-0.8034 Y1.0414 F20.00 
G01 X-0.7995 Y1.0491 
G01 X-0.7968 Y1.0572 
G01 X-0.7955 Y1.0657 
G01 X-0.7955 Y1.1343 
G01 X-0.7968 Y1.1428 
G01 X-0.7995 Y1.1509 
G01 X-0.8034 Y1.1586 
G01 X-0.8084 Y1.1655 
G01 X-0.8145 Y1.1716 
G01 X-0.8214 Y1.1766 
G01 X-0.8291 Y1.1805 
G01 X-0.8372 Y1.1832 
G01 X-0.8457 Y1.1845 
G01 X-0.8543 Y1.1845 
G01 X-0.8628 Y1.1832 
G01 X-0.8709 Y1.1805 
G01 X-0.8786 Y1.1766 
G01 X-0.8855 Y1.1716 
G01 X-0.8916 Y1.1655 
G01 X-0.8966 Y1.1586 
G01 X-0.9000 Y1.1519 
G01 X-0.9034 Y1.1586 
G01 X-0.9084 Y1.1655 
G01 X-0.9145 Y1.1716 
G01 X-0.9214 Y1.1766 
G01 X-0.9291 Y1.1805 
G01 X-0.9372 Y1.1832 
G01 X-0.9457 Y1.1845 
G01 X-0.9543 Y1.1845 
G01 X-0.9628 Y1.1832 
G01 X-0.9709 Y1.1805 
G01 X-0.9786 Y1.1766 
G01 X-0.9855 Y1.1716 
G01 X-0.9916 Y1.1655 
G01 X-0.9966 Y1.1586 
G01 X-1.0005 Y1.1509 
G01 X-1.0032 Y1.1428 
G01 X-1.0045 Y1.1343 
G01 X-1.0045 Y1.0657 
G01 X-1.0032 Y1.0572 
G01 X-1.0005 Y1.0491 
G01 X-0.9966 Y1.0414 
G01 X-0.9916 Y1.0345 
G01 X-0.9855 Y1.0284 
G01 X-0.9786 Y1.0234 
G01 X-0.9709 Y1.0195 
G01 X-0.9628 Y1.0168 
G01 X-0.9543 Y1.0155 
G01 X-0.9457 Y1.0155 
G01 X-0.9372 Y1.0168 
G01 X-0.9291 Y1.0195 
G01 X-0.9214 Y1.0234 
G01 X-0.9145 Y1.0284 
G01 X-0.9084 Y1.0345 
G01 X-0.9034 Y1.0414 
G01 X-0.9000 Y1.0481 
G01 X-0.8966 Y1.0414 
G01 X-0.8916 Y1.0345 
G01 X-0.8855 Y1.0284 
G01 X-0.8786 Y1.0234 
G01 X-0.8709 Y1.0195 
G01 X-0.8628 Y1.0168 
G01 X-0.8543 Y1.0155 
G01 X-0.8457 Y1.0155 
G01 X-0.8372 Y1.0168 
G01 X-0.8291 Y1.0195 
G01 X-0.8214 Y1.0234 
G01 X-0.8145 Y1.0284 
G01 X-0.8084 Y1.0345 
G00 Z0.1000 
G00 X-0.8084 Y1.3345 
G01 Z-0.0070 F10.00 
G01 X-0.8034 Y1.3414 F20.00 
G01 X-0.7995 Y1.3491 
G01 X-0.7968 Y1.3572 
G01 X-0.7955 Y1.3657 
G01 X-0.7955 Y1.4343 
G01 X-0.7968 Y1.4428 
G01 X-0.7995 Y1.4509 
G01 X-0.8034 Y1.4586 
G01 X-0.8084 Y1.4655 
G01 X-0.8145 Y1.4716 
G01 X-0.8214 Y1.4766 
G01 X-0.8291 Y1.4805 
G01 X-0.8372 Y1.4832 
G01 X-0.8457 Y1.4845 
G01 X-0.8543 Y1.4845 
G01 X-0.8628 Y1.4832 
G01 X-0.8709 Y1.4805 
G01 X-0.8786 Y1.4766 
G01 X-0.8855 Y1.4716 
G01 X-0.8916 Y1.4655 
G01 X-0.8966 Y1.4586 
G01 X-0.9000 Y1.4519 
G01 X-0.9034 Y1.4586 
G01 X-0.9084 Y1.4655 
G01 X-0.9145 Y1.4716 
G01 X-0.9214 Y1.4766 
G01 X-0.9291 Y1.4805 
G01 X-0.9372 Y1.4832 
G01 X-0.9457 Y1.4845 
G01 X-0.9543 Y1.4845 
G01 X-0.9628 Y1.4832 
G01 X-0.9709 Y1.4805 
G01 X-0.9786 Y1.4766 
G01 X-0.9855 Y1.4716 
G01 X-0.9916 Y1.4655 
G01 X-0.9966 Y1.4586 
G01 X-1.0005 Y1.4509 
G01 X-1.0032 Y1.4428 
G01 X-1.0045 Y1.4343 
G01 X-1.0045 Y1.3657 
G01 X-1.0032 Y1.3572 
G01 X-1.0005 Y1.3491 
G01 X-0.9966 Y1.3414 
G01 X-0.9916 Y1.3345 
G01 X-0.9855 Y1.3284 
G01 X-0.9786 Y1.3234 
G01 X-0.9709 Y1.3195 
G01 X-0.9628 Y1.3168 
G01 X-0.9543 Y1.3155 
G01 X-0.9457 Y1.3155 
G01 X-0.9372 Y1.3168 
G01 X-0.9291 Y1.3195 
G01 X-0.9214 Y1.3234 
G01 X-0.9145 Y1.3284 
G01 X-0.9084 Y1.3345 
G01 X-0.9034 Y1.3414 
G01 X-0.9000 Y1.3481 
G01 X-0.8966 Y1.3414 
G01 X-0.8916 Y1.3345 
G01 X-0.8855 Y1.3284 
G01 X-0.8786 Y1.3234 
G01 X-0.8709 Y1.3195 
G01 X-0.8628 Y1.3168 
G01 X-0.8543 Y1.3155 
G01 X-0.8457 Y1.3155 
G01 X-0.8372 Y1.3168 
G01 X-0.8291 Y1.3195 
G01 X-0.8214 Y1.3234 
G01 X-0.8145 Y1.3284 
G01 X-0.8084 Y1.3345 
G00 Z0.1000 
G00 X-1.1645 Y1.1216 
G01 Z-0.0070 F10.00 
G01 X-1.1714 Y1.1266 F20.00 
G01 X-1.1791 Y1.1305 
G01 X-1.1872 Y1.1332 
G01 X-1.1957 Y1.1345 
G01 X-1.2043 Y1.1345 
G01 X-1.2128 Y1.1332 
G01 X-1.2209 Y1.1305 
G01 X-1.2286 Y1.1266 
G01 X-1.2355 Y1.1216 
G01 X-1.2416 Y1.1155 
G01 X-1.2466 Y1.1086 
G01 X-1.2500 Y1.1019 
G01 X-1.2534 Y1.1086 
G01 X-1.2584 Y1.1155 
G01 X-1.2645 Y1.1216 
G01 X-1.2714 Y1.1266 
G01 X-1.2791 Y1.1305 
G01 X-1.2872 Y1.1332 
G01 X-1.2957 Y1.1345 
G01 X-1.3043 Y1.1345 
G01 X-1.3128 Y1.1332 
G01 X-1.3209 Y1.1305 
G01 X-1.3286 Y1.1266 
G01 X-1.3355 Y1.1216 
G01 X-1.3416 Y1.1155 
G01 X-1.3466 Y1.1086 
G01 X-1.3500 Y1.1019 
G01 X-1.3534 Y1.1086 
G01 X-1.3584 Y1.1155 
G01 X-1.3645 Y1.1216 
G01 X-1.3714 Y1.1266 
G01 X-1.3791 Y1.1305 
G01 X-1.3872 Y1.1332 
G01 X-1.3957 Y1.1345 
G01 X-1.4043 Y1.1345 
G01 X-1.4128 Y1.1332 
G01 X-1.4209 Y1.1305 
G01 X-1.4286 Y1.1266 
G01 X-1.4355 Y1.1216 
G01 X-1.4416 Y1.1155 
G01 X-1.4466 Y1.1086 
G01 X-1.4505 Y1.1009 
G01 X-1.4532 Y1.0928 
G01 X-1.4545 Y1.0843 
G01 X-1.4545 Y1.0157 
G01 X-1.4532 Y1.0072 
G01 X-1.4505 Y0.9991 
G01 X-1.4466 Y0.9914 
G01 X-1.4416 Y0.9845 
G01 X-1.4355 Y0.9784 
G01 X-1.4286 Y0.9734 
G01 X-1.4209 Y0.9695 
G01 X-1.4128 Y0.9668 
G01 X-1.4043 Y0.9655 
G01 X-1.3957 Y0.9655 
G01 X-1.3872 Y0.9668 
G01 X-1.3791 Y0.9695 
G01 X-1.3714 Y0.9734 
G01 X-1.3645 Y0.9784 
G01 X-1.3584 Y0.9845 
G01 X-1.3534 Y0.9914 
G01 X-1.3500 Y0.9981 
G01 X-1.3466 Y0.9914 
G01 X-1.3416 Y0.9845 
G01 X-1.3355 Y0.9784 
G01 X-1.3286 Y0.9734 
G01 X-1.3209 Y0.9695 
G01 X-1.3128 Y0.9668 
G01 X-1.3043 Y0.9655 
G01 X-1.2957 Y0.9655 
G01 X-1.2872 Y0.9668 
G01 X-1.2791 Y0.9695 
G01 X-1.2714 Y0.9734 
G01 X-1.2645 Y0.9784 
G01 X-1.2584 Y0.9845 
G01 X-1.2534 Y0.9914 
G01 X-1.2500 Y0.9981 
G01 X-1.2466 Y0.9914 
G01 X-1.2416 Y0.9845 
G01 X-1.2355 Y0.9784 
G01 X-1.2286 Y0.9734 
G01 X-1.2209 Y0.9695 
G01 X-1.2128 Y0.9668 
G01 X-1.2043 Y0.9655 
G01 X-1.1957 Y0.9655 
G01 X-1.1872 Y0.9668 
G01 X-1.1791 Y0.9695 
G01 X-1.1714 Y0.9734 
G01 X-1.1645 Y0.9784 
G01 X-1.1584 Y0.9845 
G01 X-1.1534 Y0.9914 
G01 X-1.1495 Y0.9991 
G01 X-1.1468 Y1.0072 
G01 X-1.1455 Y1.0157 
G01 X-1.1455 Y1.0843 
G01 X-1.1468 Y1.0928 
G01 X-1.1495 Y1.1009 
G01 X-1.1534 Y1.1086 
G01 X-1.1584 Y1.1155 
G01 X-1.1645 Y1.1216 
G00 Z0.1000 
G00 X-1.2768 Y0.9060 
G01 Z-0.0070 F10.00 
G01 X-1.3232 Y0.9060 F20.00 
G01 X-1.3500 Y0.8792 
G01 X-1.3768 Y0.9060 
G01 X-1.4232 Y0.9060 
G01 X-1.4560 Y0.8732 
G01 X-1.4560 Y0.8268 
G01 X-1.4232 Y0.7940 
G01 X-1.3768 Y0.7940 
G01 X-1.3500 Y0.8208 
G01 X-1.3232 Y0.7940 
G01 X-1.2768 Y0.7940 
G01 X-1.2440 Y0.8268 
G01 X-1.2440 Y0.8732 
G01 X-1.2768 Y0.9060 
G00 Z0.1000 
G00 X-1.6268 Y0.9060 
G01 Z-0.0070 F10.00 
G01 X-1.6732 Y0.9060 F20.00 
G01 X-1.7000 Y0.8792 
G01 X-1.7268 Y0.9060 
G01 X-1.7732 Y0.9060 
G01 X-1.8060 Y0.8732 
G01 X-1.8060 Y0.8268 
G01 X-1.7732 Y0.7940 
G01 X-1.7268 Y0.7940 
G01 X-1.7000 Y0.8208 
G01 X-1.6732 Y0.7940 
G01 X-1.6268 Y0.7940 
G01 X-1.5940 Y0.8268 
G01 X-1.5940 Y0.8732 
G01 X-1.6268 Y0.9060 
G00 Z0.1000 
G00 X-1.6584 Y0.9845 
G01 Z-0.0070 F10.00 
G01 X-1.6534 Y0.9914 F20.00 
G01 X-1.6495 Y0.9991 
G01 X-1.6468 Y1.0072 
G01 X-1.6455 Y1.0157 
G01 X-1.6455 Y1.0843 
G01 X-1.6468 Y1.0928 
G01 X-1.6495 Y1.1009 
G01 X-1.6534 Y1.1086 
G01 X-1.6584 Y1.1155 
G01 X-1.6645 Y1.1216 
G01 X-1.6714 Y1.1266 
G01 X-1.6791 Y1.1305 
G01 X-1.6872 Y1.1332 
G01 X-1.6957 Y1.1345 
G01 X-1.7043 Y1.1345 
G01 X-1.7128 Y1.1332 
G01 X-1.7209 Y1.1305 
G01 X-1.7286 Y1.1266 
G01 X-1.7355 Y1.1216 
G01 X-1.7416 Y1.1155 
G01 X-1.7466 Y1.1086 
G01 X-1.7500 Y1.1019 
G01 X-1.7534 Y1.1086 
G01 X-1.7584 Y1.1155 
G01 X-1.7645 Y1.1216 
G01 X-1.7714 Y1.1266 
G01 X-1.7791 Y1.1305 
G01 X-1.7872 Y1.1332 
G01 X-1.7957 Y1.1345 
G01 X-1.8043 Y1.1345 
G01 X-1.8128 Y1.1332 
G01 X-1.8209 Y1.1305 
G01 X-1.8286 Y1.1266 
G01 X-1.8355 Y1.1216 
G01 X-1.8416 Y1.1155 
G01 X-1.8466 Y1.1086 
G01 X-1.8505 Y1.1009 
G01 X-1.8532 Y1.0928 
G01 X-1.8545 Y1.0843 
G01 X-1.8545 Y1.0157 
G01 X-1.8532 Y1.0072 
G01 X-1.8505 Y0.9991 
G01 X-1.8466 Y0.9914 
G01 X-1.8416 Y0.9845 
G01 X-1.8355 Y0.9784 
G01 X-1.8286 Y0.9734 
G01 X-1.8209 Y0.9695 
G01 X-1.8128 Y0.9668 
G01 X-1.8043 Y0.9655 
G01 X-1.7957 Y0.9655 
G01 X-1.7872 Y0.9668 
G01 X-1.7791 Y0.9695 
G01 X-1.7714 Y0.9734 
G01 X-1.7645 Y0.9784 
G01 X-1.7584 Y0.9845 
G01 X-1.7534 Y0.9914 
G01 X-1.7500 Y0.9981 
G01 X-1.7466 Y0.9914 
G01 X-1.7416 Y0.9845 
G01 X-1.7355 Y0.9784 
G01 X-1.7286 Y0.9734 
G01 X-1.7209 Y0.9695 
G01 X-1.7128 Y0.9668 
G01 X-1.7043 Y0.9655 
G01 X-1.6957 Y0.9655 
G01 X-1.6872 Y0.9668 
G01 X-1.6791 Y0.9695 
G01 X-1.6714 Y0.9734 
G01 X-1.6645 Y0.9784 
G01 X-1.6584 Y0.9845 
G00 Z0.1000 
G00 X-1.6584 Y1.1845 
G01 Z-0.0070 F10.00 
G01 X-1.6534 Y1.1914 F20.00 
G01 X-1.6495 Y1.1991 
G01 X-1.6468 Y1.2072 
G01 X-1.6455 Y1.2157 
G01 X-1.6455 Y1.2843 
G01 X-1.6468 Y1.2928 
G01 X-1.6495 Y1.3009 
G01 X-1.6534 Y1.3086 
G01 X-1.6584 Y1.3155 
G01 X-1.6645 Y1.3216 
G01 X-1.6714 Y1.3266 
G01 X-1.6791 Y1.3305 
G01 X-1.6872 Y1.3332 
G01 X-1.6957 Y1.3345 
G01 X-1.7043 Y1.3345 
G01 X-1.7128 Y1.3332 
G01 X-1.7209 Y1.3305 
G01 X-1.7286 Y1.3266 
G01 X-1.7355 Y1.3216 
G01 X-1.7416 Y1.3155 
G01 X-1.7466 Y1.3086 
G01 X-1.7500 Y1.3019 
G01 X-1.7534 Y1.3086 
G01 X-1.7584 Y1.3155 
G01 X-1.7645 Y1.3216 
G01 X-1.7714 Y1.3266 
G01 X-1.7791 Y1.3305 
G01 X-1.7872 Y1.3332 
G01 X-1.7957 Y1.3345 
G01 X-1.8043 Y1.3345 
G01 X-1.8128 Y1.3332 
G01 X-1.8209 Y1.3305 
G01 X-1.8286 Y1.3266 
G01 X-1.8355 Y1.3216 
G01 X-1.8416 Y1.3155 
G01 X-1.8466 Y1.3086 
G01 X-1.8505 Y1.3009 
G01 X-1.8532 Y1.2928 
G01 X-1.8545 Y1.2843 
G01 X-1.8545 Y1.2157 
G01 X-1.8532 Y1.2072 
G01 X-1.8505 Y1.1991 
G01 X-1.8466 Y1.1914 
G01 X-1.8416 Y1.1845 
G01 X-1.8355 Y1.1784 
G01 X-1.8286 Y1.1734 
G01 X-1.8209 Y1.1695 
G01 X-1.8128 Y1.1668 
G01 X-1.8043 Y1.1655 
G01 X-1.7957 Y1.1655 
G01 X-1.7872 Y1.1668 
G01 X-1.7791 Y1.1695 
G01 X-1.7714 Y1.1734 
G01 X-1.7645 Y1.1784 
G01 X-1.7584 Y1.1845 
G01 X-1.7534 Y1.1914 
G01 X-1.7500 Y1.1981 
G01 X-1.7466 Y1.1914 
G01 X-1.7416 Y1.1845 
G01 X-1.7355 Y1.1784 
G01 X-1.7286 Y1.1734 
G01 X-1.7209 Y1.1695 
G01 X-1.7128 Y1.1668 
G01 X-1.7043 Y1.1655 
G01 X-1.6957 Y1.1655 
G01 X-1.6872 Y1.1668 
G01 X-1.6791 Y1.1695 
G01 X-1.6714 Y1.1734 
G01 X-1.6645 Y1.1784 
G01 X-1.6584 Y1.1845 
G00 Z0.1000 
G00 X-1.6584 Y1.3845 
G01 Z-0.0070 F10.00 
G01 X-1.6534 Y1.3914 F20.00 
G01 X-1.6495 Y1.3991 
G01 X-1.6468 Y1.4072 
G01 X-1.6455 Y1.4157 
G01 X-1.6455 Y1.4843 
G01 X-1.6468 Y1.4928 
G01 X-1.6495 Y1.5009 
G01 X-1.6534 Y1.5086 
G01 X-1.6584 Y1.5155 
G01 X-1.6645 Y1.5216 
G01 X-1.6714 Y1.5266 
G01 X-1.6791 Y1.5305 
G01 X-1.6872 Y1.5332 
G01 X-1.6957 Y1.5345 
G01 X-1.7043 Y1.5345 
G01 X-1.7128 Y1.5332 
G01 X-1.7209 Y1.5305 
G01 X-1.7286 Y1.5266 
G01 X-1.7355 Y1.5216 
G01 X-1.7416 Y1.5155 
G01 X-1.7466 Y1.5086 
G01 X-1.7500 Y1.5019 
G01 X-1.7534 Y1.5086 
G01 X-1.7584 Y1.5155 
G01 X-1.7645 Y1.5216 
G01 X-1.7714 Y1.5266 
G01 X-1.7791 Y1.5305 
G01 X-1.7872 Y1.5332 
G01 X-1.7957 Y1.5345 
G01 X-1.8043 Y1.5345 
G01 X-1.8128 Y1.5332 
G01 X-1.8209 Y1.5305 
G01 X-1.8286 Y1.5266 
G01 X-1.8355 Y1.5216 
G01 X-1.8416 Y1.5155 
G01 X-1.8466 Y1.5086 
G01 X-1.8505 Y1.5009 
G01 X-1.8532 Y1.4928 
G01 X-1.8545 Y1.4843 
G01 X-1.8545 Y1.4157 
G01 X-1.8532 Y1.4072 
G01 X-1.8505 Y1.3991 
G01 X-1.8466 Y1.3914 
G01 X-1.8416 Y1.3845 
G01 X-1.8355 Y1.3784 
G01 X-1.8286 Y1.3734 
G01 X-1.8209 Y1.3695 
G01 X-1.8128 Y1.3668 
G01 X-1.8043 Y1.3655 
G01 X-1.7957 Y1.3655 
G01 X-1.7872 Y1.3668 
G01 X-1.7791 Y1.3695 
G01 X-1.7714 Y1.3734 
G01 X-1.7645 Y1.3784 
G01 X-1.7584 Y1.3845 
G01 X-1.7534 Y1.3914 
G01 X-1.7500 Y1.3981 
G01 X-1.7466 Y1.3914 
G01 X-1.7416 Y1.3845 
G01 X-1.7355 Y1.3784 
G01 X-1.7286 Y1.3734 
G01 X-1.7209 Y1.3695 
G01 X-1.7128 Y1.3668 
G01 X-1.7043 Y1.3655 
G01 X-1.6957 Y1.3655 
G01 X-1.6872 Y1.3668 
G01 X-1.6791 Y1.3695 
G01 X-1.6714 Y1.3734 
G01 X-1.6645 Y1.3784 
G01 X-1.6584 Y1.3845 
(Bottom outline End)
(Outline End)
(End of every bottom file)
(End of every file)
G00 Z0.1000 
G00 Z0.100000
G00 X-1.4000 Y0.8500 
G01 Z-0.0130 F20.00 
G01 Z0.100000
(R0.1000  P1.000000)
G00 X-1.3000 Y0.8500 
G01 Z-0.0130 
G01 Z0.100000
G00 X-1.7500 Y0.8500 
G01 Z-0.0130 
G01 Z0.100000
G00 X-1.6500 Y0.8500 
G01 Z-0.0130 
G01 Z0.100000
G00 X-1.2000 Y1.0500 
G01 Z-0.0130 
G01 Z0.100000
G00 X-1.3000 Y1.0500 
G01 Z-0.0130 
G01 Z0.100000
G00 X-1.4000 Y1.0500 
G01 Z-0.0130 
G01 Z0.100000
G00 X-1.8000 Y1.0500 
G01 Z-0.0130 
G01 Z0.100000
G00 X-1.7000 Y1.0500 
G01 Z-0.0130 
G01 Z0.100000
G00 X-1.8000 Y1.2500 
G01 Z-0.0130 
G01 Z0.100000
G00 X-1.7000 Y1.2500 
G01 Z-0.0130 
G01 Z0.100000
G00 X-1.8000 Y1.4500 
G01 Z-0.0130 
G01 Z0.100000
G00 X-1.7000 Y1.4500 
G01 Z-0.0130 
G01 Z0.100000
G00 X-0.8500 Y1.1000 
G01 Z-0.0130 
G01 Z0.100000
G00 X-0.9500 Y1.1000 
G01 Z-0.0130 
G01 Z0.100000
G00 X-0.8500 Y1.4000 
G01 Z-0.0130 
G01 Z0.100000
G00 X-0.9500 Y1.4000 
G01 Z-0.0130 
G01 Z0.100000
G00 Z0.5000 
M05
M02
